MoveL RelTool (p1,13.000000,10.000000,11.780376,\Rx:=-0.000000,\Ry:=10.123365),vel1,zoneval,tool_new\WObj:=Workobject_1;
MoveL RelTool (p1,13.000000,10.500000,11.780376,\Rx:=-0.000000,\Ry:=10.123365),vel1,zoneval,tool_new\WObj:=Workobject_1;
MoveL RelTool (p1,13.000000,11.000000,11.780376,\Rx:=-0.000000,\Ry:=10.123365),vel1,zoneval,tool_new\WObj:=Workobject_1;
MoveL RelTool (p1,14.000000,10.000000,11.194381,\Rx:=-0.000000,\Ry:=10.123365),vel1,zoneval,tool_new\WObj:=Workobject_1;
MoveL RelTool (p1,14.500000,10.000000,10.901383,\Rx:=-0.000000,\Ry:=10.123365),vel1,zoneval,tool_new\WObj:=Workobject_1;
MoveL RelTool (p1,13.000000,11.500000,11.780376,\Rx:=-0.000000,\Ry:=10.123365),vel1,zoneval,tool_new\WObj:=Workobject_1;
MoveL RelTool (p1,13.000000,12.000000,11.780376,\Rx:=-0.000000,\Ry:=10.123365),vel1,zoneval,tool_new\WObj:=Workobject_1;
MoveL RelTool (p1,13.500000,11.500000,11.487379,\Rx:=-0.000000,\Ry:=10.123365),vel1,zoneval,tool_new\WObj:=Workobject_1;
MoveL RelTool (p1,15.000000,10.000000,10.648257,\Rx:=-0.000000,\Ry:=8.932382),vel1,zoneval,tool_new\WObj:=Workobject_1;
MoveL RelTool (p1,15.500000,10.000000,10.395720,\Rx:=-0.000000,\Ry:=8.932382),vel1,zoneval,tool_new\WObj:=Workobject_1;
MoveL RelTool (p1,14.000000,11.500000,11.194381,\Rx:=-0.000000,\Ry:=10.123365),vel1,zoneval,tool_new\WObj:=Workobject_1;
MoveL RelTool (p1,13.000000,12.500000,11.780376,\Rx:=0.000000,\Ry:=10.123365),vel1,zoneval,tool_new\WObj:=Workobject_1;
MoveL RelTool (p1,13.000000,13.000000,11.780376,\Rx:=0.000000,\Ry:=10.123365),vel1,zoneval,tool_new\WObj:=Workobject_1;
MoveL RelTool (p1,15.000000,11.000000,10.648257,\Rx:=-0.000000,\Ry:=8.932382),vel1,zoneval,tool_new\WObj:=Workobject_1;
MoveL RelTool (p1,16.000000,10.000000,10.143183,\Rx:=-0.000000,\Ry:=8.932382),vel1,zoneval,tool_new\WObj:=Workobject_1;
MoveL RelTool (p1,16.500000,10.000000,9.890646,\Rx:=-0.000000,\Ry:=8.932382),vel1,zoneval,tool_new\WObj:=Workobject_1;
MoveL RelTool (p1,14.500000,12.000000,10.901383,\Rx:=-0.000000,\Ry:=10.123365),vel1,zoneval,tool_new\WObj:=Workobject_1;
MoveL RelTool (p1,13.000000,13.500000,11.780376,\Rx:=0.000000,\Ry:=10.123365),vel1,zoneval,tool_new\WObj:=Workobject_1;
MoveL RelTool (p1,13.000000,14.000000,11.780376,\Rx:=0.000000,\Ry:=10.123365),vel1,zoneval,tool_new\WObj:=Workobject_1;
MoveL RelTool (p1,14.500000,12.500000,10.901383,\Rx:=-0.000000,\Ry:=10.123365),vel1,zoneval,tool_new\WObj:=Workobject_1;
MoveL RelTool (p1,17.000000,10.000000,9.672951,\Rx:=-0.000000,\Ry:=7.741388),vel1,zoneval,tool_new\WObj:=Workobject_1;
MoveL RelTool (p1,17.500000,10.000000,9.458401,\Rx:=-0.000000,\Ry:=7.741388),vel1,zoneval,tool_new\WObj:=Workobject_1;
MoveL RelTool (p1,17.000000,10.500000,9.672951,\Rx:=-0.000000,\Ry:=7.741388),vel1,zoneval,tool_new\WObj:=Workobject_1;
MoveL RelTool (p1,14.500000,13.000000,10.901383,\Rx:=-0.000000,\Ry:=10.123365),vel1,zoneval,tool_new\WObj:=Workobject_1;
MoveL RelTool (p1,13.000000,14.500000,11.780376,\Rx:=0.000000,\Ry:=10.123365),vel1,zoneval,tool_new\WObj:=Workobject_1;
MoveL RelTool (p1,13.000000,15.000000,11.780376,\Rx:=0.000000,\Ry:=10.123365),vel1,zoneval,tool_new\WObj:=Workobject_1;
MoveL RelTool (p1,14.500000,13.500000,10.901383,\Rx:=-0.000000,\Ry:=10.123365),vel1,zoneval,tool_new\WObj:=Workobject_1;
MoveL RelTool (p1,17.000000,11.000000,9.672951,\Rx:=-0.000000,\Ry:=7.741388),vel1,zoneval,tool_new\WObj:=Workobject_1;
MoveL RelTool (p1,18.000000,10.000000,9.243851,\Rx:=-0.000000,\Ry:=7.741388),vel1,zoneval,tool_new\WObj:=Workobject_1;
MoveL RelTool (p1,18.500000,10.000000,9.029301,\Rx:=-0.000000,\Ry:=7.741388),vel1,zoneval,tool_new\WObj:=Workobject_1;
MoveL RelTool (p1,16.500000,12.000000,9.890646,\Rx:=-0.000000,\Ry:=8.932382),vel1,zoneval,tool_new\WObj:=Workobject_1;
MoveL RelTool (p1,14.000000,14.500000,11.194381,\Rx:=-0.000000,\Ry:=10.123365),vel1,zoneval,tool_new\WObj:=Workobject_1;
MoveL RelTool (p1,13.000000,15.500000,11.780376,\Rx:=0.000000,\Ry:=10.123365),vel1,zoneval,tool_new\WObj:=Workobject_1;
MoveL RelTool (p1,13.000000,16.000000,11.780376,\Rx:=0.000000,\Ry:=10.123365),vel1,zoneval,tool_new\WObj:=Workobject_1;
MoveL RelTool (p1,15.000000,14.000000,10.648257,\Rx:=0.000000,\Ry:=8.932382),vel1,zoneval,tool_new\WObj:=Workobject_1;
MoveL RelTool (p1,17.500000,11.500000,9.458401,\Rx:=-0.000000,\Ry:=7.741388),vel1,zoneval,tool_new\WObj:=Workobject_1;
MoveL RelTool (p1,19.000000,10.000000,8.840993,\Rx:=-0.000000,\Ry:=6.550413),vel1,zoneval,tool_new\WObj:=Workobject_1;
MoveL RelTool (p1,19.500000,10.000000,8.662447,\Rx:=-0.000000,\Ry:=6.550413),vel1,zoneval,tool_new\WObj:=Workobject_1;
MoveL RelTool (p1,18.000000,11.500000,9.243851,\Rx:=-0.000000,\Ry:=7.741388),vel1,zoneval,tool_new\WObj:=Workobject_1;
MoveL RelTool (p1,15.500000,14.000000,10.395720,\Rx:=-0.000000,\Ry:=8.932382),vel1,zoneval,tool_new\WObj:=Workobject_1;
MoveL RelTool (p1,13.000000,16.500000,11.780376,\Rx:=0.000000,\Ry:=10.123365),vel1,zoneval,tool_new\WObj:=Workobject_1;
MoveL RelTool (p1,13.000000,17.000000,11.780376,\Rx:=0.000000,\Ry:=10.123365),vel1,zoneval,tool_new\WObj:=Workobject_1;
MoveL RelTool (p1,13.500000,16.500000,11.487379,\Rx:=0.000000,\Ry:=10.123365),vel1,zoneval,tool_new\WObj:=Workobject_1;
MoveL RelTool (p1,16.000000,14.000000,10.143183,\Rx:=-0.000000,\Ry:=8.932382),vel1,zoneval,tool_new\WObj:=Workobject_1;
MoveL RelTool (p1,18.500000,11.500000,9.029301,\Rx:=-0.000000,\Ry:=7.741388),vel1,zoneval,tool_new\WObj:=Workobject_1;
MoveL RelTool (p1,20.000000,10.000000,8.483901,\Rx:=-0.000000,\Ry:=6.550413),vel1,zoneval,tool_new\WObj:=Workobject_1;
MoveL RelTool (p1,20.500000,10.000000,8.305355,\Rx:=-0.000000,\Ry:=6.550413),vel1,zoneval,tool_new\WObj:=Workobject_1;
MoveL RelTool (p1,19.000000,11.500000,8.840993,\Rx:=-0.000000,\Ry:=6.550413),vel1,zoneval,tool_new\WObj:=Workobject_1;
MoveL RelTool (p1,16.500000,14.000000,9.890646,\Rx:=-0.000000,\Ry:=8.932382),vel1,zoneval,tool_new\WObj:=Workobject_1;
MoveL RelTool (p1,14.000000,16.500000,11.194381,\Rx:=-0.000000,\Ry:=10.123365),vel1,zoneval,tool_new\WObj:=Workobject_1;
MoveL RelTool (p1,13.000000,17.500000,11.780376,\Rx:=0.000000,\Ry:=10.123365),vel1,zoneval,tool_new\WObj:=Workobject_1;
MoveL RelTool (p1,13.000000,18.000000,11.780376,\Rx:=0.000000,\Ry:=10.123365),vel1,zoneval,tool_new\WObj:=Workobject_1;
MoveL RelTool (p1,15.000000,16.000000,10.648257,\Rx:=0.000000,\Ry:=8.932382),vel1,zoneval,tool_new\WObj:=Workobject_1;
MoveL RelTool (p1,17.500000,13.500000,9.458401,\Rx:=-0.000000,\Ry:=7.741388),vel1,zoneval,tool_new\WObj:=Workobject_1;
MoveL RelTool (p1,20.000000,11.000000,8.483901,\Rx:=-0.000000,\Ry:=6.550413),vel1,zoneval,tool_new\WObj:=Workobject_1;
MoveL RelTool (p1,21.000000,10.000000,8.141843,\Rx:=-0.000000,\Ry:=5.359427),vel1,zoneval,tool_new\WObj:=Workobject_1;
MoveL RelTool (p1,21.500000,10.000000,7.997731,\Rx:=-0.000000,\Ry:=5.359427),vel1,zoneval,tool_new\WObj:=Workobject_1;
MoveL RelTool (p1,19.500000,12.000000,8.662447,\Rx:=-0.000000,\Ry:=6.550413),vel1,zoneval,tool_new\WObj:=Workobject_1;
MoveL RelTool (p1,17.000000,14.500000,9.672951,\Rx:=0.000000,\Ry:=7.741388),vel1,zoneval,tool_new\WObj:=Workobject_1;
MoveL RelTool (p1,14.500000,17.000000,10.901383,\Rx:=-0.000000,\Ry:=10.123365),vel1,zoneval,tool_new\WObj:=Workobject_1;
MoveL RelTool (p1,13.000000,18.500000,11.780376,\Rx:=0.000000,\Ry:=10.123365),vel1,zoneval,tool_new\WObj:=Workobject_1;
MoveL RelTool (p1,13.000000,19.000000,11.780376,\Rx:=0.000000,\Ry:=10.123365),vel1,zoneval,tool_new\WObj:=Workobject_1;
MoveL RelTool (p1,14.500000,17.500000,10.901383,\Rx:=-0.000000,\Ry:=10.123365),vel1,zoneval,tool_new\WObj:=Workobject_1;
MoveL RelTool (p1,17.000000,15.000000,9.672951,\Rx:=0.000000,\Ry:=7.741388),vel1,zoneval,tool_new\WObj:=Workobject_1;
MoveL RelTool (p1,19.500000,12.500000,8.662447,\Rx:=-0.000000,\Ry:=6.550413),vel1,zoneval,tool_new\WObj:=Workobject_1;
MoveL RelTool (p1,22.000000,10.000000,7.853619,\Rx:=-0.000000,\Ry:=5.359427),vel1,zoneval,tool_new\WObj:=Workobject_1;
MoveL RelTool (p1,22.500000,10.000000,7.709506,\Rx:=-0.000000,\Ry:=5.359427),vel1,zoneval,tool_new\WObj:=Workobject_1;
MoveL RelTool (p1,22.000000,10.500000,7.853619,\Rx:=-0.000000,\Ry:=5.359427),vel1,zoneval,tool_new\WObj:=Workobject_1;
MoveL RelTool (p1,19.500000,13.000000,8.662447,\Rx:=-0.000000,\Ry:=6.550413),vel1,zoneval,tool_new\WObj:=Workobject_1;
MoveL RelTool (p1,17.000000,15.500000,9.672951,\Rx:=0.000000,\Ry:=7.741388),vel1,zoneval,tool_new\WObj:=Workobject_1;
MoveL RelTool (p1,14.500000,18.000000,10.901383,\Rx:=-0.000000,\Ry:=10.123365),vel1,zoneval,tool_new\WObj:=Workobject_1;
MoveL RelTool (p1,13.000000,19.500000,11.780376,\Rx:=0.000000,\Ry:=10.123365),vel1,zoneval,tool_new\WObj:=Workobject_1;
MoveL RelTool (p1,13.000000,20.000000,11.780376,\Rx:=0.000000,\Ry:=10.123365),vel1,zoneval,tool_new\WObj:=Workobject_1;
MoveL RelTool (p1,14.500000,18.500000,10.901383,\Rx:=-0.000000,\Ry:=10.123365),vel1,zoneval,tool_new\WObj:=Workobject_1;
MoveL RelTool (p1,17.000000,16.000000,9.672951,\Rx:=0.000000,\Ry:=7.741388),vel1,zoneval,tool_new\WObj:=Workobject_1;
MoveL RelTool (p1,19.500000,13.500000,8.662447,\Rx:=-0.000000,\Ry:=6.550413),vel1,zoneval,tool_new\WObj:=Workobject_1;
MoveL RelTool (p1,22.000000,11.000000,7.853619,\Rx:=-0.000000,\Ry:=5.359427),vel1,zoneval,tool_new\WObj:=Workobject_1;
MoveL RelTool (p1,23.000000,10.000000,7.567295,\Rx:=-0.000000,\Ry:=4.168445),vel1,zoneval,tool_new\WObj:=Workobject_1;
MoveL RelTool (p1,23.500000,10.000000,7.456399,\Rx:=-0.000000,\Ry:=4.168445),vel1,zoneval,tool_new\WObj:=Workobject_1;
MoveL RelTool (p1,21.500000,12.000000,7.997731,\Rx:=-0.000000,\Ry:=5.359427),vel1,zoneval,tool_new\WObj:=Workobject_1;
MoveL RelTool (p1,19.000000,14.500000,8.840993,\Rx:=0.000000,\Ry:=6.550413),vel1,zoneval,tool_new\WObj:=Workobject_1;
MoveL RelTool (p1,16.500000,17.000000,9.890646,\Rx:=-0.000000,\Ry:=8.932382),vel1,zoneval,tool_new\WObj:=Workobject_1;
MoveL RelTool (p1,14.000000,19.500000,11.194381,\Rx:=0.000000,\Ry:=10.123365),vel1,zoneval,tool_new\WObj:=Workobject_1;
MoveL RelTool (p1,13.500000,20.000000,11.487379,\Rx:=0.000000,\Ry:=10.123365),vel1,zoneval,tool_new\WObj:=Workobject_1;
MoveL RelTool (p1,14.000000,20.000000,11.194381,\Rx:=0.000000,\Ry:=10.123365),vel1,zoneval,tool_new\WObj:=Workobject_1;
MoveL RelTool (p1,16.500000,17.500000,9.890646,\Rx:=-0.000000,\Ry:=8.932382),vel1,zoneval,tool_new\WObj:=Workobject_1;
MoveL RelTool (p1,19.000000,15.000000,8.840993,\Rx:=0.000000,\Ry:=6.550413),vel1,zoneval,tool_new\WObj:=Workobject_1;
MoveL RelTool (p1,21.500000,12.500000,7.997731,\Rx:=-0.000000,\Ry:=5.359427),vel1,zoneval,tool_new\WObj:=Workobject_1;
MoveL RelTool (p1,24.000000,10.000000,7.345503,\Rx:=-0.000000,\Ry:=4.168445),vel1,zoneval,tool_new\WObj:=Workobject_1;
MoveL RelTool (p1,24.500000,10.000000,7.234607,\Rx:=-0.000000,\Ry:=4.168445),vel1,zoneval,tool_new\WObj:=Workobject_1;
MoveL RelTool (p1,24.000000,10.500000,7.345503,\Rx:=-0.000000,\Ry:=4.168445),vel1,zoneval,tool_new\WObj:=Workobject_1;
MoveL RelTool (p1,21.500000,13.000000,7.997731,\Rx:=-0.000000,\Ry:=5.359427),vel1,zoneval,tool_new\WObj:=Workobject_1;
MoveL RelTool (p1,19.000000,15.500000,8.840993,\Rx:=0.000000,\Ry:=6.550413),vel1,zoneval,tool_new\WObj:=Workobject_1;
MoveL RelTool (p1,16.500000,18.000000,9.890646,\Rx:=-0.000000,\Ry:=8.932382),vel1,zoneval,tool_new\WObj:=Workobject_1;
MoveL RelTool (p1,14.500000,20.000000,10.901383,\Rx:=0.000000,\Ry:=10.123365),vel1,zoneval,tool_new\WObj:=Workobject_1;
MoveL RelTool (p1,15.000000,20.000000,10.648257,\Rx:=0.000000,\Ry:=8.932382),vel1,zoneval,tool_new\WObj:=Workobject_1;
MoveL RelTool (p1,16.000000,19.000000,10.143183,\Rx:=0.000000,\Ry:=8.932382),vel1,zoneval,tool_new\WObj:=Workobject_1;
MoveL RelTool (p1,18.500000,16.500000,9.029301,\Rx:=-0.000000,\Ry:=7.741388),vel1,zoneval,tool_new\WObj:=Workobject_1;
MoveL RelTool (p1,21.000000,14.000000,8.141843,\Rx:=0.000000,\Ry:=5.359427),vel1,zoneval,tool_new\WObj:=Workobject_1;
MoveL RelTool (p1,23.500000,11.500000,7.456399,\Rx:=-0.000000,\Ry:=4.168445),vel1,zoneval,tool_new\WObj:=Workobject_1;
MoveL RelTool (p1,25.000000,10.000000,7.123710,\Rx:=-0.000000,\Ry:=4.168445),vel1,zoneval,tool_new\WObj:=Workobject_1;
MoveL RelTool (p1,25.500000,10.000000,7.032448,\Rx:=-0.000000,\Ry:=2.977460),vel1,zoneval,tool_new\WObj:=Workobject_1;
MoveL RelTool (p1,24.000000,11.500000,7.345503,\Rx:=-0.000000,\Ry:=4.168445),vel1,zoneval,tool_new\WObj:=Workobject_1;
MoveL RelTool (p1,21.500000,14.000000,7.997731,\Rx:=0.000000,\Ry:=5.359427),vel1,zoneval,tool_new\WObj:=Workobject_1;
MoveL RelTool (p1,19.000000,16.500000,8.840993,\Rx:=0.000000,\Ry:=6.550413),vel1,zoneval,tool_new\WObj:=Workobject_1;
MoveL RelTool (p1,16.500000,19.000000,9.890646,\Rx:=-0.000000,\Ry:=8.932382),vel1,zoneval,tool_new\WObj:=Workobject_1;
MoveL RelTool (p1,15.500000,20.000000,10.395720,\Rx:=0.000000,\Ry:=8.932382),vel1,zoneval,tool_new\WObj:=Workobject_1;
MoveL RelTool (p1,16.000000,20.000000,10.143183,\Rx:=0.000000,\Ry:=8.932382),vel1,zoneval,tool_new\WObj:=Workobject_1;
MoveL RelTool (p1,18.000000,18.000000,9.243851,\Rx:=0.000000,\Ry:=7.741388),vel1,zoneval,tool_new\WObj:=Workobject_1;
MoveL RelTool (p1,20.500000,15.500000,8.305355,\Rx:=-0.000000,\Ry:=6.550413),vel1,zoneval,tool_new\WObj:=Workobject_1;
MoveL RelTool (p1,23.000000,13.000000,7.567295,\Rx:=0.000000,\Ry:=4.168445),vel1,zoneval,tool_new\WObj:=Workobject_1;
MoveL RelTool (p1,25.500000,10.500000,7.032448,\Rx:=-0.000000,\Ry:=2.977460),vel1,zoneval,tool_new\WObj:=Workobject_1;
MoveL RelTool (p1,26.000000,10.000000,6.953861,\Rx:=-0.000000,\Ry:=2.977460),vel1,zoneval,tool_new\WObj:=Workobject_1;
MoveL RelTool (p1,26.500000,10.000000,6.875273,\Rx:=-0.000000,\Ry:=2.977460),vel1,zoneval,tool_new\WObj:=Workobject_1;
MoveL RelTool (p1,24.000000,12.500000,7.345503,\Rx:=-0.000000,\Ry:=4.168445),vel1,zoneval,tool_new\WObj:=Workobject_1;
MoveL RelTool (p1,21.500000,15.000000,7.997731,\Rx:=0.000000,\Ry:=5.359427),vel1,zoneval,tool_new\WObj:=Workobject_1;
MoveL RelTool (p1,19.000000,17.500000,8.840993,\Rx:=0.000000,\Ry:=6.550413),vel1,zoneval,tool_new\WObj:=Workobject_1;
MoveL RelTool (p1,16.500000,20.000000,9.890646,\Rx:=0.000000,\Ry:=8.932382),vel1,zoneval,tool_new\WObj:=Workobject_1;
MoveL RelTool (p1,17.000000,20.000000,9.672951,\Rx:=0.000000,\Ry:=7.741388),vel1,zoneval,tool_new\WObj:=Workobject_1;
MoveL RelTool (p1,17.500000,19.500000,9.458401,\Rx:=0.000000,\Ry:=7.741388),vel1,zoneval,tool_new\WObj:=Workobject_1;
MoveL RelTool (p1,20.000000,17.000000,8.483901,\Rx:=0.000000,\Ry:=6.550413),vel1,zoneval,tool_new\WObj:=Workobject_1;
MoveL RelTool (p1,22.500000,14.500000,7.709506,\Rx:=-0.000000,\Ry:=5.359427),vel1,zoneval,tool_new\WObj:=Workobject_1;
MoveL RelTool (p1,25.000000,12.000000,7.123710,\Rx:=-0.000000,\Ry:=4.168445),vel1,zoneval,tool_new\WObj:=Workobject_1;
MoveL RelTool (p1,27.000000,10.000000,6.796686,\Rx:=-0.000000,\Ry:=2.977460),vel1,zoneval,tool_new\WObj:=Workobject_1;
MoveL RelTool (p1,27.500000,10.000000,6.721434,\Rx:=-0.000000,\Ry:=1.786474),vel1,zoneval,tool_new\WObj:=Workobject_1;
MoveL RelTool (p1,26.500000,11.000000,6.875273,\Rx:=-0.000000,\Ry:=2.977460),vel1,zoneval,tool_new\WObj:=Workobject_1;
MoveL RelTool (p1,24.000000,13.500000,7.345503,\Rx:=-0.000000,\Ry:=4.168445),vel1,zoneval,tool_new\WObj:=Workobject_1;
MoveL RelTool (p1,21.500000,16.000000,7.997731,\Rx:=0.000000,\Ry:=5.359427),vel1,zoneval,tool_new\WObj:=Workobject_1;
MoveL RelTool (p1,19.000000,18.500000,8.840993,\Rx:=0.000000,\Ry:=6.550413),vel1,zoneval,tool_new\WObj:=Workobject_1;
MoveL RelTool (p1,17.500000,20.000000,9.458401,\Rx:=0.000000,\Ry:=7.741388),vel1,zoneval,tool_new\WObj:=Workobject_1;
MoveL RelTool (p1,18.000000,20.000000,9.243851,\Rx:=0.000000,\Ry:=7.741388),vel1,zoneval,tool_new\WObj:=Workobject_1;
MoveL RelTool (p1,19.500000,18.500000,8.662447,\Rx:=0.000000,\Ry:=6.550413),vel1,zoneval,tool_new\WObj:=Workobject_1;
MoveL RelTool (p1,22.000000,16.000000,7.853619,\Rx:=0.000000,\Ry:=5.359427),vel1,zoneval,tool_new\WObj:=Workobject_1;
MoveL RelTool (p1,24.500000,13.500000,7.234607,\Rx:=-0.000000,\Ry:=4.168445),vel1,zoneval,tool_new\WObj:=Workobject_1;
MoveL RelTool (p1,27.000000,11.000000,6.796686,\Rx:=-0.000000,\Ry:=2.977460),vel1,zoneval,tool_new\WObj:=Workobject_1;
MoveL RelTool (p1,28.000000,10.000000,6.674527,\Rx:=-0.000000,\Ry:=1.786474),vel1,zoneval,tool_new\WObj:=Workobject_1;
MoveL RelTool (p1,28.500000,10.000000,6.627621,\Rx:=-0.000000,\Ry:=1.786474),vel1,zoneval,tool_new\WObj:=Workobject_1;
MoveL RelTool (p1,26.500000,12.000000,6.875273,\Rx:=-0.000000,\Ry:=2.977460),vel1,zoneval,tool_new\WObj:=Workobject_1;
MoveL RelTool (p1,24.000000,14.500000,7.345503,\Rx:=-0.000000,\Ry:=4.168445),vel1,zoneval,tool_new\WObj:=Workobject_1;
MoveL RelTool (p1,21.500000,17.000000,7.997731,\Rx:=0.000000,\Ry:=5.359427),vel1,zoneval,tool_new\WObj:=Workobject_1;
MoveL RelTool (p1,19.000000,19.500000,8.840993,\Rx:=0.000000,\Ry:=6.550413),vel1,zoneval,tool_new\WObj:=Workobject_1;
MoveL RelTool (p1,18.500000,20.000000,9.029301,\Rx:=0.000000,\Ry:=7.741388),vel1,zoneval,tool_new\WObj:=Workobject_1;
MoveL RelTool (p1,19.000000,20.000000,8.840993,\Rx:=0.000000,\Ry:=6.550413),vel1,zoneval,tool_new\WObj:=Workobject_1;
MoveL RelTool (p1,21.500000,17.500000,7.997731,\Rx:=0.000000,\Ry:=5.359427),vel1,zoneval,tool_new\WObj:=Workobject_1;
MoveL RelTool (p1,24.000000,15.000000,7.345503,\Rx:=0.000000,\Ry:=4.168445),vel1,zoneval,tool_new\WObj:=Workobject_1;
MoveL RelTool (p1,26.500000,12.500000,6.875273,\Rx:=-0.000000,\Ry:=2.977460),vel1,zoneval,tool_new\WObj:=Workobject_1;
MoveL RelTool (p1,29.000000,10.000000,6.580714,\Rx:=-0.000000,\Ry:=1.786474),vel1,zoneval,tool_new\WObj:=Workobject_1;
MoveL RelTool (p1,29.500000,10.000000,6.533807,\Rx:=-0.000000,\Ry:=1.786474),vel1,zoneval,tool_new\WObj:=Workobject_1;
MoveL RelTool (p1,29.000000,10.500000,6.580714,\Rx:=-0.000000,\Ry:=1.786474),vel1,zoneval,tool_new\WObj:=Workobject_1;
MoveL RelTool (p1,26.500000,13.000000,6.875273,\Rx:=-0.000000,\Ry:=2.977460),vel1,zoneval,tool_new\WObj:=Workobject_1;
MoveL RelTool (p1,24.000000,15.500000,7.345503,\Rx:=0.000000,\Ry:=4.168445),vel1,zoneval,tool_new\WObj:=Workobject_1;
MoveL RelTool (p1,21.500000,18.000000,7.997731,\Rx:=0.000000,\Ry:=5.359427),vel1,zoneval,tool_new\WObj:=Workobject_1;
MoveL RelTool (p1,19.500000,20.000000,8.662447,\Rx:=0.000000,\Ry:=6.550413),vel1,zoneval,tool_new\WObj:=Workobject_1;
MoveL RelTool (p1,20.000000,20.000000,8.483901,\Rx:=0.000000,\Ry:=6.550413),vel1,zoneval,tool_new\WObj:=Workobject_1;
MoveL RelTool (p1,21.000000,19.000000,8.141843,\Rx:=0.000000,\Ry:=5.359427),vel1,zoneval,tool_new\WObj:=Workobject_1;
MoveL RelTool (p1,23.500000,16.500000,7.456399,\Rx:=0.000000,\Ry:=4.168445),vel1,zoneval,tool_new\WObj:=Workobject_1;
MoveL RelTool (p1,26.000000,14.000000,6.953861,\Rx:=0.000000,\Ry:=2.977460),vel1,zoneval,tool_new\WObj:=Workobject_1;
MoveL RelTool (p1,28.500000,11.500000,6.627621,\Rx:=-0.000000,\Ry:=1.786474),vel1,zoneval,tool_new\WObj:=Workobject_1;
MoveL RelTool (p1,30.000000,10.000000,6.504671,\Rx:=-0.000000,\Ry:=0.595493),vel1,zoneval,tool_new\WObj:=Workobject_1;
MoveL RelTool (p1,30.500000,10.000000,6.489076,\Rx:=-0.000000,\Ry:=0.595493),vel1,zoneval,tool_new\WObj:=Workobject_1;
MoveL RelTool (p1,29.000000,11.500000,6.580714,\Rx:=-0.000000,\Ry:=1.786474),vel1,zoneval,tool_new\WObj:=Workobject_1;
MoveL RelTool (p1,26.500000,14.000000,6.875273,\Rx:=-0.000000,\Ry:=2.977460),vel1,zoneval,tool_new\WObj:=Workobject_1;
MoveL RelTool (p1,24.000000,16.500000,7.345503,\Rx:=0.000000,\Ry:=4.168445),vel1,zoneval,tool_new\WObj:=Workobject_1;
MoveL RelTool (p1,21.500000,19.000000,7.997731,\Rx:=0.000000,\Ry:=5.359427),vel1,zoneval,tool_new\WObj:=Workobject_1;
MoveL RelTool (p1,20.500000,20.000000,8.305355,\Rx:=0.000000,\Ry:=6.550413),vel1,zoneval,tool_new\WObj:=Workobject_1;
MoveL RelTool (p1,21.000000,20.000000,8.141843,\Rx:=0.000000,\Ry:=5.359427),vel1,zoneval,tool_new\WObj:=Workobject_1;
MoveL RelTool (p1,23.000000,18.000000,7.567295,\Rx:=0.000000,\Ry:=4.168445),vel1,zoneval,tool_new\WObj:=Workobject_1;
MoveL RelTool (p1,25.500000,15.500000,7.032448,\Rx:=0.000000,\Ry:=2.977460),vel1,zoneval,tool_new\WObj:=Workobject_1;
MoveL RelTool (p1,28.000000,13.000000,6.674527,\Rx:=0.000000,\Ry:=1.786474),vel1,zoneval,tool_new\WObj:=Workobject_1;
MoveL RelTool (p1,30.500000,10.500000,6.489076,\Rx:=-0.000000,\Ry:=0.595493),vel1,zoneval,tool_new\WObj:=Workobject_1;
MoveL RelTool (p1,31.000000,10.000000,6.473481,\Rx:=-0.000000,\Ry:=0.595493),vel1,zoneval,tool_new\WObj:=Workobject_1;
MoveL RelTool (p1,31.500000,10.000000,6.457886,\Rx:=-0.000000,\Ry:=0.595493),vel1,zoneval,tool_new\WObj:=Workobject_1;
MoveL RelTool (p1,29.000000,12.500000,6.580714,\Rx:=-0.000000,\Ry:=1.786474),vel1,zoneval,tool_new\WObj:=Workobject_1;
MoveL RelTool (p1,26.500000,15.000000,6.875273,\Rx:=-0.000000,\Ry:=2.977460),vel1,zoneval,tool_new\WObj:=Workobject_1;
MoveL RelTool (p1,24.000000,17.500000,7.345503,\Rx:=0.000000,\Ry:=4.168445),vel1,zoneval,tool_new\WObj:=Workobject_1;
MoveL RelTool (p1,21.500000,20.000000,7.997731,\Rx:=0.000000,\Ry:=5.359427),vel1,zoneval,tool_new\WObj:=Workobject_1;
MoveL RelTool (p1,22.000000,20.000000,7.853619,\Rx:=0.000000,\Ry:=5.359427),vel1,zoneval,tool_new\WObj:=Workobject_1;
MoveL RelTool (p1,22.500000,19.500000,7.709506,\Rx:=0.000000,\Ry:=5.359427),vel1,zoneval,tool_new\WObj:=Workobject_1;
MoveL RelTool (p1,25.000000,17.000000,7.123710,\Rx:=-0.000000,\Ry:=4.168445),vel1,zoneval,tool_new\WObj:=Workobject_1;
MoveL RelTool (p1,27.500000,14.500000,6.721434,\Rx:=0.000000,\Ry:=1.786474),vel1,zoneval,tool_new\WObj:=Workobject_1;
MoveL RelTool (p1,30.000000,12.000000,6.504671,\Rx:=0.000000,\Ry:=0.595493),vel1,zoneval,tool_new\WObj:=Workobject_1;
MoveL RelTool (p1,32.000000,10.000000,6.442668,\Rx:=0.000000,\Ry:=-0.595494),vel1,zoneval,tool_new\WObj:=Workobject_1;
MoveL RelTool (p1,32.500000,10.000000,6.458263,\Rx:=0.000000,\Ry:=-0.595494),vel1,zoneval,tool_new\WObj:=Workobject_1;
MoveL RelTool (p1,31.500000,11.000000,6.457886,\Rx:=-0.000000,\Ry:=0.595493),vel1,zoneval,tool_new\WObj:=Workobject_1;
MoveL RelTool (p1,29.000000,13.500000,6.580714,\Rx:=-0.000000,\Ry:=1.786474),vel1,zoneval,tool_new\WObj:=Workobject_1;
MoveL RelTool (p1,26.500000,16.000000,6.875273,\Rx:=0.000000,\Ry:=2.977460),vel1,zoneval,tool_new\WObj:=Workobject_1;
MoveL RelTool (p1,24.000000,18.500000,7.345503,\Rx:=0.000000,\Ry:=4.168445),vel1,zoneval,tool_new\WObj:=Workobject_1;
MoveL RelTool (p1,22.500000,20.000000,7.709506,\Rx:=0.000000,\Ry:=5.359427),vel1,zoneval,tool_new\WObj:=Workobject_1;
MoveL RelTool (p1,23.000000,20.000000,7.567295,\Rx:=0.000000,\Ry:=4.168445),vel1,zoneval,tool_new\WObj:=Workobject_1;
MoveL RelTool (p1,24.500000,18.500000,7.234607,\Rx:=0.000000,\Ry:=4.168445),vel1,zoneval,tool_new\WObj:=Workobject_1;
MoveL RelTool (p1,27.000000,16.000000,6.796686,\Rx:=-0.000000,\Ry:=2.977460),vel1,zoneval,tool_new\WObj:=Workobject_1;
MoveL RelTool (p1,29.500000,13.500000,6.533807,\Rx:=-0.000000,\Ry:=1.786474),vel1,zoneval,tool_new\WObj:=Workobject_1;
MoveL RelTool (p1,32.000000,11.000000,6.442668,\Rx:=0.000000,\Ry:=-0.595494),vel1,zoneval,tool_new\WObj:=Workobject_1;
MoveL RelTool (p1,33.000000,10.000000,6.473858,\Rx:=0.000000,\Ry:=-0.595494),vel1,zoneval,tool_new\WObj:=Workobject_1;
MoveL RelTool (p1,33.500000,10.000000,6.489453,\Rx:=0.000000,\Ry:=-0.595494),vel1,zoneval,tool_new\WObj:=Workobject_1;
MoveL RelTool (p1,31.500000,12.000000,6.457886,\Rx:=-0.000000,\Ry:=0.595493),vel1,zoneval,tool_new\WObj:=Workobject_1;
MoveL RelTool (p1,29.000000,14.500000,6.580714,\Rx:=-0.000000,\Ry:=1.786474),vel1,zoneval,tool_new\WObj:=Workobject_1;
MoveL RelTool (p1,26.500000,17.000000,6.875273,\Rx:=0.000000,\Ry:=2.977460),vel1,zoneval,tool_new\WObj:=Workobject_1;
MoveL RelTool (p1,24.000000,19.500000,7.345503,\Rx:=0.000000,\Ry:=4.168445),vel1,zoneval,tool_new\WObj:=Workobject_1;
MoveL RelTool (p1,23.500000,20.000000,7.456399,\Rx:=0.000000,\Ry:=4.168445),vel1,zoneval,tool_new\WObj:=Workobject_1;
MoveL RelTool (p1,24.000000,20.000000,7.345503,\Rx:=0.000000,\Ry:=4.168445),vel1,zoneval,tool_new\WObj:=Workobject_1;
MoveL RelTool (p1,26.500000,17.500000,6.875273,\Rx:=0.000000,\Ry:=2.977460),vel1,zoneval,tool_new\WObj:=Workobject_1;
MoveL RelTool (p1,29.000000,15.000000,6.580714,\Rx:=-0.000000,\Ry:=1.786474),vel1,zoneval,tool_new\WObj:=Workobject_1;
MoveL RelTool (p1,31.500000,12.500000,6.457886,\Rx:=-0.000000,\Ry:=0.595493),vel1,zoneval,tool_new\WObj:=Workobject_1;
MoveL RelTool (p1,34.000000,10.000000,6.505049,\Rx:=0.000000,\Ry:=-0.595494),vel1,zoneval,tool_new\WObj:=Workobject_1;
MoveL RelTool (p1,34.500000,10.000000,6.534942,\Rx:=0.000000,\Ry:=-1.786473),vel1,zoneval,tool_new\WObj:=Workobject_1;
MoveL RelTool (p1,34.000000,10.500000,6.505049,\Rx:=0.000000,\Ry:=-0.595494),vel1,zoneval,tool_new\WObj:=Workobject_1;
MoveL RelTool (p1,31.500000,13.000000,6.457886,\Rx:=-0.000000,\Ry:=0.595493),vel1,zoneval,tool_new\WObj:=Workobject_1;
MoveL RelTool (p1,29.000000,15.500000,6.580714,\Rx:=-0.000000,\Ry:=1.786474),vel1,zoneval,tool_new\WObj:=Workobject_1;
MoveL RelTool (p1,26.500000,18.000000,6.875273,\Rx:=0.000000,\Ry:=2.977460),vel1,zoneval,tool_new\WObj:=Workobject_1;
MoveL RelTool (p1,24.500000,20.000000,7.234607,\Rx:=0.000000,\Ry:=4.168445),vel1,zoneval,tool_new\WObj:=Workobject_1;
MoveL RelTool (p1,25.000000,20.000000,7.123710,\Rx:=0.000000,\Ry:=4.168445),vel1,zoneval,tool_new\WObj:=Workobject_1;
MoveL RelTool (p1,26.000000,19.000000,6.953861,\Rx:=0.000000,\Ry:=2.977460),vel1,zoneval,tool_new\WObj:=Workobject_1;
MoveL RelTool (p1,28.500000,16.500000,6.627621,\Rx:=0.000000,\Ry:=1.786474),vel1,zoneval,tool_new\WObj:=Workobject_1;
MoveL RelTool (p1,31.000000,14.000000,6.473481,\Rx:=-0.000000,\Ry:=0.595493),vel1,zoneval,tool_new\WObj:=Workobject_1;
MoveL RelTool (p1,33.500000,11.500000,6.489453,\Rx:=0.000000,\Ry:=-0.595494),vel1,zoneval,tool_new\WObj:=Workobject_1;
MoveL RelTool (p1,35.000000,10.000000,6.581848,\Rx:=0.000000,\Ry:=-1.786473),vel1,zoneval,tool_new\WObj:=Workobject_1;
MoveL RelTool (p1,35.500000,10.000000,6.628755,\Rx:=0.000000,\Ry:=-1.786473),vel1,zoneval,tool_new\WObj:=Workobject_1;
MoveL RelTool (p1,34.000000,11.500000,6.505049,\Rx:=0.000000,\Ry:=-0.595494),vel1,zoneval,tool_new\WObj:=Workobject_1;
MoveL RelTool (p1,31.500000,14.000000,6.457886,\Rx:=-0.000000,\Ry:=0.595493),vel1,zoneval,tool_new\WObj:=Workobject_1;
MoveL RelTool (p1,29.000000,16.500000,6.580714,\Rx:=-0.000000,\Ry:=1.786474),vel1,zoneval,tool_new\WObj:=Workobject_1;
MoveL RelTool (p1,26.500000,19.000000,6.875273,\Rx:=0.000000,\Ry:=2.977460),vel1,zoneval,tool_new\WObj:=Workobject_1;
MoveL RelTool (p1,25.500000,20.000000,7.032448,\Rx:=0.000000,\Ry:=2.977460),vel1,zoneval,tool_new\WObj:=Workobject_1;
MoveL RelTool (p1,26.000000,20.000000,6.953861,\Rx:=0.000000,\Ry:=2.977460),vel1,zoneval,tool_new\WObj:=Workobject_1;
MoveL RelTool (p1,28.000000,18.000000,6.674527,\Rx:=0.000000,\Ry:=1.786474),vel1,zoneval,tool_new\WObj:=Workobject_1;
MoveL RelTool (p1,30.500000,15.500000,6.489076,\Rx:=0.000000,\Ry:=0.595493),vel1,zoneval,tool_new\WObj:=Workobject_1;
MoveL RelTool (p1,33.000000,13.000000,6.473858,\Rx:=0.000000,\Ry:=-0.595494),vel1,zoneval,tool_new\WObj:=Workobject_1;
MoveL RelTool (p1,35.500000,10.500000,6.628755,\Rx:=0.000000,\Ry:=-1.786473),vel1,zoneval,tool_new\WObj:=Workobject_1;
MoveL RelTool (p1,36.000000,10.000000,6.675661,\Rx:=0.000000,\Ry:=-1.786473),vel1,zoneval,tool_new\WObj:=Workobject_1;
MoveL RelTool (p1,36.500000,10.000000,6.722568,\Rx:=0.000000,\Ry:=-1.786473),vel1,zoneval,tool_new\WObj:=Workobject_1;
MoveL RelTool (p1,34.000000,12.500000,6.505049,\Rx:=0.000000,\Ry:=-0.595494),vel1,zoneval,tool_new\WObj:=Workobject_1;
MoveL RelTool (p1,31.500000,15.000000,6.457886,\Rx:=-0.000000,\Ry:=0.595493),vel1,zoneval,tool_new\WObj:=Workobject_1;
MoveL RelTool (p1,29.000000,17.500000,6.580714,\Rx:=0.000000,\Ry:=1.786474),vel1,zoneval,tool_new\WObj:=Workobject_1;
MoveL RelTool (p1,26.500000,20.000000,6.875273,\Rx:=0.000000,\Ry:=2.977460),vel1,zoneval,tool_new\WObj:=Workobject_1;
MoveL RelTool (p1,27.000000,20.000000,6.796686,\Rx:=0.000000,\Ry:=2.977460),vel1,zoneval,tool_new\WObj:=Workobject_1;
MoveL RelTool (p1,27.500000,19.500000,6.721434,\Rx:=0.000000,\Ry:=1.786474),vel1,zoneval,tool_new\WObj:=Workobject_1;
MoveL RelTool (p1,30.000000,17.000000,6.504671,\Rx:=0.000000,\Ry:=0.595493),vel1,zoneval,tool_new\WObj:=Workobject_1;
MoveL RelTool (p1,32.500000,14.500000,6.458263,\Rx:=0.000000,\Ry:=-0.595494),vel1,zoneval,tool_new\WObj:=Workobject_1;
MoveL RelTool (p1,35.000000,12.000000,6.581848,\Rx:=0.000000,\Ry:=-1.786473),vel1,zoneval,tool_new\WObj:=Workobject_1;
MoveL RelTool (p1,37.000000,10.000000,6.798586,\Rx:=0.000000,\Ry:=-2.977465),vel1,zoneval,tool_new\WObj:=Workobject_1;
MoveL RelTool (p1,37.500000,10.000000,6.877173,\Rx:=0.000000,\Ry:=-2.977465),vel1,zoneval,tool_new\WObj:=Workobject_1;
MoveL RelTool (p1,36.500000,11.000000,6.722568,\Rx:=0.000000,\Ry:=-1.786473),vel1,zoneval,tool_new\WObj:=Workobject_1;
MoveL RelTool (p1,34.000000,13.500000,6.505049,\Rx:=0.000000,\Ry:=-0.595494),vel1,zoneval,tool_new\WObj:=Workobject_1;
MoveL RelTool (p1,31.500000,16.000000,6.457886,\Rx:=-0.000000,\Ry:=0.595493),vel1,zoneval,tool_new\WObj:=Workobject_1;
MoveL RelTool (p1,29.000000,18.500000,6.580714,\Rx:=0.000000,\Ry:=1.786474),vel1,zoneval,tool_new\WObj:=Workobject_1;
MoveL RelTool (p1,27.500000,20.000000,6.721434,\Rx:=0.000000,\Ry:=1.786474),vel1,zoneval,tool_new\WObj:=Workobject_1;
MoveL RelTool (p1,28.000000,20.000000,6.674527,\Rx:=0.000000,\Ry:=1.786474),vel1,zoneval,tool_new\WObj:=Workobject_1;
MoveL RelTool (p1,29.500000,18.500000,6.533807,\Rx:=-0.000000,\Ry:=1.786474),vel1,zoneval,tool_new\WObj:=Workobject_1;
MoveL RelTool (p1,32.000000,16.000000,6.442668,\Rx:=0.000000,\Ry:=-0.595494),vel1,zoneval,tool_new\WObj:=Workobject_1;
MoveL RelTool (p1,34.500000,13.500000,6.534942,\Rx:=0.000000,\Ry:=-1.786473),vel1,zoneval,tool_new\WObj:=Workobject_1;
MoveL RelTool (p1,37.000000,11.000000,6.798586,\Rx:=0.000000,\Ry:=-2.977465),vel1,zoneval,tool_new\WObj:=Workobject_1;
MoveL RelTool (p1,38.000000,10.000000,6.955761,\Rx:=0.000000,\Ry:=-2.977465),vel1,zoneval,tool_new\WObj:=Workobject_1;
MoveL RelTool (p1,38.500000,10.000000,7.034349,\Rx:=0.000000,\Ry:=-2.977465),vel1,zoneval,tool_new\WObj:=Workobject_1;
MoveL RelTool (p1,36.500000,12.000000,6.722568,\Rx:=0.000000,\Ry:=-1.786473),vel1,zoneval,tool_new\WObj:=Workobject_1;
MoveL RelTool (p1,34.000000,14.500000,6.505049,\Rx:=0.000000,\Ry:=-0.595494),vel1,zoneval,tool_new\WObj:=Workobject_1;
MoveL RelTool (p1,31.500000,17.000000,6.457886,\Rx:=-0.000000,\Ry:=0.595493),vel1,zoneval,tool_new\WObj:=Workobject_1;
MoveL RelTool (p1,29.000000,19.500000,6.580714,\Rx:=0.000000,\Ry:=1.786474),vel1,zoneval,tool_new\WObj:=Workobject_1;
MoveL RelTool (p1,28.500000,20.000000,6.627621,\Rx:=0.000000,\Ry:=1.786474),vel1,zoneval,tool_new\WObj:=Workobject_1;
MoveL RelTool (p1,29.000000,20.000000,6.580714,\Rx:=0.000000,\Ry:=1.786474),vel1,zoneval,tool_new\WObj:=Workobject_1;
MoveL RelTool (p1,31.500000,17.500000,6.457886,\Rx:=-0.000000,\Ry:=0.595493),vel1,zoneval,tool_new\WObj:=Workobject_1;
MoveL RelTool (p1,34.000000,15.000000,6.505049,\Rx:=0.000000,\Ry:=-0.595494),vel1,zoneval,tool_new\WObj:=Workobject_1;
MoveL RelTool (p1,36.500000,12.500000,6.722568,\Rx:=0.000000,\Ry:=-1.786473),vel1,zoneval,tool_new\WObj:=Workobject_1;
MoveL RelTool (p1,39.000000,10.000000,7.126393,\Rx:=0.000000,\Ry:=-4.168441),vel1,zoneval,tool_new\WObj:=Workobject_1;
MoveL RelTool (p1,39.500000,10.000000,7.237289,\Rx:=0.000000,\Ry:=-4.168441),vel1,zoneval,tool_new\WObj:=Workobject_1;
MoveL RelTool (p1,39.000000,10.500000,7.126393,\Rx:=0.000000,\Ry:=-4.168441),vel1,zoneval,tool_new\WObj:=Workobject_1;
MoveL RelTool (p1,36.500000,13.000000,6.722568,\Rx:=0.000000,\Ry:=-1.786473),vel1,zoneval,tool_new\WObj:=Workobject_1;
MoveL RelTool (p1,34.000000,15.500000,6.505049,\Rx:=0.000000,\Ry:=-0.595494),vel1,zoneval,tool_new\WObj:=Workobject_1;
MoveL RelTool (p1,31.500000,18.000000,6.457886,\Rx:=0.000000,\Ry:=0.595493),vel1,zoneval,tool_new\WObj:=Workobject_1;
MoveL RelTool (p1,29.500000,20.000000,6.533807,\Rx:=0.000000,\Ry:=1.786474),vel1,zoneval,tool_new\WObj:=Workobject_1;
MoveL RelTool (p1,30.000000,20.000000,6.504671,\Rx:=0.000000,\Ry:=0.595493),vel1,zoneval,tool_new\WObj:=Workobject_1;
MoveL RelTool (p1,31.000000,19.000000,6.473481,\Rx:=0.000000,\Ry:=0.595493),vel1,zoneval,tool_new\WObj:=Workobject_1;
MoveL RelTool (p1,33.500000,16.500000,6.489453,\Rx:=0.000000,\Ry:=-0.595494),vel1,zoneval,tool_new\WObj:=Workobject_1;
MoveL RelTool (p1,36.000000,14.000000,6.675661,\Rx:=0.000000,\Ry:=-1.786473),vel1,zoneval,tool_new\WObj:=Workobject_1;
MoveL RelTool (p1,38.500000,11.500000,7.034349,\Rx:=0.000000,\Ry:=-2.977465),vel1,zoneval,tool_new\WObj:=Workobject_1;
MoveL RelTool (p1,40.000000,10.000000,7.348185,\Rx:=0.000000,\Ry:=-4.168441),vel1,zoneval,tool_new\WObj:=Workobject_1;
MoveL RelTool (p1,40.500000,10.000000,7.459081,\Rx:=0.000000,\Ry:=-4.168441),vel1,zoneval,tool_new\WObj:=Workobject_1;
MoveL RelTool (p1,39.000000,11.500000,7.126393,\Rx:=0.000000,\Ry:=-4.168441),vel1,zoneval,tool_new\WObj:=Workobject_1;
MoveL RelTool (p1,36.500000,14.000000,6.722568,\Rx:=0.000000,\Ry:=-1.786473),vel1,zoneval,tool_new\WObj:=Workobject_1;
MoveL RelTool (p1,34.000000,16.500000,6.505049,\Rx:=0.000000,\Ry:=-0.595494),vel1,zoneval,tool_new\WObj:=Workobject_1;
MoveL RelTool (p1,31.500000,19.000000,6.457886,\Rx:=0.000000,\Ry:=0.595493),vel1,zoneval,tool_new\WObj:=Workobject_1;
MoveL RelTool (p1,30.500000,20.000000,6.489076,\Rx:=0.000000,\Ry:=0.595493),vel1,zoneval,tool_new\WObj:=Workobject_1;
MoveL RelTool (p1,31.000000,20.000000,6.473481,\Rx:=0.000000,\Ry:=0.595493),vel1,zoneval,tool_new\WObj:=Workobject_1;
MoveL RelTool (p1,33.000000,18.000000,6.473858,\Rx:=0.000000,\Ry:=-0.595494),vel1,zoneval,tool_new\WObj:=Workobject_1;
MoveL RelTool (p1,35.500000,15.500000,6.628755,\Rx:=0.000000,\Ry:=-1.786473),vel1,zoneval,tool_new\WObj:=Workobject_1;
MoveL RelTool (p1,38.000000,13.000000,6.955761,\Rx:=0.000000,\Ry:=-2.977465),vel1,zoneval,tool_new\WObj:=Workobject_1;
MoveL RelTool (p1,40.500000,10.500000,7.459081,\Rx:=0.000000,\Ry:=-4.168441),vel1,zoneval,tool_new\WObj:=Workobject_1;
MoveL RelTool (p1,41.000000,10.000000,7.569977,\Rx:=0.000000,\Ry:=-4.168441),vel1,zoneval,tool_new\WObj:=Workobject_1;
MoveL RelTool (p1,41.500000,10.000000,7.712991,\Rx:=0.000000,\Ry:=-5.359418),vel1,zoneval,tool_new\WObj:=Workobject_1;
MoveL RelTool (p1,39.000000,12.500000,7.126393,\Rx:=0.000000,\Ry:=-4.168441),vel1,zoneval,tool_new\WObj:=Workobject_1;
MoveL RelTool (p1,36.500000,15.000000,6.722568,\Rx:=0.000000,\Ry:=-1.786473),vel1,zoneval,tool_new\WObj:=Workobject_1;
MoveL RelTool (p1,34.000000,17.500000,6.505049,\Rx:=0.000000,\Ry:=-0.595494),vel1,zoneval,tool_new\WObj:=Workobject_1;
MoveL RelTool (p1,31.500000,20.000000,6.457886,\Rx:=0.000000,\Ry:=0.595493),vel1,zoneval,tool_new\WObj:=Workobject_1;
MoveL RelTool (p1,32.000000,20.000000,6.442668,\Rx:=0.000000,\Ry:=-0.595494),vel1,zoneval,tool_new\WObj:=Workobject_1;
MoveL RelTool (p1,32.500000,19.500000,6.458263,\Rx:=0.000000,\Ry:=-0.595494),vel1,zoneval,tool_new\WObj:=Workobject_1;
MoveL RelTool (p1,35.000000,17.000000,6.581848,\Rx:=0.000000,\Ry:=-1.786473),vel1,zoneval,tool_new\WObj:=Workobject_1;
MoveL RelTool (p1,37.500000,14.500000,6.877173,\Rx:=0.000000,\Ry:=-2.977465),vel1,zoneval,tool_new\WObj:=Workobject_1;
MoveL RelTool (p1,40.000000,12.000000,7.348185,\Rx:=0.000000,\Ry:=-4.168441),vel1,zoneval,tool_new\WObj:=Workobject_1;
MoveL RelTool (p1,42.000000,10.000000,7.857103,\Rx:=0.000000,\Ry:=-5.359418),vel1,zoneval,tool_new\WObj:=Workobject_1;
MoveL RelTool (p1,42.500000,10.000000,8.001215,\Rx:=0.000000,\Ry:=-5.359418),vel1,zoneval,tool_new\WObj:=Workobject_1;
MoveL RelTool (p1,41.500000,11.000000,7.712991,\Rx:=0.000000,\Ry:=-5.359418),vel1,zoneval,tool_new\WObj:=Workobject_1;
MoveL RelTool (p1,39.000000,13.500000,7.126393,\Rx:=0.000000,\Ry:=-4.168441),vel1,zoneval,tool_new\WObj:=Workobject_1;
MoveL RelTool (p1,36.500000,16.000000,6.722568,\Rx:=0.000000,\Ry:=-1.786473),vel1,zoneval,tool_new\WObj:=Workobject_1;
MoveL RelTool (p1,34.000000,18.500000,6.505049,\Rx:=0.000000,\Ry:=-0.595494),vel1,zoneval,tool_new\WObj:=Workobject_1;
MoveL RelTool (p1,32.500000,20.000000,6.458263,\Rx:=0.000000,\Ry:=-0.595494),vel1,zoneval,tool_new\WObj:=Workobject_1;
MoveL RelTool (p1,33.000000,20.000000,6.473858,\Rx:=0.000000,\Ry:=-0.595494),vel1,zoneval,tool_new\WObj:=Workobject_1;
MoveL RelTool (p1,34.500000,18.500000,6.534942,\Rx:=0.000000,\Ry:=-1.786473),vel1,zoneval,tool_new\WObj:=Workobject_1;
MoveL RelTool (p1,37.000000,16.000000,6.798586,\Rx:=0.000000,\Ry:=-2.977465),vel1,zoneval,tool_new\WObj:=Workobject_1;
MoveL RelTool (p1,39.500000,13.500000,7.237289,\Rx:=0.000000,\Ry:=-4.168441),vel1,zoneval,tool_new\WObj:=Workobject_1;
MoveL RelTool (p1,42.000000,11.000000,7.857103,\Rx:=0.000000,\Ry:=-5.359418),vel1,zoneval,tool_new\WObj:=Workobject_1;
MoveL RelTool (p1,43.000000,10.000000,8.145327,\Rx:=0.000000,\Ry:=-5.359418),vel1,zoneval,tool_new\WObj:=Workobject_1;
MoveL RelTool (p1,43.500000,10.000000,8.309671,\Rx:=0.000000,\Ry:=-6.550424),vel1,zoneval,tool_new\WObj:=Workobject_1;
MoveL RelTool (p1,41.500000,12.000000,7.712991,\Rx:=0.000000,\Ry:=-5.359418),vel1,zoneval,tool_new\WObj:=Workobject_1;
MoveL RelTool (p1,39.000000,14.500000,7.126393,\Rx:=0.000000,\Ry:=-4.168441),vel1,zoneval,tool_new\WObj:=Workobject_1;
MoveL RelTool (p1,36.500000,17.000000,6.722568,\Rx:=0.000000,\Ry:=-1.786473),vel1,zoneval,tool_new\WObj:=Workobject_1;
MoveL RelTool (p1,34.000000,19.500000,6.505049,\Rx:=0.000000,\Ry:=-0.595494),vel1,zoneval,tool_new\WObj:=Workobject_1;
MoveL RelTool (p1,33.500000,20.000000,6.489453,\Rx:=0.000000,\Ry:=-0.595494),vel1,zoneval,tool_new\WObj:=Workobject_1;
MoveL RelTool (p1,34.000000,20.000000,6.505049,\Rx:=0.000000,\Ry:=-0.595494),vel1,zoneval,tool_new\WObj:=Workobject_1;
MoveL RelTool (p1,36.500000,17.500000,6.722568,\Rx:=0.000000,\Ry:=-1.786473),vel1,zoneval,tool_new\WObj:=Workobject_1;
MoveL RelTool (p1,39.000000,15.000000,7.126393,\Rx:=0.000000,\Ry:=-4.168441),vel1,zoneval,tool_new\WObj:=Workobject_1;
MoveL RelTool (p1,41.500000,12.500000,7.712991,\Rx:=0.000000,\Ry:=-5.359418),vel1,zoneval,tool_new\WObj:=Workobject_1;
MoveL RelTool (p1,44.000000,10.000000,8.488217,\Rx:=0.000000,\Ry:=-6.550424),vel1,zoneval,tool_new\WObj:=Workobject_1;
MoveL RelTool (p1,44.500000,10.000000,8.666763,\Rx:=0.000000,\Ry:=-6.550424),vel1,zoneval,tool_new\WObj:=Workobject_1;
MoveL RelTool (p1,44.000000,10.500000,8.488217,\Rx:=0.000000,\Ry:=-6.550424),vel1,zoneval,tool_new\WObj:=Workobject_1;
MoveL RelTool (p1,41.500000,13.000000,7.712991,\Rx:=0.000000,\Ry:=-5.359418),vel1,zoneval,tool_new\WObj:=Workobject_1;
MoveL RelTool (p1,39.000000,15.500000,7.126393,\Rx:=0.000000,\Ry:=-4.168441),vel1,zoneval,tool_new\WObj:=Workobject_1;
MoveL RelTool (p1,36.500000,18.000000,6.722568,\Rx:=0.000000,\Ry:=-1.786473),vel1,zoneval,tool_new\WObj:=Workobject_1;
MoveL RelTool (p1,34.500000,20.000000,6.534942,\Rx:=0.000000,\Ry:=-1.786473),vel1,zoneval,tool_new\WObj:=Workobject_1;
MoveL RelTool (p1,35.000000,20.000000,6.581848,\Rx:=0.000000,\Ry:=-1.786473),vel1,zoneval,tool_new\WObj:=Workobject_1;
MoveL RelTool (p1,36.000000,19.000000,6.675661,\Rx:=0.000000,\Ry:=-1.786473),vel1,zoneval,tool_new\WObj:=Workobject_1;
MoveL RelTool (p1,38.500000,16.500000,7.034349,\Rx:=0.000000,\Ry:=-2.977465),vel1,zoneval,tool_new\WObj:=Workobject_1;
MoveL RelTool (p1,41.000000,14.000000,7.569977,\Rx:=0.000000,\Ry:=-4.168441),vel1,zoneval,tool_new\WObj:=Workobject_1;
MoveL RelTool (p1,43.500000,11.500000,8.309671,\Rx:=0.000000,\Ry:=-6.550424),vel1,zoneval,tool_new\WObj:=Workobject_1;
MoveL RelTool (p1,45.000000,10.000000,8.845310,\Rx:=0.000000,\Ry:=-6.550424),vel1,zoneval,tool_new\WObj:=Workobject_1;
MoveL RelTool (p1,45.500000,10.000000,9.034489,\Rx:=0.000000,\Ry:=-7.741395),vel1,zoneval,tool_new\WObj:=Workobject_1;
MoveL RelTool (p1,44.000000,11.500000,8.488217,\Rx:=0.000000,\Ry:=-6.550424),vel1,zoneval,tool_new\WObj:=Workobject_1;
MoveL RelTool (p1,41.500000,14.000000,7.712991,\Rx:=0.000000,\Ry:=-5.359418),vel1,zoneval,tool_new\WObj:=Workobject_1;
MoveL RelTool (p1,39.000000,16.500000,7.126393,\Rx:=0.000000,\Ry:=-4.168441),vel1,zoneval,tool_new\WObj:=Workobject_1;
MoveL RelTool (p1,36.500000,19.000000,6.722568,\Rx:=0.000000,\Ry:=-1.786473),vel1,zoneval,tool_new\WObj:=Workobject_1;
MoveL RelTool (p1,35.500000,20.000000,6.628755,\Rx:=0.000000,\Ry:=-1.786473),vel1,zoneval,tool_new\WObj:=Workobject_1;
MoveL RelTool (p1,36.000000,20.000000,6.675661,\Rx:=0.000000,\Ry:=-1.786473),vel1,zoneval,tool_new\WObj:=Workobject_1;
MoveL RelTool (p1,38.000000,18.000000,6.955761,\Rx:=0.000000,\Ry:=-2.977465),vel1,zoneval,tool_new\WObj:=Workobject_1;
MoveL RelTool (p1,40.500000,15.500000,7.459081,\Rx:=0.000000,\Ry:=-4.168441),vel1,zoneval,tool_new\WObj:=Workobject_1;
MoveL RelTool (p1,43.000000,13.000000,8.145327,\Rx:=0.000000,\Ry:=-5.359418),vel1,zoneval,tool_new\WObj:=Workobject_1;
MoveL RelTool (p1,45.500000,10.500000,9.034489,\Rx:=0.000000,\Ry:=-7.741395),vel1,zoneval,tool_new\WObj:=Workobject_1;
MoveL RelTool (p1,46.000000,10.000000,9.249039,\Rx:=0.000000,\Ry:=-7.741395),vel1,zoneval,tool_new\WObj:=Workobject_1;
MoveL RelTool (p1,46.500000,10.000000,9.463590,\Rx:=0.000000,\Ry:=-7.741395),vel1,zoneval,tool_new\WObj:=Workobject_1;
MoveL RelTool (p1,44.000000,12.500000,8.488217,\Rx:=0.000000,\Ry:=-6.550424),vel1,zoneval,tool_new\WObj:=Workobject_1;
MoveL RelTool (p1,41.500000,15.000000,7.712991,\Rx:=0.000000,\Ry:=-5.359418),vel1,zoneval,tool_new\WObj:=Workobject_1;
MoveL RelTool (p1,39.000000,17.500000,7.126393,\Rx:=0.000000,\Ry:=-4.168441),vel1,zoneval,tool_new\WObj:=Workobject_1;
MoveL RelTool (p1,36.500000,20.000000,6.722568,\Rx:=0.000000,\Ry:=-1.786473),vel1,zoneval,tool_new\WObj:=Workobject_1;
MoveL RelTool (p1,37.000000,20.000000,6.798586,\Rx:=0.000000,\Ry:=-2.977465),vel1,zoneval,tool_new\WObj:=Workobject_1;
MoveL RelTool (p1,37.500000,19.500000,6.877173,\Rx:=0.000000,\Ry:=-2.977465),vel1,zoneval,tool_new\WObj:=Workobject_1;
MoveL RelTool (p1,40.000000,17.000000,7.348185,\Rx:=0.000000,\Ry:=-4.168441),vel1,zoneval,tool_new\WObj:=Workobject_1;
MoveL RelTool (p1,42.500000,14.500000,8.001215,\Rx:=0.000000,\Ry:=-5.359418),vel1,zoneval,tool_new\WObj:=Workobject_1;
MoveL RelTool (p1,45.000000,12.000000,8.845310,\Rx:=0.000000,\Ry:=-6.550424),vel1,zoneval,tool_new\WObj:=Workobject_1;
MoveL RelTool (p1,47.000000,10.000000,9.678140,\Rx:=0.000000,\Ry:=-7.741395),vel1,zoneval,tool_new\WObj:=Workobject_1;
MoveL RelTool (p1,47.500000,10.000000,9.896754,\Rx:=0.000000,\Ry:=-8.932367),vel1,zoneval,tool_new\WObj:=Workobject_1;
MoveL RelTool (p1,46.500000,11.000000,9.463590,\Rx:=0.000000,\Ry:=-7.741395),vel1,zoneval,tool_new\WObj:=Workobject_1;
MoveL RelTool (p1,44.000000,13.500000,8.488217,\Rx:=0.000000,\Ry:=-6.550424),vel1,zoneval,tool_new\WObj:=Workobject_1;
MoveL RelTool (p1,41.500000,16.000000,7.712991,\Rx:=0.000000,\Ry:=-5.359418),vel1,zoneval,tool_new\WObj:=Workobject_1;
MoveL RelTool (p1,39.000000,18.500000,7.126393,\Rx:=0.000000,\Ry:=-4.168441),vel1,zoneval,tool_new\WObj:=Workobject_1;
MoveL RelTool (p1,37.500000,20.000000,6.877173,\Rx:=0.000000,\Ry:=-2.977465),vel1,zoneval,tool_new\WObj:=Workobject_1;
MoveL RelTool (p1,38.000000,20.000000,6.955761,\Rx:=0.000000,\Ry:=-2.977465),vel1,zoneval,tool_new\WObj:=Workobject_1;
MoveL RelTool (p1,39.500000,18.500000,7.237289,\Rx:=0.000000,\Ry:=-4.168441),vel1,zoneval,tool_new\WObj:=Workobject_1;
MoveL RelTool (p1,42.000000,16.000000,7.857103,\Rx:=0.000000,\Ry:=-5.359418),vel1,zoneval,tool_new\WObj:=Workobject_1;
MoveL RelTool (p1,44.500000,13.500000,8.666763,\Rx:=0.000000,\Ry:=-6.550424),vel1,zoneval,tool_new\WObj:=Workobject_1;
MoveL RelTool (p1,47.000000,11.000000,9.678140,\Rx:=0.000000,\Ry:=-7.741395),vel1,zoneval,tool_new\WObj:=Workobject_1;
MoveL RelTool (p1,48.000000,10.000000,10.149290,\Rx:=0.000000,\Ry:=-8.932367),vel1,zoneval,tool_new\WObj:=Workobject_1;
MoveL RelTool (p1,48.500000,10.000000,10.401826,\Rx:=0.000000,\Ry:=-8.932367),vel1,zoneval,tool_new\WObj:=Workobject_1;
MoveL RelTool (p1,46.500000,12.000000,9.463590,\Rx:=0.000000,\Ry:=-7.741395),vel1,zoneval,tool_new\WObj:=Workobject_1;
MoveL RelTool (p1,44.000000,14.500000,8.488217,\Rx:=0.000000,\Ry:=-6.550424),vel1,zoneval,tool_new\WObj:=Workobject_1;
MoveL RelTool (p1,41.500000,17.000000,7.712991,\Rx:=0.000000,\Ry:=-5.359418),vel1,zoneval,tool_new\WObj:=Workobject_1;
MoveL RelTool (p1,39.000000,19.500000,7.126393,\Rx:=0.000000,\Ry:=-4.168441),vel1,zoneval,tool_new\WObj:=Workobject_1;
MoveL RelTool (p1,38.500000,20.000000,7.034349,\Rx:=0.000000,\Ry:=-2.977465),vel1,zoneval,tool_new\WObj:=Workobject_1;
MoveL RelTool (p1,39.000000,20.000000,7.126393,\Rx:=0.000000,\Ry:=-4.168441),vel1,zoneval,tool_new\WObj:=Workobject_1;
MoveL RelTool (p1,41.500000,17.500000,7.712991,\Rx:=0.000000,\Ry:=-5.359418),vel1,zoneval,tool_new\WObj:=Workobject_1;
MoveL RelTool (p1,44.000000,15.000000,8.488217,\Rx:=0.000000,\Ry:=-6.550424),vel1,zoneval,tool_new\WObj:=Workobject_1;
MoveL RelTool (p1,46.500000,12.500000,9.463590,\Rx:=0.000000,\Ry:=-7.741395),vel1,zoneval,tool_new\WObj:=Workobject_1;
MoveL RelTool (p1,49.000000,10.000000,10.654363,\Rx:=0.000000,\Ry:=-8.932367),vel1,zoneval,tool_new\WObj:=Workobject_1;
MoveL RelTool (p1,49.500000,10.000000,10.908467,\Rx:=0.000000,\Ry:=-10.123360),vel1,zoneval,tool_new\WObj:=Workobject_1;
MoveL RelTool (p1,49.000000,10.500000,10.654363,\Rx:=0.000000,\Ry:=-8.932367),vel1,zoneval,tool_new\WObj:=Workobject_1;
MoveL RelTool (p1,46.500000,13.000000,9.463590,\Rx:=0.000000,\Ry:=-7.741395),vel1,zoneval,tool_new\WObj:=Workobject_1;
MoveL RelTool (p1,44.000000,15.500000,8.488217,\Rx:=0.000000,\Ry:=-6.550424),vel1,zoneval,tool_new\WObj:=Workobject_1;
MoveL RelTool (p1,41.500000,18.000000,7.712991,\Rx:=0.000000,\Ry:=-5.359418),vel1,zoneval,tool_new\WObj:=Workobject_1;
MoveL RelTool (p1,39.500000,20.000000,7.237289,\Rx:=0.000000,\Ry:=-4.168441),vel1,zoneval,tool_new\WObj:=Workobject_1;
MoveL RelTool (p1,40.000000,20.000000,7.348185,\Rx:=0.000000,\Ry:=-4.168441),vel1,zoneval,tool_new\WObj:=Workobject_1;
MoveL RelTool (p1,41.000000,19.000000,7.569977,\Rx:=0.000000,\Ry:=-4.168441),vel1,zoneval,tool_new\WObj:=Workobject_1;
MoveL RelTool (p1,43.500000,16.500000,8.309671,\Rx:=0.000000,\Ry:=-6.550424),vel1,zoneval,tool_new\WObj:=Workobject_1;
MoveL RelTool (p1,46.000000,14.000000,9.249039,\Rx:=0.000000,\Ry:=-7.741395),vel1,zoneval,tool_new\WObj:=Workobject_1;
MoveL RelTool (p1,48.500000,11.500000,10.401826,\Rx:=0.000000,\Ry:=-8.932367),vel1,zoneval,tool_new\WObj:=Workobject_1;
MoveL RelTool (p1,50.000000,10.000000,11.201465,\Rx:=0.000000,\Ry:=-10.123360),vel1,zoneval,tool_new\WObj:=Workobject_1;
MoveL RelTool (p1,50.500000,10.000000,11.494462,\Rx:=0.000000,\Ry:=-10.123360),vel1,zoneval,tool_new\WObj:=Workobject_1;
MoveL RelTool (p1,49.000000,11.500000,10.654363,\Rx:=0.000000,\Ry:=-8.932367),vel1,zoneval,tool_new\WObj:=Workobject_1;
MoveL RelTool (p1,46.500000,14.000000,9.463590,\Rx:=0.000000,\Ry:=-7.741395),vel1,zoneval,tool_new\WObj:=Workobject_1;
MoveL RelTool (p1,44.000000,16.500000,8.488217,\Rx:=0.000000,\Ry:=-6.550424),vel1,zoneval,tool_new\WObj:=Workobject_1;
MoveL RelTool (p1,41.500000,19.000000,7.712991,\Rx:=0.000000,\Ry:=-5.359418),vel1,zoneval,tool_new\WObj:=Workobject_1;
MoveL RelTool (p1,40.500000,20.000000,7.459081,\Rx:=0.000000,\Ry:=-4.168441),vel1,zoneval,tool_new\WObj:=Workobject_1;
MoveL RelTool (p1,41.000000,20.000000,7.569977,\Rx:=0.000000,\Ry:=-4.168441),vel1,zoneval,tool_new\WObj:=Workobject_1;
MoveL RelTool (p1,43.000000,18.000000,8.145327,\Rx:=0.000000,\Ry:=-5.359418),vel1,zoneval,tool_new\WObj:=Workobject_1;
MoveL RelTool (p1,45.500000,15.500000,9.034489,\Rx:=0.000000,\Ry:=-7.741395),vel1,zoneval,tool_new\WObj:=Workobject_1;
MoveL RelTool (p1,48.000000,13.000000,10.149290,\Rx:=0.000000,\Ry:=-8.932367),vel1,zoneval,tool_new\WObj:=Workobject_1;
MoveL RelTool (p1,50.500000,10.500000,11.494462,\Rx:=0.000000,\Ry:=-10.123360),vel1,zoneval,tool_new\WObj:=Workobject_1;
MoveL RelTool (p1,51.000000,10.000000,11.787460,\Rx:=0.000000,\Ry:=-10.123360),vel1,zoneval,tool_new\WObj:=Workobject_1;
MoveL RelTool (p1,51.000000,10.500000,11.787460,\Rx:=0.000000,\Ry:=-10.123360),vel1,zoneval,tool_new\WObj:=Workobject_1;
MoveL RelTool (p1,48.500000,13.000000,10.401826,\Rx:=0.000000,\Ry:=-8.932367),vel1,zoneval,tool_new\WObj:=Workobject_1;
MoveL RelTool (p1,46.000000,15.500000,9.249039,\Rx:=0.000000,\Ry:=-7.741395),vel1,zoneval,tool_new\WObj:=Workobject_1;
MoveL RelTool (p1,43.500000,18.000000,8.309671,\Rx:=0.000000,\Ry:=-6.550424),vel1,zoneval,tool_new\WObj:=Workobject_1;
MoveL RelTool (p1,41.500000,20.000000,7.712991,\Rx:=0.000000,\Ry:=-5.359418),vel1,zoneval,tool_new\WObj:=Workobject_1;
MoveL RelTool (p1,42.000000,20.000000,7.857103,\Rx:=0.000000,\Ry:=-5.359418),vel1,zoneval,tool_new\WObj:=Workobject_1;
MoveL RelTool (p1,43.000000,19.000000,8.145327,\Rx:=0.000000,\Ry:=-5.359418),vel1,zoneval,tool_new\WObj:=Workobject_1;
MoveL RelTool (p1,45.500000,16.500000,9.034489,\Rx:=0.000000,\Ry:=-7.741395),vel1,zoneval,tool_new\WObj:=Workobject_1;
MoveL RelTool (p1,48.000000,14.000000,10.149290,\Rx:=0.000000,\Ry:=-8.932367),vel1,zoneval,tool_new\WObj:=Workobject_1;
MoveL RelTool (p1,50.500000,11.500000,11.494462,\Rx:=0.000000,\Ry:=-10.123360),vel1,zoneval,tool_new\WObj:=Workobject_1;
MoveL RelTool (p1,51.000000,11.000000,11.787460,\Rx:=0.000000,\Ry:=-10.123360),vel1,zoneval,tool_new\WObj:=Workobject_1;
MoveL RelTool (p1,51.000000,11.500000,11.787460,\Rx:=0.000000,\Ry:=-10.123360),vel1,zoneval,tool_new\WObj:=Workobject_1;
MoveL RelTool (p1,48.500000,14.000000,10.401826,\Rx:=0.000000,\Ry:=-8.932367),vel1,zoneval,tool_new\WObj:=Workobject_1;
MoveL RelTool (p1,46.000000,16.500000,9.249039,\Rx:=0.000000,\Ry:=-7.741395),vel1,zoneval,tool_new\WObj:=Workobject_1;
MoveL RelTool (p1,43.500000,19.000000,8.309671,\Rx:=0.000000,\Ry:=-6.550424),vel1,zoneval,tool_new\WObj:=Workobject_1;
MoveL RelTool (p1,42.500000,20.000000,8.001215,\Rx:=0.000000,\Ry:=-5.359418),vel1,zoneval,tool_new\WObj:=Workobject_1;
MoveL RelTool (p1,43.000000,20.000000,8.145327,\Rx:=0.000000,\Ry:=-5.359418),vel1,zoneval,tool_new\WObj:=Workobject_1;
MoveL RelTool (p1,45.000000,18.000000,8.845310,\Rx:=0.000000,\Ry:=-6.550424),vel1,zoneval,tool_new\WObj:=Workobject_1;
MoveL RelTool (p1,47.500000,15.500000,9.896754,\Rx:=0.000000,\Ry:=-8.932367),vel1,zoneval,tool_new\WObj:=Workobject_1;
MoveL RelTool (p1,50.000000,13.000000,11.201465,\Rx:=0.000000,\Ry:=-10.123360),vel1,zoneval,tool_new\WObj:=Workobject_1;
MoveL RelTool (p1,51.000000,12.000000,11.787460,\Rx:=0.000000,\Ry:=-10.123360),vel1,zoneval,tool_new\WObj:=Workobject_1;
MoveL RelTool (p1,51.000000,12.500000,11.787460,\Rx:=0.000000,\Ry:=-10.123360),vel1,zoneval,tool_new\WObj:=Workobject_1;
MoveL RelTool (p1,49.000000,14.500000,10.654363,\Rx:=0.000000,\Ry:=-8.932367),vel1,zoneval,tool_new\WObj:=Workobject_1;
MoveL RelTool (p1,46.500000,17.000000,9.463590,\Rx:=0.000000,\Ry:=-7.741395),vel1,zoneval,tool_new\WObj:=Workobject_1;
MoveL RelTool (p1,44.000000,19.500000,8.488217,\Rx:=0.000000,\Ry:=-6.550424),vel1,zoneval,tool_new\WObj:=Workobject_1;
MoveL RelTool (p1,43.500000,20.000000,8.309671,\Rx:=0.000000,\Ry:=-6.550424),vel1,zoneval,tool_new\WObj:=Workobject_1;
MoveL RelTool (p1,44.000000,20.000000,8.488217,\Rx:=0.000000,\Ry:=-6.550424),vel1,zoneval,tool_new\WObj:=Workobject_1;
MoveL RelTool (p1,46.500000,17.500000,9.463590,\Rx:=0.000000,\Ry:=-7.741395),vel1,zoneval,tool_new\WObj:=Workobject_1;
MoveL RelTool (p1,49.000000,15.000000,10.654363,\Rx:=0.000000,\Ry:=-8.932367),vel1,zoneval,tool_new\WObj:=Workobject_1;
MoveL RelTool (p1,51.000000,13.000000,11.787460,\Rx:=0.000000,\Ry:=-10.123360),vel1,zoneval,tool_new\WObj:=Workobject_1;
MoveL RelTool (p1,51.000000,13.500000,11.787460,\Rx:=0.000000,\Ry:=-10.123360),vel1,zoneval,tool_new\WObj:=Workobject_1;
MoveL RelTool (p1,50.000000,14.500000,11.201465,\Rx:=0.000000,\Ry:=-10.123360),vel1,zoneval,tool_new\WObj:=Workobject_1;
MoveL RelTool (p1,47.500000,17.000000,9.896754,\Rx:=0.000000,\Ry:=-8.932367),vel1,zoneval,tool_new\WObj:=Workobject_1;
MoveL RelTool (p1,45.000000,19.500000,8.845310,\Rx:=0.000000,\Ry:=-6.550424),vel1,zoneval,tool_new\WObj:=Workobject_1;
MoveL RelTool (p1,44.500000,20.000000,8.666763,\Rx:=0.000000,\Ry:=-6.550424),vel1,zoneval,tool_new\WObj:=Workobject_1;
MoveL RelTool (p1,45.000000,20.000000,8.845310,\Rx:=0.000000,\Ry:=-6.550424),vel1,zoneval,tool_new\WObj:=Workobject_1;
MoveL RelTool (p1,47.500000,17.500000,9.896754,\Rx:=0.000000,\Ry:=-8.932367),vel1,zoneval,tool_new\WObj:=Workobject_1;
MoveL RelTool (p1,50.000000,15.000000,11.201465,\Rx:=0.000000,\Ry:=-10.123360),vel1,zoneval,tool_new\WObj:=Workobject_1;
MoveL RelTool (p1,51.000000,14.000000,11.787460,\Rx:=0.000000,\Ry:=-10.123360),vel1,zoneval,tool_new\WObj:=Workobject_1;
MoveL RelTool (p1,51.000000,14.500000,11.787460,\Rx:=0.000000,\Ry:=-10.123360),vel1,zoneval,tool_new\WObj:=Workobject_1;
MoveL RelTool (p1,49.000000,16.500000,10.654363,\Rx:=0.000000,\Ry:=-8.932367),vel1,zoneval,tool_new\WObj:=Workobject_1;
MoveL RelTool (p1,46.500000,19.000000,9.463590,\Rx:=0.000000,\Ry:=-7.741395),vel1,zoneval,tool_new\WObj:=Workobject_1;
MoveL RelTool (p1,45.500000,20.000000,9.034489,\Rx:=0.000000,\Ry:=-7.741395),vel1,zoneval,tool_new\WObj:=Workobject_1;
MoveL RelTool (p1,46.000000,20.000000,9.249039,\Rx:=0.000000,\Ry:=-7.741395),vel1,zoneval,tool_new\WObj:=Workobject_1;
MoveL RelTool (p1,48.000000,18.000000,10.149290,\Rx:=0.000000,\Ry:=-8.932367),vel1,zoneval,tool_new\WObj:=Workobject_1;
MoveL RelTool (p1,50.500000,15.500000,11.494462,\Rx:=0.000000,\Ry:=-10.123360),vel1,zoneval,tool_new\WObj:=Workobject_1;
MoveL RelTool (p1,51.000000,15.000000,11.787460,\Rx:=0.000000,\Ry:=-10.123360),vel1,zoneval,tool_new\WObj:=Workobject_1;
MoveL RelTool (p1,51.000000,15.500000,11.787460,\Rx:=0.000000,\Ry:=-10.123360),vel1,zoneval,tool_new\WObj:=Workobject_1;
MoveL RelTool (p1,48.500000,18.000000,10.401826,\Rx:=0.000000,\Ry:=-8.932367),vel1,zoneval,tool_new\WObj:=Workobject_1;
MoveL RelTool (p1,46.500000,20.000000,9.463590,\Rx:=0.000000,\Ry:=-7.741395),vel1,zoneval,tool_new\WObj:=Workobject_1;
MoveL RelTool (p1,47.000000,20.000000,9.678140,\Rx:=0.000000,\Ry:=-7.741395),vel1,zoneval,tool_new\WObj:=Workobject_1;
MoveL RelTool (p1,48.000000,19.000000,10.149290,\Rx:=0.000000,\Ry:=-8.932367),vel1,zoneval,tool_new\WObj:=Workobject_1;
MoveL RelTool (p1,50.500000,16.500000,11.494462,\Rx:=0.000000,\Ry:=-10.123360),vel1,zoneval,tool_new\WObj:=Workobject_1;
MoveL RelTool (p1,51.000000,16.000000,11.787460,\Rx:=0.000000,\Ry:=-10.123360),vel1,zoneval,tool_new\WObj:=Workobject_1;
MoveL RelTool (p1,51.000000,16.500000,11.787460,\Rx:=0.000000,\Ry:=-10.123360),vel1,zoneval,tool_new\WObj:=Workobject_1;
MoveL RelTool (p1,48.500000,19.000000,10.401826,\Rx:=0.000000,\Ry:=-8.932367),vel1,zoneval,tool_new\WObj:=Workobject_1;
MoveL RelTool (p1,47.500000,20.000000,9.896754,\Rx:=0.000000,\Ry:=-8.932367),vel1,zoneval,tool_new\WObj:=Workobject_1;
MoveL RelTool (p1,48.000000,20.000000,10.149290,\Rx:=0.000000,\Ry:=-8.932367),vel1,zoneval,tool_new\WObj:=Workobject_1;
MoveL RelTool (p1,50.000000,18.000000,11.201465,\Rx:=0.000000,\Ry:=-10.123360),vel1,zoneval,tool_new\WObj:=Workobject_1;
MoveL RelTool (p1,51.000000,17.000000,11.787460,\Rx:=0.000000,\Ry:=-10.123360),vel1,zoneval,tool_new\WObj:=Workobject_1;
MoveL RelTool (p1,51.000000,17.500000,11.787460,\Rx:=0.000000,\Ry:=-10.123360),vel1,zoneval,tool_new\WObj:=Workobject_1;
MoveL RelTool (p1,49.000000,19.500000,10.654363,\Rx:=0.000000,\Ry:=-8.932367),vel1,zoneval,tool_new\WObj:=Workobject_1;
MoveL RelTool (p1,48.500000,20.000000,10.401826,\Rx:=0.000000,\Ry:=-8.932367),vel1,zoneval,tool_new\WObj:=Workobject_1;
MoveL RelTool (p1,49.000000,20.000000,10.654363,\Rx:=0.000000,\Ry:=-8.932367),vel1,zoneval,tool_new\WObj:=Workobject_1;
MoveL RelTool (p1,51.000000,18.000000,11.787460,\Rx:=0.000000,\Ry:=-10.123360),vel1,zoneval,tool_new\WObj:=Workobject_1;
MoveL RelTool (p1,51.000000,18.500000,11.787460,\Rx:=0.000000,\Ry:=-10.123360),vel1,zoneval,tool_new\WObj:=Workobject_1;
MoveL RelTool (p1,50.000000,19.500000,11.201465,\Rx:=0.000000,\Ry:=-10.123360),vel1,zoneval,tool_new\WObj:=Workobject_1;
MoveL RelTool (p1,49.500000,20.000000,10.908467,\Rx:=0.000000,\Ry:=-10.123360),vel1,zoneval,tool_new\WObj:=Workobject_1;
MoveL RelTool (p1,50.000000,20.000000,11.201465,\Rx:=0.000000,\Ry:=-10.123360),vel1,zoneval,tool_new\WObj:=Workobject_1;
MoveL RelTool (p1,51.000000,19.000000,11.787460,\Rx:=0.000000,\Ry:=-10.123360),vel1,zoneval,tool_new\WObj:=Workobject_1;
MoveL RelTool (p1,51.000000,19.500000,11.787460,\Rx:=0.000000,\Ry:=-10.123360),vel1,zoneval,tool_new\WObj:=Workobject_1;
MoveL RelTool (p1,50.500000,20.000000,11.494462,\Rx:=0.000000,\Ry:=-10.123360),vel1,zoneval,tool_new\WObj:=Workobject_1;
MoveL RelTool (p1,51.000000,20.000000,11.787460,\Rx:=0.000000,\Ry:=-10.123360),vel1,zoneval,tool_new\WObj:=Workobject_1;
MoveL RelTool (p1,51.000000,20.000000,11.787460,\Rx:=0.000000,\Ry:=-10.123360),vel1,zoneval,tool_new\WObj:=Workobject_1;
