MoveL RelTool (p1,3.000000,16.000000,4.920000,\Rx:=0.000000,\Ry:=-0.000000),vel1,zoneval,tool_new\WObj:=Workobject_1;
MoveL RelTool (p1,3.000000,15.500000,4.920000,\Rx:=0.000000,\Ry:=-0.000000),vel1,zoneval,tool_new\WObj:=Workobject_1;
MoveL RelTool (p1,3.000000,14.500000,4.920000,\Rx:=0.000000,\Ry:=-0.000000),vel1,zoneval,tool_new\WObj:=Workobject_1;
MoveL RelTool (p1,3.000000,13.500000,4.920000,\Rx:=0.000000,\Ry:=-0.000000),vel1,zoneval,tool_new\WObj:=Workobject_1;
MoveL RelTool (p1,3.000000,12.500000,4.920000,\Rx:=0.000000,\Ry:=-0.000000),vel1,zoneval,tool_new\WObj:=Workobject_1;
MoveL RelTool (p1,3.000000,11.500000,4.920000,\Rx:=0.000000,\Ry:=-0.000000),vel1,zoneval,tool_new\WObj:=Workobject_1;
MoveL RelTool (p1,3.000000,10.500000,4.920000,\Rx:=0.000000,\Ry:=-0.000000),vel1,zoneval,tool_new\WObj:=Workobject_1;
MoveL RelTool (p1,3.000000,9.500000,4.920000,\Rx:=0.000000,\Ry:=-0.000000),vel1,zoneval,tool_new\WObj:=Workobject_1;
MoveL RelTool (p1,3.000000,8.500000,4.920000,\Rx:=0.000000,\Ry:=-0.000000),vel1,zoneval,tool_new\WObj:=Workobject_1;
MoveL RelTool (p1,3.000000,7.500000,4.920000,\Rx:=0.000000,\Ry:=-0.000000),vel1,zoneval,tool_new\WObj:=Workobject_1;
MoveL RelTool (p1,3.000000,6.500000,4.920000,\Rx:=0.000000,\Ry:=-0.000000),vel1,zoneval,tool_new\WObj:=Workobject_1;
MoveL RelTool (p1,3.000000,5.500000,4.920000,\Rx:=0.000000,\Ry:=-0.000000),vel1,zoneval,tool_new\WObj:=Workobject_1;
MoveL RelTool (p1,3.000000,4.500000,4.920000,\Rx:=0.000000,\Ry:=-0.000000),vel1,zoneval,tool_new\WObj:=Workobject_1;
MoveL RelTool (p1,3.000000,3.500000,4.920000,\Rx:=0.000000,\Ry:=-0.000000),vel1,zoneval,tool_new\WObj:=Workobject_1;
MoveL RelTool (p1,3.000000,3.000000,4.920000,\Rx:=0.000000,\Ry:=-0.000000),vel1,zoneval,tool_new\WObj:=Workobject_1;
MoveL RelTool (p1,3.500000,3.000000,4.920000,\Rx:=0.000000,\Ry:=-0.000000),vel1,zoneval,tool_new\WObj:=Workobject_1;
MoveL RelTool (p1,3.500000,4.000000,4.920000,\Rx:=0.000000,\Ry:=-0.000000),vel1,zoneval,tool_new\WObj:=Workobject_1;
MoveL RelTool (p1,3.500000,5.000000,4.920000,\Rx:=0.000000,\Ry:=-0.000000),vel1,zoneval,tool_new\WObj:=Workobject_1;
MoveL RelTool (p1,3.500000,6.000000,4.920000,\Rx:=0.000000,\Ry:=-0.000000),vel1,zoneval,tool_new\WObj:=Workobject_1;
MoveL RelTool (p1,3.500000,7.000000,4.920000,\Rx:=0.000000,\Ry:=-0.000000),vel1,zoneval,tool_new\WObj:=Workobject_1;
MoveL RelTool (p1,3.500000,8.000000,4.920000,\Rx:=0.000000,\Ry:=-0.000000),vel1,zoneval,tool_new\WObj:=Workobject_1;
MoveL RelTool (p1,3.500000,9.000000,4.920000,\Rx:=0.000000,\Ry:=-0.000000),vel1,zoneval,tool_new\WObj:=Workobject_1;
MoveL RelTool (p1,3.500000,10.000000,4.920000,\Rx:=0.000000,\Ry:=-0.000000),vel1,zoneval,tool_new\WObj:=Workobject_1;
MoveL RelTool (p1,3.500000,11.000000,4.920000,\Rx:=0.000000,\Ry:=-0.000000),vel1,zoneval,tool_new\WObj:=Workobject_1;
MoveL RelTool (p1,3.500000,12.000000,4.920000,\Rx:=0.000000,\Ry:=-0.000000),vel1,zoneval,tool_new\WObj:=Workobject_1;
MoveL RelTool (p1,3.500000,13.000000,4.920000,\Rx:=0.000000,\Ry:=-0.000000),vel1,zoneval,tool_new\WObj:=Workobject_1;
MoveL RelTool (p1,3.500000,14.000000,4.920000,\Rx:=0.000000,\Ry:=-0.000000),vel1,zoneval,tool_new\WObj:=Workobject_1;
MoveL RelTool (p1,3.500000,15.000000,4.920000,\Rx:=0.000000,\Ry:=-0.000000),vel1,zoneval,tool_new\WObj:=Workobject_1;
MoveL RelTool (p1,3.500000,16.000000,4.920000,\Rx:=0.000000,\Ry:=-0.000000),vel1,zoneval,tool_new\WObj:=Workobject_1;
MoveL RelTool (p1,4.000000,16.000000,4.920000,\Rx:=0.000000,\Ry:=-0.000000),vel1,zoneval,tool_new\WObj:=Workobject_1;
MoveL RelTool (p1,4.000000,15.500000,4.920000,\Rx:=0.000000,\Ry:=-0.000000),vel1,zoneval,tool_new\WObj:=Workobject_1;
MoveL RelTool (p1,4.000000,14.500000,4.920000,\Rx:=0.000000,\Ry:=-0.000000),vel1,zoneval,tool_new\WObj:=Workobject_1;
MoveL RelTool (p1,4.000000,13.500000,4.920000,\Rx:=0.000000,\Ry:=-0.000000),vel1,zoneval,tool_new\WObj:=Workobject_1;
MoveL RelTool (p1,4.000000,12.500000,4.920000,\Rx:=0.000000,\Ry:=-0.000000),vel1,zoneval,tool_new\WObj:=Workobject_1;
MoveL RelTool (p1,4.000000,11.500000,4.920000,\Rx:=0.000000,\Ry:=-0.000000),vel1,zoneval,tool_new\WObj:=Workobject_1;
MoveL RelTool (p1,4.000000,10.500000,4.920000,\Rx:=0.000000,\Ry:=-0.000000),vel1,zoneval,tool_new\WObj:=Workobject_1;
MoveL RelTool (p1,4.000000,9.500000,4.920000,\Rx:=0.000000,\Ry:=-0.000000),vel1,zoneval,tool_new\WObj:=Workobject_1;
MoveL RelTool (p1,4.000000,8.500000,4.920000,\Rx:=0.000000,\Ry:=-0.000000),vel1,zoneval,tool_new\WObj:=Workobject_1;
MoveL RelTool (p1,4.000000,7.500000,4.920000,\Rx:=0.000000,\Ry:=-0.000000),vel1,zoneval,tool_new\WObj:=Workobject_1;
MoveL RelTool (p1,4.000000,6.500000,4.920000,\Rx:=0.000000,\Ry:=-0.000000),vel1,zoneval,tool_new\WObj:=Workobject_1;
MoveL RelTool (p1,4.000000,5.500000,4.920000,\Rx:=0.000000,\Ry:=-0.000000),vel1,zoneval,tool_new\WObj:=Workobject_1;
MoveL RelTool (p1,4.000000,4.500000,4.920000,\Rx:=0.000000,\Ry:=-0.000000),vel1,zoneval,tool_new\WObj:=Workobject_1;
MoveL RelTool (p1,4.000000,3.500000,4.920000,\Rx:=0.000000,\Ry:=-0.000000),vel1,zoneval,tool_new\WObj:=Workobject_1;
MoveL RelTool (p1,4.000000,3.000000,4.920000,\Rx:=0.000000,\Ry:=-0.000000),vel1,zoneval,tool_new\WObj:=Workobject_1;
MoveL RelTool (p1,4.500000,3.000000,4.920000,\Rx:=0.000000,\Ry:=-0.000000),vel1,zoneval,tool_new\WObj:=Workobject_1;
MoveL RelTool (p1,4.500000,4.000000,4.920000,\Rx:=0.000000,\Ry:=-0.000000),vel1,zoneval,tool_new\WObj:=Workobject_1;
MoveL RelTool (p1,4.500000,5.000000,4.920000,\Rx:=0.000000,\Ry:=-0.000000),vel1,zoneval,tool_new\WObj:=Workobject_1;
MoveL RelTool (p1,4.500000,6.000000,4.920000,\Rx:=0.000000,\Ry:=-0.000000),vel1,zoneval,tool_new\WObj:=Workobject_1;
MoveL RelTool (p1,4.500000,7.000000,4.920000,\Rx:=0.000000,\Ry:=-0.000000),vel1,zoneval,tool_new\WObj:=Workobject_1;
MoveL RelTool (p1,4.500000,8.000000,4.920000,\Rx:=0.000000,\Ry:=-0.000000),vel1,zoneval,tool_new\WObj:=Workobject_1;
MoveL RelTool (p1,4.500000,9.000000,4.920000,\Rx:=0.000000,\Ry:=-0.000000),vel1,zoneval,tool_new\WObj:=Workobject_1;
MoveL RelTool (p1,4.500000,10.000000,4.920000,\Rx:=0.000000,\Ry:=-0.000000),vel1,zoneval,tool_new\WObj:=Workobject_1;
MoveL RelTool (p1,4.500000,11.000000,4.920000,\Rx:=0.000000,\Ry:=-0.000000),vel1,zoneval,tool_new\WObj:=Workobject_1;
MoveL RelTool (p1,4.500000,12.000000,4.920000,\Rx:=0.000000,\Ry:=-0.000000),vel1,zoneval,tool_new\WObj:=Workobject_1;
MoveL RelTool (p1,4.500000,13.000000,4.920000,\Rx:=0.000000,\Ry:=-0.000000),vel1,zoneval,tool_new\WObj:=Workobject_1;
MoveL RelTool (p1,4.500000,14.000000,4.920000,\Rx:=0.000000,\Ry:=-0.000000),vel1,zoneval,tool_new\WObj:=Workobject_1;
MoveL RelTool (p1,4.500000,15.000000,4.920000,\Rx:=0.000000,\Ry:=-0.000000),vel1,zoneval,tool_new\WObj:=Workobject_1;
MoveL RelTool (p1,4.500000,16.000000,4.920000,\Rx:=0.000000,\Ry:=-0.000000),vel1,zoneval,tool_new\WObj:=Workobject_1;
MoveL RelTool (p1,5.000000,16.000000,4.920000,\Rx:=0.000000,\Ry:=-0.000000),vel1,zoneval,tool_new\WObj:=Workobject_1;
MoveL RelTool (p1,5.000000,15.500000,4.920000,\Rx:=0.000000,\Ry:=-0.000000),vel1,zoneval,tool_new\WObj:=Workobject_1;
MoveL RelTool (p1,5.000000,14.500000,4.920000,\Rx:=0.000000,\Ry:=-0.000000),vel1,zoneval,tool_new\WObj:=Workobject_1;
MoveL RelTool (p1,5.000000,13.500000,4.920000,\Rx:=0.000000,\Ry:=-0.000000),vel1,zoneval,tool_new\WObj:=Workobject_1;
MoveL RelTool (p1,5.000000,12.500000,4.920000,\Rx:=0.000000,\Ry:=-0.000000),vel1,zoneval,tool_new\WObj:=Workobject_1;
MoveL RelTool (p1,5.000000,11.500000,4.920000,\Rx:=0.000000,\Ry:=-0.000000),vel1,zoneval,tool_new\WObj:=Workobject_1;
MoveL RelTool (p1,5.000000,10.500000,4.920000,\Rx:=0.000000,\Ry:=-0.000000),vel1,zoneval,tool_new\WObj:=Workobject_1;
MoveL RelTool (p1,5.000000,9.500000,4.920000,\Rx:=0.000000,\Ry:=-0.000000),vel1,zoneval,tool_new\WObj:=Workobject_1;
MoveL RelTool (p1,5.000000,8.500000,4.920000,\Rx:=0.000000,\Ry:=-0.000000),vel1,zoneval,tool_new\WObj:=Workobject_1;
MoveL RelTool (p1,5.000000,7.500000,4.920000,\Rx:=0.000000,\Ry:=-0.000000),vel1,zoneval,tool_new\WObj:=Workobject_1;
MoveL RelTool (p1,5.000000,6.500000,4.920000,\Rx:=0.000000,\Ry:=-0.000000),vel1,zoneval,tool_new\WObj:=Workobject_1;
MoveL RelTool (p1,5.000000,5.500000,4.920000,\Rx:=0.000000,\Ry:=-0.000000),vel1,zoneval,tool_new\WObj:=Workobject_1;
MoveL RelTool (p1,5.000000,4.500000,4.920000,\Rx:=0.000000,\Ry:=-0.000000),vel1,zoneval,tool_new\WObj:=Workobject_1;
MoveL RelTool (p1,5.000000,3.500000,4.920000,\Rx:=0.000000,\Ry:=-0.000000),vel1,zoneval,tool_new\WObj:=Workobject_1;
MoveL RelTool (p1,5.000000,3.000000,4.920000,\Rx:=0.000000,\Ry:=-0.000000),vel1,zoneval,tool_new\WObj:=Workobject_1;
MoveL RelTool (p1,5.500000,3.000000,4.920000,\Rx:=0.000000,\Ry:=-0.000000),vel1,zoneval,tool_new\WObj:=Workobject_1;
MoveL RelTool (p1,5.500000,4.000000,4.920000,\Rx:=0.000000,\Ry:=-0.000000),vel1,zoneval,tool_new\WObj:=Workobject_1;
MoveL RelTool (p1,5.500000,5.000000,4.920000,\Rx:=0.000000,\Ry:=-0.000000),vel1,zoneval,tool_new\WObj:=Workobject_1;
MoveL RelTool (p1,5.500000,6.000000,4.920000,\Rx:=0.000000,\Ry:=-0.000000),vel1,zoneval,tool_new\WObj:=Workobject_1;
MoveL RelTool (p1,5.500000,7.000000,4.920000,\Rx:=0.000000,\Ry:=-0.000000),vel1,zoneval,tool_new\WObj:=Workobject_1;
MoveL RelTool (p1,5.500000,8.000000,4.920000,\Rx:=0.000000,\Ry:=-0.000000),vel1,zoneval,tool_new\WObj:=Workobject_1;
MoveL RelTool (p1,5.500000,9.000000,4.920000,\Rx:=0.000000,\Ry:=-0.000000),vel1,zoneval,tool_new\WObj:=Workobject_1;
MoveL RelTool (p1,5.500000,10.000000,4.920000,\Rx:=0.000000,\Ry:=-0.000000),vel1,zoneval,tool_new\WObj:=Workobject_1;
MoveL RelTool (p1,5.500000,11.000000,4.920000,\Rx:=0.000000,\Ry:=-0.000000),vel1,zoneval,tool_new\WObj:=Workobject_1;
MoveL RelTool (p1,5.500000,12.000000,4.920000,\Rx:=0.000000,\Ry:=-0.000000),vel1,zoneval,tool_new\WObj:=Workobject_1;
MoveL RelTool (p1,5.500000,13.000000,4.920000,\Rx:=0.000000,\Ry:=-0.000000),vel1,zoneval,tool_new\WObj:=Workobject_1;
MoveL RelTool (p1,5.500000,14.000000,4.920000,\Rx:=0.000000,\Ry:=-0.000000),vel1,zoneval,tool_new\WObj:=Workobject_1;
MoveL RelTool (p1,5.500000,15.000000,4.920000,\Rx:=0.000000,\Ry:=-0.000000),vel1,zoneval,tool_new\WObj:=Workobject_1;
MoveL RelTool (p1,5.500000,16.000000,4.920000,\Rx:=0.000000,\Ry:=-0.000000),vel1,zoneval,tool_new\WObj:=Workobject_1;
MoveL RelTool (p1,6.000000,16.000000,4.920000,\Rx:=0.000000,\Ry:=-0.000000),vel1,zoneval,tool_new\WObj:=Workobject_1;
MoveL RelTool (p1,6.000000,15.500000,4.920000,\Rx:=0.000000,\Ry:=-0.000000),vel1,zoneval,tool_new\WObj:=Workobject_1;
MoveL RelTool (p1,6.000000,14.500000,4.920000,\Rx:=0.000000,\Ry:=-0.000000),vel1,zoneval,tool_new\WObj:=Workobject_1;
MoveL RelTool (p1,6.000000,13.500000,4.920000,\Rx:=0.000000,\Ry:=-0.000000),vel1,zoneval,tool_new\WObj:=Workobject_1;
MoveL RelTool (p1,6.000000,12.500000,4.920000,\Rx:=0.000000,\Ry:=-0.000000),vel1,zoneval,tool_new\WObj:=Workobject_1;
MoveL RelTool (p1,6.000000,11.500000,4.920000,\Rx:=0.000000,\Ry:=-0.000000),vel1,zoneval,tool_new\WObj:=Workobject_1;
MoveL RelTool (p1,6.000000,10.500000,4.920000,\Rx:=0.000000,\Ry:=-0.000000),vel1,zoneval,tool_new\WObj:=Workobject_1;
MoveL RelTool (p1,6.000000,9.500000,4.920000,\Rx:=0.000000,\Ry:=-0.000000),vel1,zoneval,tool_new\WObj:=Workobject_1;
MoveL RelTool (p1,6.000000,8.500000,4.920000,\Rx:=0.000000,\Ry:=-0.000000),vel1,zoneval,tool_new\WObj:=Workobject_1;
MoveL RelTool (p1,6.000000,7.500000,4.920000,\Rx:=0.000000,\Ry:=-0.000000),vel1,zoneval,tool_new\WObj:=Workobject_1;
MoveL RelTool (p1,6.000000,6.500000,4.920000,\Rx:=0.000000,\Ry:=-0.000000),vel1,zoneval,tool_new\WObj:=Workobject_1;
MoveL RelTool (p1,6.000000,5.500000,4.920000,\Rx:=0.000000,\Ry:=-0.000000),vel1,zoneval,tool_new\WObj:=Workobject_1;
MoveL RelTool (p1,6.000000,4.500000,4.920000,\Rx:=0.000000,\Ry:=-0.000000),vel1,zoneval,tool_new\WObj:=Workobject_1;
MoveL RelTool (p1,6.000000,3.500000,4.920000,\Rx:=0.000000,\Ry:=-0.000000),vel1,zoneval,tool_new\WObj:=Workobject_1;
MoveL RelTool (p1,6.000000,3.000000,4.920000,\Rx:=0.000000,\Ry:=-0.000000),vel1,zoneval,tool_new\WObj:=Workobject_1;
MoveL RelTool (p1,6.500000,3.000000,4.920000,\Rx:=0.000000,\Ry:=-0.000000),vel1,zoneval,tool_new\WObj:=Workobject_1;
MoveL RelTool (p1,6.500000,4.000000,4.920000,\Rx:=0.000000,\Ry:=-0.000000),vel1,zoneval,tool_new\WObj:=Workobject_1;
MoveL RelTool (p1,6.500000,5.000000,4.920000,\Rx:=0.000000,\Ry:=-0.000000),vel1,zoneval,tool_new\WObj:=Workobject_1;
MoveL RelTool (p1,6.500000,6.000000,4.920000,\Rx:=0.000000,\Ry:=-0.000000),vel1,zoneval,tool_new\WObj:=Workobject_1;
MoveL RelTool (p1,6.500000,7.000000,4.920000,\Rx:=0.000000,\Ry:=-0.000000),vel1,zoneval,tool_new\WObj:=Workobject_1;
MoveL RelTool (p1,6.500000,8.000000,4.920000,\Rx:=0.000000,\Ry:=-0.000000),vel1,zoneval,tool_new\WObj:=Workobject_1;
MoveL RelTool (p1,6.500000,9.000000,4.920000,\Rx:=0.000000,\Ry:=-0.000000),vel1,zoneval,tool_new\WObj:=Workobject_1;
MoveL RelTool (p1,6.500000,10.000000,4.920000,\Rx:=0.000000,\Ry:=-0.000000),vel1,zoneval,tool_new\WObj:=Workobject_1;
MoveL RelTool (p1,6.500000,11.000000,4.920000,\Rx:=0.000000,\Ry:=-0.000000),vel1,zoneval,tool_new\WObj:=Workobject_1;
MoveL RelTool (p1,6.500000,12.000000,4.920000,\Rx:=0.000000,\Ry:=-0.000000),vel1,zoneval,tool_new\WObj:=Workobject_1;
MoveL RelTool (p1,6.500000,13.000000,4.920000,\Rx:=0.000000,\Ry:=-0.000000),vel1,zoneval,tool_new\WObj:=Workobject_1;
MoveL RelTool (p1,6.500000,14.000000,4.920000,\Rx:=0.000000,\Ry:=-0.000000),vel1,zoneval,tool_new\WObj:=Workobject_1;
MoveL RelTool (p1,6.500000,15.000000,4.920000,\Rx:=0.000000,\Ry:=-0.000000),vel1,zoneval,tool_new\WObj:=Workobject_1;
MoveL RelTool (p1,6.500000,16.000000,4.920000,\Rx:=0.000000,\Ry:=-0.000000),vel1,zoneval,tool_new\WObj:=Workobject_1;
MoveL RelTool (p1,7.000000,16.000000,4.920000,\Rx:=0.000000,\Ry:=-0.000000),vel1,zoneval,tool_new\WObj:=Workobject_1;
MoveL RelTool (p1,7.000000,15.500000,4.920000,\Rx:=0.000000,\Ry:=-0.000000),vel1,zoneval,tool_new\WObj:=Workobject_1;
MoveL RelTool (p1,7.000000,14.500000,4.920000,\Rx:=0.000000,\Ry:=-0.000000),vel1,zoneval,tool_new\WObj:=Workobject_1;
MoveL RelTool (p1,7.000000,13.500000,4.920000,\Rx:=0.000000,\Ry:=-0.000000),vel1,zoneval,tool_new\WObj:=Workobject_1;
MoveL RelTool (p1,7.000000,12.500000,4.920000,\Rx:=0.000000,\Ry:=-0.000000),vel1,zoneval,tool_new\WObj:=Workobject_1;
MoveL RelTool (p1,7.000000,11.500000,4.920000,\Rx:=0.000000,\Ry:=-0.000000),vel1,zoneval,tool_new\WObj:=Workobject_1;
MoveL RelTool (p1,7.000000,10.500000,4.920000,\Rx:=0.000000,\Ry:=-0.000000),vel1,zoneval,tool_new\WObj:=Workobject_1;
MoveL RelTool (p1,7.000000,9.500000,4.920000,\Rx:=0.000000,\Ry:=-0.000000),vel1,zoneval,tool_new\WObj:=Workobject_1;
MoveL RelTool (p1,7.000000,8.500000,4.920000,\Rx:=0.000000,\Ry:=-0.000000),vel1,zoneval,tool_new\WObj:=Workobject_1;
MoveL RelTool (p1,7.000000,7.500000,4.920000,\Rx:=0.000000,\Ry:=-0.000000),vel1,zoneval,tool_new\WObj:=Workobject_1;
MoveL RelTool (p1,7.000000,6.500000,4.920000,\Rx:=0.000000,\Ry:=-0.000000),vel1,zoneval,tool_new\WObj:=Workobject_1;
MoveL RelTool (p1,7.000000,5.500000,4.920000,\Rx:=0.000000,\Ry:=-0.000000),vel1,zoneval,tool_new\WObj:=Workobject_1;
MoveL RelTool (p1,7.000000,4.500000,4.920000,\Rx:=0.000000,\Ry:=-0.000000),vel1,zoneval,tool_new\WObj:=Workobject_1;
MoveL RelTool (p1,7.000000,3.500000,4.920000,\Rx:=0.000000,\Ry:=-0.000000),vel1,zoneval,tool_new\WObj:=Workobject_1;
MoveL RelTool (p1,7.000000,3.000000,4.920000,\Rx:=0.000000,\Ry:=-0.000000),vel1,zoneval,tool_new\WObj:=Workobject_1;
MoveL RelTool (p1,7.500000,3.000000,4.920000,\Rx:=0.000000,\Ry:=-0.000000),vel1,zoneval,tool_new\WObj:=Workobject_1;
MoveL RelTool (p1,7.500000,4.000000,4.920000,\Rx:=0.000000,\Ry:=-0.000000),vel1,zoneval,tool_new\WObj:=Workobject_1;
MoveL RelTool (p1,7.500000,5.000000,4.920000,\Rx:=0.000000,\Ry:=-0.000000),vel1,zoneval,tool_new\WObj:=Workobject_1;
MoveL RelTool (p1,7.500000,6.000000,4.920000,\Rx:=0.000000,\Ry:=-0.000000),vel1,zoneval,tool_new\WObj:=Workobject_1;
MoveL RelTool (p1,7.500000,7.000000,4.920000,\Rx:=0.000000,\Ry:=-0.000000),vel1,zoneval,tool_new\WObj:=Workobject_1;
MoveL RelTool (p1,7.500000,8.000000,4.920000,\Rx:=0.000000,\Ry:=-0.000000),vel1,zoneval,tool_new\WObj:=Workobject_1;
MoveL RelTool (p1,7.500000,9.000000,4.920000,\Rx:=0.000000,\Ry:=-0.000000),vel1,zoneval,tool_new\WObj:=Workobject_1;
MoveL RelTool (p1,7.500000,10.000000,4.920000,\Rx:=0.000000,\Ry:=-0.000000),vel1,zoneval,tool_new\WObj:=Workobject_1;
MoveL RelTool (p1,7.500000,11.000000,4.920000,\Rx:=0.000000,\Ry:=-0.000000),vel1,zoneval,tool_new\WObj:=Workobject_1;
MoveL RelTool (p1,7.500000,12.000000,4.920000,\Rx:=0.000000,\Ry:=-0.000000),vel1,zoneval,tool_new\WObj:=Workobject_1;
MoveL RelTool (p1,7.500000,13.000000,4.920000,\Rx:=0.000000,\Ry:=-0.000000),vel1,zoneval,tool_new\WObj:=Workobject_1;
MoveL RelTool (p1,7.500000,14.000000,4.920000,\Rx:=0.000000,\Ry:=-0.000000),vel1,zoneval,tool_new\WObj:=Workobject_1;
MoveL RelTool (p1,7.500000,15.000000,4.920000,\Rx:=0.000000,\Ry:=-0.000000),vel1,zoneval,tool_new\WObj:=Workobject_1;
MoveL RelTool (p1,7.500000,16.000000,4.920000,\Rx:=0.000000,\Ry:=-0.000000),vel1,zoneval,tool_new\WObj:=Workobject_1;
MoveL RelTool (p1,8.000000,16.000000,4.920000,\Rx:=0.000000,\Ry:=-0.000000),vel1,zoneval,tool_new\WObj:=Workobject_1;
MoveL RelTool (p1,8.000000,15.500000,4.920000,\Rx:=0.000000,\Ry:=-0.000000),vel1,zoneval,tool_new\WObj:=Workobject_1;
MoveL RelTool (p1,8.000000,14.500000,4.920000,\Rx:=0.000000,\Ry:=-0.000000),vel1,zoneval,tool_new\WObj:=Workobject_1;
MoveL RelTool (p1,8.000000,13.500000,4.920000,\Rx:=0.000000,\Ry:=-0.000000),vel1,zoneval,tool_new\WObj:=Workobject_1;
MoveL RelTool (p1,8.000000,12.500000,4.920000,\Rx:=0.000000,\Ry:=-0.000000),vel1,zoneval,tool_new\WObj:=Workobject_1;
MoveL RelTool (p1,8.000000,11.500000,4.920000,\Rx:=0.000000,\Ry:=-0.000000),vel1,zoneval,tool_new\WObj:=Workobject_1;
MoveL RelTool (p1,8.000000,10.500000,4.920000,\Rx:=0.000000,\Ry:=-0.000000),vel1,zoneval,tool_new\WObj:=Workobject_1;
MoveL RelTool (p1,8.000000,9.500000,4.920000,\Rx:=0.000000,\Ry:=-0.000000),vel1,zoneval,tool_new\WObj:=Workobject_1;
MoveL RelTool (p1,8.000000,8.500000,4.920000,\Rx:=0.000000,\Ry:=-0.000000),vel1,zoneval,tool_new\WObj:=Workobject_1;
MoveL RelTool (p1,8.000000,7.500000,4.920000,\Rx:=0.000000,\Ry:=-0.000000),vel1,zoneval,tool_new\WObj:=Workobject_1;
MoveL RelTool (p1,8.000000,6.500000,4.920000,\Rx:=0.000000,\Ry:=-0.000000),vel1,zoneval,tool_new\WObj:=Workobject_1;
MoveL RelTool (p1,8.000000,5.500000,4.920000,\Rx:=0.000000,\Ry:=-0.000000),vel1,zoneval,tool_new\WObj:=Workobject_1;
MoveL RelTool (p1,8.000000,4.500000,4.920000,\Rx:=0.000000,\Ry:=-0.000000),vel1,zoneval,tool_new\WObj:=Workobject_1;
MoveL RelTool (p1,8.000000,3.500000,4.920000,\Rx:=0.000000,\Ry:=-0.000000),vel1,zoneval,tool_new\WObj:=Workobject_1;
MoveL RelTool (p1,8.000000,3.000000,4.920000,\Rx:=0.000000,\Ry:=-0.000000),vel1,zoneval,tool_new\WObj:=Workobject_1;
MoveL RelTool (p1,8.500000,3.000000,4.920000,\Rx:=0.000000,\Ry:=-0.000000),vel1,zoneval,tool_new\WObj:=Workobject_1;
MoveL RelTool (p1,8.500000,4.000000,4.920000,\Rx:=0.000000,\Ry:=-0.000000),vel1,zoneval,tool_new\WObj:=Workobject_1;
MoveL RelTool (p1,8.500000,5.000000,4.920000,\Rx:=0.000000,\Ry:=-0.000000),vel1,zoneval,tool_new\WObj:=Workobject_1;
MoveL RelTool (p1,8.500000,6.000000,4.920000,\Rx:=0.000000,\Ry:=-0.000000),vel1,zoneval,tool_new\WObj:=Workobject_1;
MoveL RelTool (p1,8.500000,7.000000,4.920000,\Rx:=0.000000,\Ry:=-0.000000),vel1,zoneval,tool_new\WObj:=Workobject_1;
MoveL RelTool (p1,8.500000,8.000000,4.920000,\Rx:=0.000000,\Ry:=-0.000000),vel1,zoneval,tool_new\WObj:=Workobject_1;
MoveL RelTool (p1,8.500000,9.000000,4.920000,\Rx:=0.000000,\Ry:=-0.000000),vel1,zoneval,tool_new\WObj:=Workobject_1;
MoveL RelTool (p1,8.500000,10.000000,4.920000,\Rx:=0.000000,\Ry:=-0.000000),vel1,zoneval,tool_new\WObj:=Workobject_1;
MoveL RelTool (p1,8.500000,11.000000,4.920000,\Rx:=0.000000,\Ry:=-0.000000),vel1,zoneval,tool_new\WObj:=Workobject_1;
MoveL RelTool (p1,8.500000,12.000000,4.920000,\Rx:=0.000000,\Ry:=-0.000000),vel1,zoneval,tool_new\WObj:=Workobject_1;
MoveL RelTool (p1,8.500000,13.000000,4.920000,\Rx:=0.000000,\Ry:=-0.000000),vel1,zoneval,tool_new\WObj:=Workobject_1;
MoveL RelTool (p1,8.500000,14.000000,4.920000,\Rx:=0.000000,\Ry:=-0.000000),vel1,zoneval,tool_new\WObj:=Workobject_1;
MoveL RelTool (p1,8.500000,15.000000,4.920000,\Rx:=0.000000,\Ry:=-0.000000),vel1,zoneval,tool_new\WObj:=Workobject_1;
MoveL RelTool (p1,8.500000,16.000000,4.920000,\Rx:=0.000000,\Ry:=-0.000000),vel1,zoneval,tool_new\WObj:=Workobject_1;
MoveL RelTool (p1,9.000000,16.000000,4.920000,\Rx:=0.000000,\Ry:=-0.000000),vel1,zoneval,tool_new\WObj:=Workobject_1;
MoveL RelTool (p1,9.000000,15.500000,4.920000,\Rx:=0.000000,\Ry:=-0.000000),vel1,zoneval,tool_new\WObj:=Workobject_1;
MoveL RelTool (p1,9.000000,14.500000,4.920000,\Rx:=0.000000,\Ry:=-0.000000),vel1,zoneval,tool_new\WObj:=Workobject_1;
MoveL RelTool (p1,9.000000,13.500000,4.920000,\Rx:=0.000000,\Ry:=-0.000000),vel1,zoneval,tool_new\WObj:=Workobject_1;
MoveL RelTool (p1,9.000000,12.500000,4.920000,\Rx:=0.000000,\Ry:=-0.000000),vel1,zoneval,tool_new\WObj:=Workobject_1;
MoveL RelTool (p1,9.000000,11.500000,4.920000,\Rx:=0.000000,\Ry:=-0.000000),vel1,zoneval,tool_new\WObj:=Workobject_1;
MoveL RelTool (p1,9.000000,10.500000,4.920000,\Rx:=0.000000,\Ry:=-0.000000),vel1,zoneval,tool_new\WObj:=Workobject_1;
MoveL RelTool (p1,9.000000,9.500000,4.920000,\Rx:=0.000000,\Ry:=-0.000000),vel1,zoneval,tool_new\WObj:=Workobject_1;
MoveL RelTool (p1,9.000000,8.500000,4.920000,\Rx:=0.000000,\Ry:=-0.000000),vel1,zoneval,tool_new\WObj:=Workobject_1;
MoveL RelTool (p1,9.000000,7.500000,4.920000,\Rx:=0.000000,\Ry:=-0.000000),vel1,zoneval,tool_new\WObj:=Workobject_1;
MoveL RelTool (p1,9.000000,6.500000,4.920000,\Rx:=0.000000,\Ry:=-0.000000),vel1,zoneval,tool_new\WObj:=Workobject_1;
MoveL RelTool (p1,9.000000,5.500000,4.920000,\Rx:=0.000000,\Ry:=-0.000000),vel1,zoneval,tool_new\WObj:=Workobject_1;
MoveL RelTool (p1,9.000000,4.500000,4.920000,\Rx:=0.000000,\Ry:=-0.000000),vel1,zoneval,tool_new\WObj:=Workobject_1;
MoveL RelTool (p1,9.000000,3.500000,4.920000,\Rx:=0.000000,\Ry:=-0.000000),vel1,zoneval,tool_new\WObj:=Workobject_1;
MoveL RelTool (p1,9.000000,3.000000,4.920000,\Rx:=0.000000,\Ry:=-0.000000),vel1,zoneval,tool_new\WObj:=Workobject_1;
MoveL RelTool (p1,9.500000,3.000000,4.920000,\Rx:=0.000000,\Ry:=-0.000000),vel1,zoneval,tool_new\WObj:=Workobject_1;
MoveL RelTool (p1,9.500000,4.000000,4.920000,\Rx:=0.000000,\Ry:=-0.000000),vel1,zoneval,tool_new\WObj:=Workobject_1;
MoveL RelTool (p1,9.500000,5.000000,4.920000,\Rx:=0.000000,\Ry:=-0.000000),vel1,zoneval,tool_new\WObj:=Workobject_1;
MoveL RelTool (p1,9.500000,6.000000,4.920000,\Rx:=0.000000,\Ry:=-0.000000),vel1,zoneval,tool_new\WObj:=Workobject_1;
MoveL RelTool (p1,9.500000,7.000000,4.920000,\Rx:=0.000000,\Ry:=-0.000000),vel1,zoneval,tool_new\WObj:=Workobject_1;
MoveL RelTool (p1,9.500000,8.000000,4.920000,\Rx:=0.000000,\Ry:=-0.000000),vel1,zoneval,tool_new\WObj:=Workobject_1;
MoveL RelTool (p1,9.500000,9.000000,4.920000,\Rx:=0.000000,\Ry:=-0.000000),vel1,zoneval,tool_new\WObj:=Workobject_1;
MoveL RelTool (p1,9.500000,10.000000,4.920000,\Rx:=0.000000,\Ry:=-0.000000),vel1,zoneval,tool_new\WObj:=Workobject_1;
MoveL RelTool (p1,9.500000,11.000000,4.920000,\Rx:=0.000000,\Ry:=-0.000000),vel1,zoneval,tool_new\WObj:=Workobject_1;
MoveL RelTool (p1,9.500000,12.000000,4.920000,\Rx:=0.000000,\Ry:=-0.000000),vel1,zoneval,tool_new\WObj:=Workobject_1;
MoveL RelTool (p1,9.500000,13.000000,4.920000,\Rx:=0.000000,\Ry:=-0.000000),vel1,zoneval,tool_new\WObj:=Workobject_1;
MoveL RelTool (p1,9.500000,14.000000,4.920000,\Rx:=0.000000,\Ry:=-0.000000),vel1,zoneval,tool_new\WObj:=Workobject_1;
MoveL RelTool (p1,9.500000,15.000000,4.920000,\Rx:=0.000000,\Ry:=-0.000000),vel1,zoneval,tool_new\WObj:=Workobject_1;
MoveL RelTool (p1,9.500000,16.000000,4.920000,\Rx:=0.000000,\Ry:=-0.000000),vel1,zoneval,tool_new\WObj:=Workobject_1;
MoveL RelTool (p1,10.000000,16.000000,4.920000,\Rx:=0.000000,\Ry:=-0.000000),vel1,zoneval,tool_new\WObj:=Workobject_1;
MoveL RelTool (p1,10.000000,15.500000,4.920000,\Rx:=0.000000,\Ry:=-0.000000),vel1,zoneval,tool_new\WObj:=Workobject_1;
MoveL RelTool (p1,10.000000,14.500000,4.920000,\Rx:=0.000000,\Ry:=-0.000000),vel1,zoneval,tool_new\WObj:=Workobject_1;
MoveL RelTool (p1,10.000000,13.500000,4.920000,\Rx:=0.000000,\Ry:=-0.000000),vel1,zoneval,tool_new\WObj:=Workobject_1;
MoveL RelTool (p1,10.000000,12.500000,4.920000,\Rx:=0.000000,\Ry:=-0.000000),vel1,zoneval,tool_new\WObj:=Workobject_1;
MoveL RelTool (p1,10.000000,11.500000,4.920000,\Rx:=0.000000,\Ry:=-0.000000),vel1,zoneval,tool_new\WObj:=Workobject_1;
MoveL RelTool (p1,10.000000,10.500000,4.920000,\Rx:=0.000000,\Ry:=-0.000000),vel1,zoneval,tool_new\WObj:=Workobject_1;
MoveL RelTool (p1,10.000000,9.500000,4.920000,\Rx:=0.000000,\Ry:=-0.000000),vel1,zoneval,tool_new\WObj:=Workobject_1;
MoveL RelTool (p1,10.000000,8.500000,4.920000,\Rx:=0.000000,\Ry:=-0.000000),vel1,zoneval,tool_new\WObj:=Workobject_1;
MoveL RelTool (p1,10.000000,7.500000,4.920000,\Rx:=0.000000,\Ry:=-0.000000),vel1,zoneval,tool_new\WObj:=Workobject_1;
MoveL RelTool (p1,10.000000,6.500000,4.920000,\Rx:=0.000000,\Ry:=-0.000000),vel1,zoneval,tool_new\WObj:=Workobject_1;
MoveL RelTool (p1,10.000000,5.500000,4.920000,\Rx:=0.000000,\Ry:=-0.000000),vel1,zoneval,tool_new\WObj:=Workobject_1;
MoveL RelTool (p1,10.000000,4.500000,4.920000,\Rx:=0.000000,\Ry:=-0.000000),vel1,zoneval,tool_new\WObj:=Workobject_1;
MoveL RelTool (p1,10.000000,3.500000,4.920000,\Rx:=0.000000,\Ry:=-0.000000),vel1,zoneval,tool_new\WObj:=Workobject_1;
MoveL RelTool (p1,10.000000,3.000000,4.920000,\Rx:=0.000000,\Ry:=-0.000000),vel1,zoneval,tool_new\WObj:=Workobject_1;
MoveL RelTool (p1,10.500000,3.000000,4.920000,\Rx:=0.000000,\Ry:=-0.000000),vel1,zoneval,tool_new\WObj:=Workobject_1;
MoveL RelTool (p1,10.500000,4.000000,4.920000,\Rx:=0.000000,\Ry:=-0.000000),vel1,zoneval,tool_new\WObj:=Workobject_1;
MoveL RelTool (p1,10.500000,5.000000,4.920000,\Rx:=0.000000,\Ry:=-0.000000),vel1,zoneval,tool_new\WObj:=Workobject_1;
MoveL RelTool (p1,10.500000,6.000000,4.920000,\Rx:=0.000000,\Ry:=-0.000000),vel1,zoneval,tool_new\WObj:=Workobject_1;
MoveL RelTool (p1,10.500000,7.000000,4.920000,\Rx:=0.000000,\Ry:=-0.000000),vel1,zoneval,tool_new\WObj:=Workobject_1;
MoveL RelTool (p1,10.500000,8.000000,4.920000,\Rx:=0.000000,\Ry:=-0.000000),vel1,zoneval,tool_new\WObj:=Workobject_1;
MoveL RelTool (p1,10.500000,9.000000,4.920000,\Rx:=0.000000,\Ry:=-0.000000),vel1,zoneval,tool_new\WObj:=Workobject_1;
MoveL RelTool (p1,10.500000,10.000000,4.920000,\Rx:=0.000000,\Ry:=-0.000000),vel1,zoneval,tool_new\WObj:=Workobject_1;
MoveL RelTool (p1,10.500000,11.000000,4.920000,\Rx:=0.000000,\Ry:=-0.000000),vel1,zoneval,tool_new\WObj:=Workobject_1;
MoveL RelTool (p1,10.500000,12.000000,4.920000,\Rx:=0.000000,\Ry:=-0.000000),vel1,zoneval,tool_new\WObj:=Workobject_1;
MoveL RelTool (p1,10.500000,13.000000,4.920000,\Rx:=0.000000,\Ry:=-0.000000),vel1,zoneval,tool_new\WObj:=Workobject_1;
MoveL RelTool (p1,10.500000,14.000000,4.920000,\Rx:=0.000000,\Ry:=-0.000000),vel1,zoneval,tool_new\WObj:=Workobject_1;
MoveL RelTool (p1,10.500000,15.000000,4.920000,\Rx:=0.000000,\Ry:=-0.000000),vel1,zoneval,tool_new\WObj:=Workobject_1;
MoveL RelTool (p1,10.500000,16.000000,4.920000,\Rx:=0.000000,\Ry:=-0.000000),vel1,zoneval,tool_new\WObj:=Workobject_1;
MoveL RelTool (p1,11.000000,16.000000,4.920000,\Rx:=0.000000,\Ry:=-0.000000),vel1,zoneval,tool_new\WObj:=Workobject_1;
MoveL RelTool (p1,11.000000,15.500000,4.920000,\Rx:=0.000000,\Ry:=-0.000000),vel1,zoneval,tool_new\WObj:=Workobject_1;
MoveL RelTool (p1,11.000000,14.500000,4.920000,\Rx:=0.000000,\Ry:=-0.000000),vel1,zoneval,tool_new\WObj:=Workobject_1;
MoveL RelTool (p1,11.000000,13.500000,4.920000,\Rx:=0.000000,\Ry:=-0.000000),vel1,zoneval,tool_new\WObj:=Workobject_1;
MoveL RelTool (p1,11.000000,12.500000,4.920000,\Rx:=0.000000,\Ry:=-0.000000),vel1,zoneval,tool_new\WObj:=Workobject_1;
MoveL RelTool (p1,11.000000,11.500000,4.920000,\Rx:=0.000000,\Ry:=-0.000000),vel1,zoneval,tool_new\WObj:=Workobject_1;
MoveL RelTool (p1,11.000000,10.500000,4.920000,\Rx:=0.000000,\Ry:=-0.000000),vel1,zoneval,tool_new\WObj:=Workobject_1;
MoveL RelTool (p1,11.000000,9.500000,4.920000,\Rx:=0.000000,\Ry:=-0.000000),vel1,zoneval,tool_new\WObj:=Workobject_1;
MoveL RelTool (p1,11.000000,8.500000,4.920000,\Rx:=0.000000,\Ry:=-0.000000),vel1,zoneval,tool_new\WObj:=Workobject_1;
MoveL RelTool (p1,11.000000,7.500000,4.920000,\Rx:=0.000000,\Ry:=-0.000000),vel1,zoneval,tool_new\WObj:=Workobject_1;
MoveL RelTool (p1,11.000000,6.500000,4.920000,\Rx:=0.000000,\Ry:=-0.000000),vel1,zoneval,tool_new\WObj:=Workobject_1;
MoveL RelTool (p1,11.000000,5.500000,4.920000,\Rx:=0.000000,\Ry:=-0.000000),vel1,zoneval,tool_new\WObj:=Workobject_1;
MoveL RelTool (p1,11.000000,4.500000,4.920000,\Rx:=0.000000,\Ry:=-0.000000),vel1,zoneval,tool_new\WObj:=Workobject_1;
MoveL RelTool (p1,11.000000,3.500000,4.920000,\Rx:=0.000000,\Ry:=-0.000000),vel1,zoneval,tool_new\WObj:=Workobject_1;
MoveL RelTool (p1,11.000000,3.000000,4.920000,\Rx:=0.000000,\Ry:=-0.000000),vel1,zoneval,tool_new\WObj:=Workobject_1;
MoveL RelTool (p1,11.500000,3.000000,4.920000,\Rx:=0.000000,\Ry:=-0.000000),vel1,zoneval,tool_new\WObj:=Workobject_1;
MoveL RelTool (p1,11.500000,4.000000,4.920000,\Rx:=0.000000,\Ry:=-0.000000),vel1,zoneval,tool_new\WObj:=Workobject_1;
MoveL RelTool (p1,11.500000,5.000000,4.920000,\Rx:=0.000000,\Ry:=-0.000000),vel1,zoneval,tool_new\WObj:=Workobject_1;
MoveL RelTool (p1,11.500000,6.000000,4.920000,\Rx:=0.000000,\Ry:=-0.000000),vel1,zoneval,tool_new\WObj:=Workobject_1;
MoveL RelTool (p1,11.500000,7.000000,4.920000,\Rx:=0.000000,\Ry:=-0.000000),vel1,zoneval,tool_new\WObj:=Workobject_1;
MoveL RelTool (p1,11.500000,8.000000,4.920000,\Rx:=0.000000,\Ry:=-0.000000),vel1,zoneval,tool_new\WObj:=Workobject_1;
MoveL RelTool (p1,11.500000,9.000000,4.920000,\Rx:=0.000000,\Ry:=-0.000000),vel1,zoneval,tool_new\WObj:=Workobject_1;
MoveL RelTool (p1,11.500000,10.000000,4.920000,\Rx:=0.000000,\Ry:=-0.000000),vel1,zoneval,tool_new\WObj:=Workobject_1;
MoveL RelTool (p1,11.500000,11.000000,4.920000,\Rx:=0.000000,\Ry:=-0.000000),vel1,zoneval,tool_new\WObj:=Workobject_1;
MoveL RelTool (p1,11.500000,12.000000,4.920000,\Rx:=0.000000,\Ry:=-0.000000),vel1,zoneval,tool_new\WObj:=Workobject_1;
MoveL RelTool (p1,11.500000,13.000000,4.920000,\Rx:=0.000000,\Ry:=-0.000000),vel1,zoneval,tool_new\WObj:=Workobject_1;
MoveL RelTool (p1,11.500000,14.000000,4.920000,\Rx:=0.000000,\Ry:=-0.000000),vel1,zoneval,tool_new\WObj:=Workobject_1;
MoveL RelTool (p1,11.500000,15.000000,4.920000,\Rx:=0.000000,\Ry:=-0.000000),vel1,zoneval,tool_new\WObj:=Workobject_1;
MoveL RelTool (p1,11.500000,16.000000,4.920000,\Rx:=0.000000,\Ry:=-0.000000),vel1,zoneval,tool_new\WObj:=Workobject_1;
MoveL RelTool (p1,12.000000,16.000000,4.920000,\Rx:=0.000000,\Ry:=-0.000000),vel1,zoneval,tool_new\WObj:=Workobject_1;
MoveL RelTool (p1,12.000000,15.500000,4.920000,\Rx:=0.000000,\Ry:=-0.000000),vel1,zoneval,tool_new\WObj:=Workobject_1;
MoveL RelTool (p1,12.000000,14.500000,4.920000,\Rx:=0.000000,\Ry:=-0.000000),vel1,zoneval,tool_new\WObj:=Workobject_1;
MoveL RelTool (p1,12.000000,13.500000,4.920000,\Rx:=0.000000,\Ry:=-0.000000),vel1,zoneval,tool_new\WObj:=Workobject_1;
MoveL RelTool (p1,12.000000,12.500000,4.920000,\Rx:=0.000000,\Ry:=-0.000000),vel1,zoneval,tool_new\WObj:=Workobject_1;
MoveL RelTool (p1,12.000000,11.500000,4.920000,\Rx:=0.000000,\Ry:=-0.000000),vel1,zoneval,tool_new\WObj:=Workobject_1;
MoveL RelTool (p1,12.000000,10.500000,4.920000,\Rx:=0.000000,\Ry:=-0.000000),vel1,zoneval,tool_new\WObj:=Workobject_1;
MoveL RelTool (p1,12.000000,9.500000,4.920000,\Rx:=0.000000,\Ry:=-0.000000),vel1,zoneval,tool_new\WObj:=Workobject_1;
MoveL RelTool (p1,12.000000,8.500000,4.920000,\Rx:=0.000000,\Ry:=-0.000000),vel1,zoneval,tool_new\WObj:=Workobject_1;
MoveL RelTool (p1,12.000000,7.500000,4.920000,\Rx:=0.000000,\Ry:=-0.000000),vel1,zoneval,tool_new\WObj:=Workobject_1;
MoveL RelTool (p1,12.000000,6.500000,4.920000,\Rx:=0.000000,\Ry:=-0.000000),vel1,zoneval,tool_new\WObj:=Workobject_1;
MoveL RelTool (p1,12.000000,5.500000,4.920000,\Rx:=0.000000,\Ry:=-0.000000),vel1,zoneval,tool_new\WObj:=Workobject_1;
MoveL RelTool (p1,12.000000,4.500000,4.920000,\Rx:=0.000000,\Ry:=-0.000000),vel1,zoneval,tool_new\WObj:=Workobject_1;
MoveL RelTool (p1,12.000000,3.500000,4.920000,\Rx:=0.000000,\Ry:=-0.000000),vel1,zoneval,tool_new\WObj:=Workobject_1;
MoveL RelTool (p1,12.000000,3.000000,4.920000,\Rx:=0.000000,\Ry:=-0.000000),vel1,zoneval,tool_new\WObj:=Workobject_1;
MoveL RelTool (p1,12.500000,3.000000,4.920000,\Rx:=0.000000,\Ry:=-0.000000),vel1,zoneval,tool_new\WObj:=Workobject_1;
MoveL RelTool (p1,12.500000,4.000000,4.920000,\Rx:=0.000000,\Ry:=-0.000000),vel1,zoneval,tool_new\WObj:=Workobject_1;
MoveL RelTool (p1,12.500000,5.000000,4.920000,\Rx:=0.000000,\Ry:=-0.000000),vel1,zoneval,tool_new\WObj:=Workobject_1;
MoveL RelTool (p1,12.500000,6.000000,4.920000,\Rx:=0.000000,\Ry:=-0.000000),vel1,zoneval,tool_new\WObj:=Workobject_1;
MoveL RelTool (p1,12.500000,7.000000,4.920000,\Rx:=0.000000,\Ry:=-0.000000),vel1,zoneval,tool_new\WObj:=Workobject_1;
MoveL RelTool (p1,12.500000,8.000000,4.920000,\Rx:=0.000000,\Ry:=-0.000000),vel1,zoneval,tool_new\WObj:=Workobject_1;
MoveL RelTool (p1,12.500000,9.000000,4.920000,\Rx:=0.000000,\Ry:=-0.000000),vel1,zoneval,tool_new\WObj:=Workobject_1;
MoveL RelTool (p1,12.500000,10.000000,4.920000,\Rx:=0.000000,\Ry:=-0.000000),vel1,zoneval,tool_new\WObj:=Workobject_1;
MoveL RelTool (p1,12.500000,11.000000,4.920000,\Rx:=0.000000,\Ry:=-0.000000),vel1,zoneval,tool_new\WObj:=Workobject_1;
MoveL RelTool (p1,12.500000,12.000000,4.920000,\Rx:=0.000000,\Ry:=-0.000000),vel1,zoneval,tool_new\WObj:=Workobject_1;
MoveL RelTool (p1,12.500000,13.000000,4.920000,\Rx:=0.000000,\Ry:=-0.000000),vel1,zoneval,tool_new\WObj:=Workobject_1;
MoveL RelTool (p1,12.500000,14.000000,4.920000,\Rx:=0.000000,\Ry:=-0.000000),vel1,zoneval,tool_new\WObj:=Workobject_1;
MoveL RelTool (p1,12.500000,15.000000,4.920000,\Rx:=0.000000,\Ry:=-0.000000),vel1,zoneval,tool_new\WObj:=Workobject_1;
MoveL RelTool (p1,12.500000,16.000000,4.920000,\Rx:=0.000000,\Ry:=-0.000000),vel1,zoneval,tool_new\WObj:=Workobject_1;
MoveL RelTool (p1,13.000000,16.000000,4.920000,\Rx:=0.000000,\Ry:=-0.000000),vel1,zoneval,tool_new\WObj:=Workobject_1;
MoveL RelTool (p1,13.000000,15.500000,4.920000,\Rx:=0.000000,\Ry:=-0.000000),vel1,zoneval,tool_new\WObj:=Workobject_1;
MoveL RelTool (p1,13.000000,14.500000,4.920000,\Rx:=0.000000,\Ry:=-0.000000),vel1,zoneval,tool_new\WObj:=Workobject_1;
MoveL RelTool (p1,13.000000,13.500000,4.920000,\Rx:=0.000000,\Ry:=-0.000000),vel1,zoneval,tool_new\WObj:=Workobject_1;
MoveL RelTool (p1,13.000000,12.500000,4.920000,\Rx:=0.000000,\Ry:=-0.000000),vel1,zoneval,tool_new\WObj:=Workobject_1;
MoveL RelTool (p1,13.000000,11.500000,4.920000,\Rx:=0.000000,\Ry:=-0.000000),vel1,zoneval,tool_new\WObj:=Workobject_1;
MoveL RelTool (p1,13.000000,10.500000,4.920000,\Rx:=0.000000,\Ry:=-0.000000),vel1,zoneval,tool_new\WObj:=Workobject_1;
MoveL RelTool (p1,13.000000,9.500000,4.920000,\Rx:=0.000000,\Ry:=-0.000000),vel1,zoneval,tool_new\WObj:=Workobject_1;
MoveL RelTool (p1,13.000000,8.500000,4.920000,\Rx:=0.000000,\Ry:=-0.000000),vel1,zoneval,tool_new\WObj:=Workobject_1;
MoveL RelTool (p1,13.000000,7.500000,4.920000,\Rx:=0.000000,\Ry:=-0.000000),vel1,zoneval,tool_new\WObj:=Workobject_1;
MoveL RelTool (p1,13.000000,6.500000,4.920000,\Rx:=0.000000,\Ry:=-0.000000),vel1,zoneval,tool_new\WObj:=Workobject_1;
MoveL RelTool (p1,13.000000,5.500000,4.920000,\Rx:=0.000000,\Ry:=-0.000000),vel1,zoneval,tool_new\WObj:=Workobject_1;
MoveL RelTool (p1,13.000000,4.500000,4.920000,\Rx:=0.000000,\Ry:=-0.000000),vel1,zoneval,tool_new\WObj:=Workobject_1;
MoveL RelTool (p1,13.000000,3.500000,4.920000,\Rx:=0.000000,\Ry:=-0.000000),vel1,zoneval,tool_new\WObj:=Workobject_1;
MoveL RelTool (p1,13.000000,3.000000,4.920000,\Rx:=0.000000,\Ry:=-0.000000),vel1,zoneval,tool_new\WObj:=Workobject_1;
MoveL RelTool (p1,13.500000,3.000000,4.920000,\Rx:=0.000000,\Ry:=-0.000000),vel1,zoneval,tool_new\WObj:=Workobject_1;
MoveL RelTool (p1,13.500000,4.000000,4.920000,\Rx:=0.000000,\Ry:=-0.000000),vel1,zoneval,tool_new\WObj:=Workobject_1;
MoveL RelTool (p1,13.500000,5.000000,4.920000,\Rx:=0.000000,\Ry:=-0.000000),vel1,zoneval,tool_new\WObj:=Workobject_1;
MoveL RelTool (p1,13.500000,6.000000,4.920000,\Rx:=0.000000,\Ry:=-0.000000),vel1,zoneval,tool_new\WObj:=Workobject_1;
MoveL RelTool (p1,13.500000,7.000000,4.920000,\Rx:=0.000000,\Ry:=-0.000000),vel1,zoneval,tool_new\WObj:=Workobject_1;
MoveL RelTool (p1,13.500000,8.000000,4.920000,\Rx:=0.000000,\Ry:=-0.000000),vel1,zoneval,tool_new\WObj:=Workobject_1;
MoveL RelTool (p1,13.500000,9.000000,4.920000,\Rx:=0.000000,\Ry:=-0.000000),vel1,zoneval,tool_new\WObj:=Workobject_1;
MoveL RelTool (p1,13.500000,10.000000,4.920000,\Rx:=0.000000,\Ry:=-0.000000),vel1,zoneval,tool_new\WObj:=Workobject_1;
MoveL RelTool (p1,13.500000,11.000000,4.920000,\Rx:=0.000000,\Ry:=-0.000000),vel1,zoneval,tool_new\WObj:=Workobject_1;
MoveL RelTool (p1,13.500000,12.000000,4.920000,\Rx:=0.000000,\Ry:=-0.000000),vel1,zoneval,tool_new\WObj:=Workobject_1;
MoveL RelTool (p1,13.500000,13.000000,4.920000,\Rx:=0.000000,\Ry:=-0.000000),vel1,zoneval,tool_new\WObj:=Workobject_1;
MoveL RelTool (p1,13.500000,14.000000,4.920000,\Rx:=0.000000,\Ry:=-0.000000),vel1,zoneval,tool_new\WObj:=Workobject_1;
MoveL RelTool (p1,13.500000,15.000000,4.920000,\Rx:=0.000000,\Ry:=-0.000000),vel1,zoneval,tool_new\WObj:=Workobject_1;
MoveL RelTool (p1,13.500000,16.000000,4.920000,\Rx:=0.000000,\Ry:=-0.000000),vel1,zoneval,tool_new\WObj:=Workobject_1;
MoveL RelTool (p1,14.000000,16.000000,4.920000,\Rx:=0.000000,\Ry:=-0.000000),vel1,zoneval,tool_new\WObj:=Workobject_1;
MoveL RelTool (p1,14.000000,15.500000,4.920000,\Rx:=0.000000,\Ry:=-0.000000),vel1,zoneval,tool_new\WObj:=Workobject_1;
MoveL RelTool (p1,14.000000,14.500000,4.920000,\Rx:=0.000000,\Ry:=-0.000000),vel1,zoneval,tool_new\WObj:=Workobject_1;
MoveL RelTool (p1,14.000000,13.500000,4.920000,\Rx:=0.000000,\Ry:=-0.000000),vel1,zoneval,tool_new\WObj:=Workobject_1;
MoveL RelTool (p1,14.000000,12.500000,4.920000,\Rx:=0.000000,\Ry:=-0.000000),vel1,zoneval,tool_new\WObj:=Workobject_1;
MoveL RelTool (p1,14.000000,11.500000,4.920000,\Rx:=0.000000,\Ry:=-0.000000),vel1,zoneval,tool_new\WObj:=Workobject_1;
MoveL RelTool (p1,14.000000,10.500000,4.920000,\Rx:=0.000000,\Ry:=-0.000000),vel1,zoneval,tool_new\WObj:=Workobject_1;
MoveL RelTool (p1,14.000000,9.500000,4.920000,\Rx:=0.000000,\Ry:=-0.000000),vel1,zoneval,tool_new\WObj:=Workobject_1;
MoveL RelTool (p1,14.000000,8.500000,4.920000,\Rx:=0.000000,\Ry:=-0.000000),vel1,zoneval,tool_new\WObj:=Workobject_1;
MoveL RelTool (p1,14.000000,7.500000,4.920000,\Rx:=0.000000,\Ry:=-0.000000),vel1,zoneval,tool_new\WObj:=Workobject_1;
MoveL RelTool (p1,14.000000,6.500000,4.920000,\Rx:=0.000000,\Ry:=-0.000000),vel1,zoneval,tool_new\WObj:=Workobject_1;
MoveL RelTool (p1,14.000000,5.500000,4.920000,\Rx:=0.000000,\Ry:=-0.000000),vel1,zoneval,tool_new\WObj:=Workobject_1;
MoveL RelTool (p1,14.000000,4.500000,4.920000,\Rx:=0.000000,\Ry:=-0.000000),vel1,zoneval,tool_new\WObj:=Workobject_1;
MoveL RelTool (p1,14.000000,3.500000,4.920000,\Rx:=0.000000,\Ry:=-0.000000),vel1,zoneval,tool_new\WObj:=Workobject_1;
MoveL RelTool (p1,14.000000,3.000000,4.920000,\Rx:=0.000000,\Ry:=-0.000000),vel1,zoneval,tool_new\WObj:=Workobject_1;
MoveL RelTool (p1,14.500000,3.000000,4.920000,\Rx:=0.000000,\Ry:=-0.000000),vel1,zoneval,tool_new\WObj:=Workobject_1;
MoveL RelTool (p1,14.500000,4.000000,4.920000,\Rx:=0.000000,\Ry:=-0.000000),vel1,zoneval,tool_new\WObj:=Workobject_1;
MoveL RelTool (p1,14.500000,5.000000,4.920000,\Rx:=0.000000,\Ry:=-0.000000),vel1,zoneval,tool_new\WObj:=Workobject_1;
MoveL RelTool (p1,14.500000,6.000000,4.920000,\Rx:=0.000000,\Ry:=-0.000000),vel1,zoneval,tool_new\WObj:=Workobject_1;
MoveL RelTool (p1,14.500000,7.000000,4.920000,\Rx:=0.000000,\Ry:=-0.000000),vel1,zoneval,tool_new\WObj:=Workobject_1;
MoveL RelTool (p1,14.500000,8.000000,4.920000,\Rx:=0.000000,\Ry:=-0.000000),vel1,zoneval,tool_new\WObj:=Workobject_1;
MoveL RelTool (p1,14.500000,9.000000,4.920000,\Rx:=0.000000,\Ry:=-0.000000),vel1,zoneval,tool_new\WObj:=Workobject_1;
MoveL RelTool (p1,14.500000,10.000000,4.920000,\Rx:=0.000000,\Ry:=-0.000000),vel1,zoneval,tool_new\WObj:=Workobject_1;
MoveL RelTool (p1,14.500000,11.000000,4.920000,\Rx:=0.000000,\Ry:=-0.000000),vel1,zoneval,tool_new\WObj:=Workobject_1;
MoveL RelTool (p1,14.500000,12.000000,4.920000,\Rx:=0.000000,\Ry:=-0.000000),vel1,zoneval,tool_new\WObj:=Workobject_1;
MoveL RelTool (p1,14.500000,13.000000,4.920000,\Rx:=0.000000,\Ry:=-0.000000),vel1,zoneval,tool_new\WObj:=Workobject_1;
MoveL RelTool (p1,14.500000,14.000000,4.920000,\Rx:=0.000000,\Ry:=-0.000000),vel1,zoneval,tool_new\WObj:=Workobject_1;
MoveL RelTool (p1,14.500000,15.000000,4.920000,\Rx:=0.000000,\Ry:=-0.000000),vel1,zoneval,tool_new\WObj:=Workobject_1;
MoveL RelTool (p1,14.500000,16.000000,4.920000,\Rx:=0.000000,\Ry:=-0.000000),vel1,zoneval,tool_new\WObj:=Workobject_1;
MoveL RelTool (p1,15.000000,16.000000,4.920000,\Rx:=0.000000,\Ry:=-0.000000),vel1,zoneval,tool_new\WObj:=Workobject_1;
MoveL RelTool (p1,15.000000,15.500000,4.920000,\Rx:=0.000000,\Ry:=-0.000000),vel1,zoneval,tool_new\WObj:=Workobject_1;
MoveL RelTool (p1,15.000000,14.500000,4.920000,\Rx:=0.000000,\Ry:=-0.000000),vel1,zoneval,tool_new\WObj:=Workobject_1;
MoveL RelTool (p1,15.000000,13.500000,4.920000,\Rx:=0.000000,\Ry:=-0.000000),vel1,zoneval,tool_new\WObj:=Workobject_1;
MoveL RelTool (p1,15.000000,12.500000,4.920000,\Rx:=0.000000,\Ry:=-0.000000),vel1,zoneval,tool_new\WObj:=Workobject_1;
MoveL RelTool (p1,15.000000,11.500000,4.920000,\Rx:=0.000000,\Ry:=-0.000000),vel1,zoneval,tool_new\WObj:=Workobject_1;
MoveL RelTool (p1,15.000000,10.500000,4.920000,\Rx:=0.000000,\Ry:=-0.000000),vel1,zoneval,tool_new\WObj:=Workobject_1;
MoveL RelTool (p1,15.000000,9.500000,4.920000,\Rx:=0.000000,\Ry:=-0.000000),vel1,zoneval,tool_new\WObj:=Workobject_1;
MoveL RelTool (p1,15.000000,8.500000,4.920000,\Rx:=0.000000,\Ry:=-0.000000),vel1,zoneval,tool_new\WObj:=Workobject_1;
MoveL RelTool (p1,15.000000,7.500000,4.920000,\Rx:=0.000000,\Ry:=-0.000000),vel1,zoneval,tool_new\WObj:=Workobject_1;
MoveL RelTool (p1,15.000000,6.500000,4.920000,\Rx:=0.000000,\Ry:=-0.000000),vel1,zoneval,tool_new\WObj:=Workobject_1;
MoveL RelTool (p1,15.000000,5.500000,4.920000,\Rx:=0.000000,\Ry:=-0.000000),vel1,zoneval,tool_new\WObj:=Workobject_1;
MoveL RelTool (p1,15.000000,4.500000,4.920000,\Rx:=0.000000,\Ry:=-0.000000),vel1,zoneval,tool_new\WObj:=Workobject_1;
MoveL RelTool (p1,15.000000,3.500000,4.920000,\Rx:=0.000000,\Ry:=-0.000000),vel1,zoneval,tool_new\WObj:=Workobject_1;
MoveL RelTool (p1,15.000000,3.000000,4.920000,\Rx:=0.000000,\Ry:=-0.000000),vel1,zoneval,tool_new\WObj:=Workobject_1;
MoveL RelTool (p1,15.500000,3.000000,4.920000,\Rx:=0.000000,\Ry:=-0.000000),vel1,zoneval,tool_new\WObj:=Workobject_1;
MoveL RelTool (p1,15.500000,4.000000,4.920000,\Rx:=0.000000,\Ry:=-0.000000),vel1,zoneval,tool_new\WObj:=Workobject_1;
MoveL RelTool (p1,15.500000,5.000000,4.920000,\Rx:=0.000000,\Ry:=-0.000000),vel1,zoneval,tool_new\WObj:=Workobject_1;
MoveL RelTool (p1,15.500000,6.000000,4.920000,\Rx:=0.000000,\Ry:=-0.000000),vel1,zoneval,tool_new\WObj:=Workobject_1;
MoveL RelTool (p1,15.500000,7.000000,4.920000,\Rx:=0.000000,\Ry:=-0.000000),vel1,zoneval,tool_new\WObj:=Workobject_1;
MoveL RelTool (p1,15.500000,8.000000,4.920000,\Rx:=0.000000,\Ry:=-0.000000),vel1,zoneval,tool_new\WObj:=Workobject_1;
MoveL RelTool (p1,15.500000,9.000000,4.920000,\Rx:=0.000000,\Ry:=-0.000000),vel1,zoneval,tool_new\WObj:=Workobject_1;
MoveL RelTool (p1,15.500000,10.000000,4.920000,\Rx:=0.000000,\Ry:=-0.000000),vel1,zoneval,tool_new\WObj:=Workobject_1;
MoveL RelTool (p1,15.500000,11.000000,4.920000,\Rx:=0.000000,\Ry:=-0.000000),vel1,zoneval,tool_new\WObj:=Workobject_1;
MoveL RelTool (p1,15.500000,12.000000,4.920000,\Rx:=0.000000,\Ry:=-0.000000),vel1,zoneval,tool_new\WObj:=Workobject_1;
MoveL RelTool (p1,15.500000,13.000000,4.920000,\Rx:=0.000000,\Ry:=-0.000000),vel1,zoneval,tool_new\WObj:=Workobject_1;
MoveL RelTool (p1,15.500000,14.000000,4.920000,\Rx:=0.000000,\Ry:=-0.000000),vel1,zoneval,tool_new\WObj:=Workobject_1;
MoveL RelTool (p1,15.500000,15.000000,4.920000,\Rx:=0.000000,\Ry:=-0.000000),vel1,zoneval,tool_new\WObj:=Workobject_1;
MoveL RelTool (p1,15.500000,16.000000,4.920000,\Rx:=0.000000,\Ry:=-0.000000),vel1,zoneval,tool_new\WObj:=Workobject_1;
MoveL RelTool (p1,16.000000,16.000000,4.920000,\Rx:=0.000000,\Ry:=-0.000000),vel1,zoneval,tool_new\WObj:=Workobject_1;
MoveL RelTool (p1,16.000000,15.500000,4.920000,\Rx:=0.000000,\Ry:=-0.000000),vel1,zoneval,tool_new\WObj:=Workobject_1;
MoveL RelTool (p1,16.000000,14.500000,4.920000,\Rx:=0.000000,\Ry:=-0.000000),vel1,zoneval,tool_new\WObj:=Workobject_1;
MoveL RelTool (p1,16.000000,13.500000,4.920000,\Rx:=0.000000,\Ry:=-0.000000),vel1,zoneval,tool_new\WObj:=Workobject_1;
MoveL RelTool (p1,16.000000,12.500000,4.920000,\Rx:=0.000000,\Ry:=-0.000000),vel1,zoneval,tool_new\WObj:=Workobject_1;
MoveL RelTool (p1,16.000000,11.500000,4.920000,\Rx:=0.000000,\Ry:=-0.000000),vel1,zoneval,tool_new\WObj:=Workobject_1;
MoveL RelTool (p1,16.000000,10.500000,4.920000,\Rx:=0.000000,\Ry:=-0.000000),vel1,zoneval,tool_new\WObj:=Workobject_1;
MoveL RelTool (p1,16.000000,9.500000,4.920000,\Rx:=0.000000,\Ry:=-0.000000),vel1,zoneval,tool_new\WObj:=Workobject_1;
MoveL RelTool (p1,16.000000,8.500000,4.920000,\Rx:=0.000000,\Ry:=-0.000000),vel1,zoneval,tool_new\WObj:=Workobject_1;
MoveL RelTool (p1,16.000000,7.500000,4.920000,\Rx:=0.000000,\Ry:=-0.000000),vel1,zoneval,tool_new\WObj:=Workobject_1;
MoveL RelTool (p1,16.000000,6.500000,4.920000,\Rx:=0.000000,\Ry:=-0.000000),vel1,zoneval,tool_new\WObj:=Workobject_1;
MoveL RelTool (p1,16.000000,5.500000,4.920000,\Rx:=0.000000,\Ry:=-0.000000),vel1,zoneval,tool_new\WObj:=Workobject_1;
MoveL RelTool (p1,16.000000,4.500000,4.920000,\Rx:=0.000000,\Ry:=-0.000000),vel1,zoneval,tool_new\WObj:=Workobject_1;
MoveL RelTool (p1,16.000000,3.500000,4.920000,\Rx:=0.000000,\Ry:=-0.000000),vel1,zoneval,tool_new\WObj:=Workobject_1;
MoveL RelTool (p1,16.000000,3.000000,4.920000,\Rx:=0.000000,\Ry:=-0.000000),vel1,zoneval,tool_new\WObj:=Workobject_1;
MoveL RelTool (p1,16.500000,3.000000,4.920000,\Rx:=0.000000,\Ry:=-0.000000),vel1,zoneval,tool_new\WObj:=Workobject_1;
MoveL RelTool (p1,16.500000,4.000000,4.920000,\Rx:=0.000000,\Ry:=-0.000000),vel1,zoneval,tool_new\WObj:=Workobject_1;
MoveL RelTool (p1,16.500000,5.000000,4.920000,\Rx:=0.000000,\Ry:=-0.000000),vel1,zoneval,tool_new\WObj:=Workobject_1;
MoveL RelTool (p1,16.500000,6.000000,4.920000,\Rx:=0.000000,\Ry:=-0.000000),vel1,zoneval,tool_new\WObj:=Workobject_1;
MoveL RelTool (p1,16.500000,7.000000,4.920000,\Rx:=0.000000,\Ry:=-0.000000),vel1,zoneval,tool_new\WObj:=Workobject_1;
MoveL RelTool (p1,16.500000,8.000000,4.920000,\Rx:=0.000000,\Ry:=-0.000000),vel1,zoneval,tool_new\WObj:=Workobject_1;
MoveL RelTool (p1,16.500000,9.000000,4.920000,\Rx:=0.000000,\Ry:=-0.000000),vel1,zoneval,tool_new\WObj:=Workobject_1;
MoveL RelTool (p1,16.500000,10.000000,4.920000,\Rx:=0.000000,\Ry:=-0.000000),vel1,zoneval,tool_new\WObj:=Workobject_1;
MoveL RelTool (p1,16.500000,11.000000,4.920000,\Rx:=0.000000,\Ry:=-0.000000),vel1,zoneval,tool_new\WObj:=Workobject_1;
MoveL RelTool (p1,16.500000,12.000000,4.920000,\Rx:=0.000000,\Ry:=-0.000000),vel1,zoneval,tool_new\WObj:=Workobject_1;
MoveL RelTool (p1,16.500000,13.000000,4.920000,\Rx:=0.000000,\Ry:=-0.000000),vel1,zoneval,tool_new\WObj:=Workobject_1;
MoveL RelTool (p1,16.500000,14.000000,4.920000,\Rx:=0.000000,\Ry:=-0.000000),vel1,zoneval,tool_new\WObj:=Workobject_1;
MoveL RelTool (p1,16.500000,15.000000,4.920000,\Rx:=0.000000,\Ry:=-0.000000),vel1,zoneval,tool_new\WObj:=Workobject_1;
MoveL RelTool (p1,16.500000,16.000000,4.920000,\Rx:=0.000000,\Ry:=-0.000000),vel1,zoneval,tool_new\WObj:=Workobject_1;
MoveL RelTool (p1,17.000000,16.000000,4.928911,\Rx:=0.000000,\Ry:=-4.622549),vel1,zoneval,tool_new\WObj:=Workobject_1;
MoveL RelTool (p1,17.000000,15.500000,4.928911,\Rx:=0.000000,\Ry:=-4.622549),vel1,zoneval,tool_new\WObj:=Workobject_1;
MoveL RelTool (p1,17.000000,14.500000,4.928911,\Rx:=0.000000,\Ry:=-4.622549),vel1,zoneval,tool_new\WObj:=Workobject_1;
MoveL RelTool (p1,17.000000,13.500000,4.928911,\Rx:=0.000000,\Ry:=-4.622549),vel1,zoneval,tool_new\WObj:=Workobject_1;
MoveL RelTool (p1,17.000000,12.500000,4.928911,\Rx:=0.000000,\Ry:=-4.622549),vel1,zoneval,tool_new\WObj:=Workobject_1;
MoveL RelTool (p1,17.000000,11.500000,4.928911,\Rx:=0.000000,\Ry:=-4.622549),vel1,zoneval,tool_new\WObj:=Workobject_1;
MoveL RelTool (p1,17.000000,10.500000,4.928911,\Rx:=0.000000,\Ry:=-4.622549),vel1,zoneval,tool_new\WObj:=Workobject_1;
MoveL RelTool (p1,17.000000,9.500000,4.928911,\Rx:=0.000000,\Ry:=-4.622549),vel1,zoneval,tool_new\WObj:=Workobject_1;
MoveL RelTool (p1,17.000000,8.500000,4.928911,\Rx:=0.000000,\Ry:=-4.622549),vel1,zoneval,tool_new\WObj:=Workobject_1;
MoveL RelTool (p1,17.000000,7.500000,4.928911,\Rx:=0.000000,\Ry:=-4.622549),vel1,zoneval,tool_new\WObj:=Workobject_1;
MoveL RelTool (p1,17.000000,6.500000,4.928911,\Rx:=0.000000,\Ry:=-4.622549),vel1,zoneval,tool_new\WObj:=Workobject_1;
MoveL RelTool (p1,17.000000,5.500000,4.928911,\Rx:=0.000000,\Ry:=-4.622549),vel1,zoneval,tool_new\WObj:=Workobject_1;
MoveL RelTool (p1,17.000000,4.500000,4.928911,\Rx:=0.000000,\Ry:=-4.622549),vel1,zoneval,tool_new\WObj:=Workobject_1;
MoveL RelTool (p1,17.000000,3.500000,4.928911,\Rx:=0.000000,\Ry:=-4.622549),vel1,zoneval,tool_new\WObj:=Workobject_1;
MoveL RelTool (p1,17.000000,3.000000,4.928911,\Rx:=0.000000,\Ry:=-4.622549),vel1,zoneval,tool_new\WObj:=Workobject_1;
MoveL RelTool (p1,17.500000,3.000000,4.969338,\Rx:=0.000000,\Ry:=-4.622549),vel1,zoneval,tool_new\WObj:=Workobject_1;
MoveL RelTool (p1,17.500000,4.000000,4.969338,\Rx:=0.000000,\Ry:=-4.622549),vel1,zoneval,tool_new\WObj:=Workobject_1;
MoveL RelTool (p1,17.500000,5.000000,4.969338,\Rx:=0.000000,\Ry:=-4.622549),vel1,zoneval,tool_new\WObj:=Workobject_1;
MoveL RelTool (p1,17.500000,6.000000,4.969338,\Rx:=0.000000,\Ry:=-4.622549),vel1,zoneval,tool_new\WObj:=Workobject_1;
MoveL RelTool (p1,17.500000,7.000000,4.969338,\Rx:=0.000000,\Ry:=-4.622549),vel1,zoneval,tool_new\WObj:=Workobject_1;
MoveL RelTool (p1,17.500000,8.000000,4.969338,\Rx:=0.000000,\Ry:=-4.622549),vel1,zoneval,tool_new\WObj:=Workobject_1;
MoveL RelTool (p1,17.500000,9.000000,4.969338,\Rx:=0.000000,\Ry:=-4.622549),vel1,zoneval,tool_new\WObj:=Workobject_1;
MoveL RelTool (p1,17.500000,10.000000,4.969338,\Rx:=0.000000,\Ry:=-4.622549),vel1,zoneval,tool_new\WObj:=Workobject_1;
MoveL RelTool (p1,17.500000,11.000000,4.969338,\Rx:=0.000000,\Ry:=-4.622549),vel1,zoneval,tool_new\WObj:=Workobject_1;
MoveL RelTool (p1,17.500000,12.000000,4.969338,\Rx:=0.000000,\Ry:=-4.622549),vel1,zoneval,tool_new\WObj:=Workobject_1;
MoveL RelTool (p1,17.500000,13.000000,4.969338,\Rx:=0.000000,\Ry:=-4.622549),vel1,zoneval,tool_new\WObj:=Workobject_1;
MoveL RelTool (p1,17.500000,14.000000,4.969338,\Rx:=0.000000,\Ry:=-4.622549),vel1,zoneval,tool_new\WObj:=Workobject_1;
MoveL RelTool (p1,17.500000,15.000000,4.969338,\Rx:=0.000000,\Ry:=-4.622549),vel1,zoneval,tool_new\WObj:=Workobject_1;
MoveL RelTool (p1,17.500000,16.000000,4.969338,\Rx:=0.000000,\Ry:=-4.622549),vel1,zoneval,tool_new\WObj:=Workobject_1;
MoveL RelTool (p1,18.000000,16.000000,5.034048,\Rx:=0.000000,\Ry:=-13.867608),vel1,zoneval,tool_new\WObj:=Workobject_1;
MoveL RelTool (p1,18.000000,15.500000,5.034048,\Rx:=0.000000,\Ry:=-13.867608),vel1,zoneval,tool_new\WObj:=Workobject_1;
MoveL RelTool (p1,18.000000,14.500000,5.034048,\Rx:=0.000000,\Ry:=-13.867608),vel1,zoneval,tool_new\WObj:=Workobject_1;
MoveL RelTool (p1,18.000000,13.500000,5.034048,\Rx:=0.000000,\Ry:=-13.867608),vel1,zoneval,tool_new\WObj:=Workobject_1;
MoveL RelTool (p1,18.000000,12.500000,5.034048,\Rx:=0.000000,\Ry:=-13.867608),vel1,zoneval,tool_new\WObj:=Workobject_1;
MoveL RelTool (p1,18.000000,11.500000,5.034048,\Rx:=0.000000,\Ry:=-13.867608),vel1,zoneval,tool_new\WObj:=Workobject_1;
MoveL RelTool (p1,18.000000,10.500000,5.034048,\Rx:=0.000000,\Ry:=-13.867608),vel1,zoneval,tool_new\WObj:=Workobject_1;
MoveL RelTool (p1,18.000000,9.500000,5.034048,\Rx:=0.000000,\Ry:=-13.867608),vel1,zoneval,tool_new\WObj:=Workobject_1;
MoveL RelTool (p1,18.000000,8.500000,5.034048,\Rx:=0.000000,\Ry:=-13.867608),vel1,zoneval,tool_new\WObj:=Workobject_1;
MoveL RelTool (p1,18.000000,7.500000,5.034048,\Rx:=0.000000,\Ry:=-13.867608),vel1,zoneval,tool_new\WObj:=Workobject_1;
MoveL RelTool (p1,18.000000,6.500000,5.034048,\Rx:=0.000000,\Ry:=-13.867608),vel1,zoneval,tool_new\WObj:=Workobject_1;
MoveL RelTool (p1,18.000000,5.500000,5.034048,\Rx:=0.000000,\Ry:=-13.867608),vel1,zoneval,tool_new\WObj:=Workobject_1;
MoveL RelTool (p1,18.000000,4.500000,5.034048,\Rx:=0.000000,\Ry:=-13.867608),vel1,zoneval,tool_new\WObj:=Workobject_1;
MoveL RelTool (p1,18.000000,3.500000,5.034048,\Rx:=0.000000,\Ry:=-13.867608),vel1,zoneval,tool_new\WObj:=Workobject_1;
MoveL RelTool (p1,18.000000,3.000000,5.034048,\Rx:=0.000000,\Ry:=-13.867608),vel1,zoneval,tool_new\WObj:=Workobject_1;
MoveL RelTool (p1,18.500000,3.000000,5.157485,\Rx:=0.000000,\Ry:=-13.867608),vel1,zoneval,tool_new\WObj:=Workobject_1;
MoveL RelTool (p1,18.500000,4.000000,5.157485,\Rx:=0.000000,\Ry:=-13.867608),vel1,zoneval,tool_new\WObj:=Workobject_1;
MoveL RelTool (p1,18.500000,5.000000,5.157485,\Rx:=0.000000,\Ry:=-13.867608),vel1,zoneval,tool_new\WObj:=Workobject_1;
MoveL RelTool (p1,18.500000,6.000000,5.157485,\Rx:=0.000000,\Ry:=-13.867608),vel1,zoneval,tool_new\WObj:=Workobject_1;
MoveL RelTool (p1,18.500000,7.000000,5.157485,\Rx:=0.000000,\Ry:=-13.867608),vel1,zoneval,tool_new\WObj:=Workobject_1;
MoveL RelTool (p1,18.500000,8.000000,5.157485,\Rx:=0.000000,\Ry:=-13.867608),vel1,zoneval,tool_new\WObj:=Workobject_1;
MoveL RelTool (p1,18.500000,9.000000,5.157485,\Rx:=0.000000,\Ry:=-13.867608),vel1,zoneval,tool_new\WObj:=Workobject_1;
MoveL RelTool (p1,18.500000,10.000000,5.157485,\Rx:=0.000000,\Ry:=-13.867608),vel1,zoneval,tool_new\WObj:=Workobject_1;
MoveL RelTool (p1,18.500000,11.000000,5.157485,\Rx:=0.000000,\Ry:=-13.867608),vel1,zoneval,tool_new\WObj:=Workobject_1;
MoveL RelTool (p1,18.500000,12.000000,5.157485,\Rx:=0.000000,\Ry:=-13.867608),vel1,zoneval,tool_new\WObj:=Workobject_1;
MoveL RelTool (p1,18.500000,13.000000,5.157485,\Rx:=0.000000,\Ry:=-13.867608),vel1,zoneval,tool_new\WObj:=Workobject_1;
MoveL RelTool (p1,18.500000,14.000000,5.157485,\Rx:=0.000000,\Ry:=-13.867608),vel1,zoneval,tool_new\WObj:=Workobject_1;
MoveL RelTool (p1,18.500000,15.000000,5.157485,\Rx:=0.000000,\Ry:=-13.867608),vel1,zoneval,tool_new\WObj:=Workobject_1;
MoveL RelTool (p1,18.500000,16.000000,5.157485,\Rx:=0.000000,\Ry:=-13.867608),vel1,zoneval,tool_new\WObj:=Workobject_1;
MoveL RelTool (p1,19.000000,16.000000,5.318232,\Rx:=0.000000,\Ry:=-23.112627),vel1,zoneval,tool_new\WObj:=Workobject_1;
MoveL RelTool (p1,19.000000,15.500000,5.318232,\Rx:=0.000000,\Ry:=-23.112627),vel1,zoneval,tool_new\WObj:=Workobject_1;
MoveL RelTool (p1,19.000000,14.500000,5.318232,\Rx:=0.000000,\Ry:=-23.112627),vel1,zoneval,tool_new\WObj:=Workobject_1;
MoveL RelTool (p1,19.000000,13.500000,5.318232,\Rx:=0.000000,\Ry:=-23.112627),vel1,zoneval,tool_new\WObj:=Workobject_1;
MoveL RelTool (p1,19.000000,12.500000,5.318232,\Rx:=0.000000,\Ry:=-23.112627),vel1,zoneval,tool_new\WObj:=Workobject_1;
MoveL RelTool (p1,19.000000,11.500000,5.318232,\Rx:=0.000000,\Ry:=-23.112627),vel1,zoneval,tool_new\WObj:=Workobject_1;
MoveL RelTool (p1,19.000000,10.500000,5.318232,\Rx:=0.000000,\Ry:=-23.112627),vel1,zoneval,tool_new\WObj:=Workobject_1;
MoveL RelTool (p1,19.000000,9.500000,5.318232,\Rx:=0.000000,\Ry:=-23.112627),vel1,zoneval,tool_new\WObj:=Workobject_1;
MoveL RelTool (p1,19.000000,8.500000,5.318232,\Rx:=0.000000,\Ry:=-23.112627),vel1,zoneval,tool_new\WObj:=Workobject_1;
MoveL RelTool (p1,19.000000,7.500000,5.318232,\Rx:=0.000000,\Ry:=-23.112627),vel1,zoneval,tool_new\WObj:=Workobject_1;
MoveL RelTool (p1,19.000000,6.500000,5.318232,\Rx:=0.000000,\Ry:=-23.112627),vel1,zoneval,tool_new\WObj:=Workobject_1;
MoveL RelTool (p1,19.000000,5.500000,5.318232,\Rx:=0.000000,\Ry:=-23.112627),vel1,zoneval,tool_new\WObj:=Workobject_1;
MoveL RelTool (p1,19.000000,4.500000,5.318232,\Rx:=0.000000,\Ry:=-23.112627),vel1,zoneval,tool_new\WObj:=Workobject_1;
MoveL RelTool (p1,19.000000,3.500000,5.318232,\Rx:=0.000000,\Ry:=-23.112627),vel1,zoneval,tool_new\WObj:=Workobject_1;
MoveL RelTool (p1,19.000000,3.000000,5.318232,\Rx:=0.000000,\Ry:=-23.112627),vel1,zoneval,tool_new\WObj:=Workobject_1;
MoveL RelTool (p1,19.500000,3.000000,5.531630,\Rx:=0.000000,\Ry:=-23.112627),vel1,zoneval,tool_new\WObj:=Workobject_1;
MoveL RelTool (p1,19.500000,4.000000,5.531630,\Rx:=0.000000,\Ry:=-23.112627),vel1,zoneval,tool_new\WObj:=Workobject_1;
MoveL RelTool (p1,19.500000,5.000000,5.531630,\Rx:=0.000000,\Ry:=-23.112627),vel1,zoneval,tool_new\WObj:=Workobject_1;
MoveL RelTool (p1,19.500000,6.000000,5.531630,\Rx:=0.000000,\Ry:=-23.112627),vel1,zoneval,tool_new\WObj:=Workobject_1;
MoveL RelTool (p1,19.500000,7.000000,5.531630,\Rx:=0.000000,\Ry:=-23.112627),vel1,zoneval,tool_new\WObj:=Workobject_1;
MoveL RelTool (p1,19.500000,8.000000,5.531630,\Rx:=0.000000,\Ry:=-23.112627),vel1,zoneval,tool_new\WObj:=Workobject_1;
MoveL RelTool (p1,19.500000,9.000000,5.531630,\Rx:=0.000000,\Ry:=-23.112627),vel1,zoneval,tool_new\WObj:=Workobject_1;
MoveL RelTool (p1,19.500000,10.000000,5.531630,\Rx:=0.000000,\Ry:=-23.112627),vel1,zoneval,tool_new\WObj:=Workobject_1;
MoveL RelTool (p1,19.500000,11.000000,5.531630,\Rx:=0.000000,\Ry:=-23.112627),vel1,zoneval,tool_new\WObj:=Workobject_1;
MoveL RelTool (p1,19.500000,12.000000,5.531630,\Rx:=0.000000,\Ry:=-23.112627),vel1,zoneval,tool_new\WObj:=Workobject_1;
MoveL RelTool (p1,19.500000,13.000000,5.531630,\Rx:=0.000000,\Ry:=-23.112627),vel1,zoneval,tool_new\WObj:=Workobject_1;
MoveL RelTool (p1,19.500000,14.000000,5.531630,\Rx:=0.000000,\Ry:=-23.112627),vel1,zoneval,tool_new\WObj:=Workobject_1;
MoveL RelTool (p1,19.500000,15.000000,5.531630,\Rx:=0.000000,\Ry:=-23.112627),vel1,zoneval,tool_new\WObj:=Workobject_1;
MoveL RelTool (p1,19.500000,16.000000,5.531630,\Rx:=0.000000,\Ry:=-23.112627),vel1,zoneval,tool_new\WObj:=Workobject_1;
MoveL RelTool (p1,20.000000,16.000000,5.810765,\Rx:=0.000000,\Ry:=-32.357747),vel1,zoneval,tool_new\WObj:=Workobject_1;
MoveL RelTool (p1,20.000000,15.500000,5.810765,\Rx:=0.000000,\Ry:=-32.357747),vel1,zoneval,tool_new\WObj:=Workobject_1;
MoveL RelTool (p1,20.000000,14.500000,5.810765,\Rx:=0.000000,\Ry:=-32.357747),vel1,zoneval,tool_new\WObj:=Workobject_1;
MoveL RelTool (p1,20.000000,13.500000,5.810765,\Rx:=0.000000,\Ry:=-32.357747),vel1,zoneval,tool_new\WObj:=Workobject_1;
MoveL RelTool (p1,20.000000,12.500000,5.810765,\Rx:=0.000000,\Ry:=-32.357747),vel1,zoneval,tool_new\WObj:=Workobject_1;
MoveL RelTool (p1,20.000000,11.500000,5.810765,\Rx:=0.000000,\Ry:=-32.357747),vel1,zoneval,tool_new\WObj:=Workobject_1;
MoveL RelTool (p1,20.000000,10.500000,5.810765,\Rx:=0.000000,\Ry:=-32.357747),vel1,zoneval,tool_new\WObj:=Workobject_1;
MoveL RelTool (p1,20.000000,9.500000,5.810765,\Rx:=0.000000,\Ry:=-32.357747),vel1,zoneval,tool_new\WObj:=Workobject_1;
MoveL RelTool (p1,20.000000,8.500000,5.810765,\Rx:=0.000000,\Ry:=-32.357747),vel1,zoneval,tool_new\WObj:=Workobject_1;
MoveL RelTool (p1,20.000000,7.500000,5.810765,\Rx:=0.000000,\Ry:=-32.357747),vel1,zoneval,tool_new\WObj:=Workobject_1;
MoveL RelTool (p1,20.000000,6.500000,5.810765,\Rx:=0.000000,\Ry:=-32.357747),vel1,zoneval,tool_new\WObj:=Workobject_1;
MoveL RelTool (p1,20.000000,5.500000,5.810765,\Rx:=0.000000,\Ry:=-32.357747),vel1,zoneval,tool_new\WObj:=Workobject_1;
MoveL RelTool (p1,20.000000,4.500000,5.810765,\Rx:=0.000000,\Ry:=-32.357747),vel1,zoneval,tool_new\WObj:=Workobject_1;
MoveL RelTool (p1,20.000000,3.500000,5.810765,\Rx:=0.000000,\Ry:=-32.357747),vel1,zoneval,tool_new\WObj:=Workobject_1;
MoveL RelTool (p1,20.000000,3.000000,5.810765,\Rx:=0.000000,\Ry:=-32.357747),vel1,zoneval,tool_new\WObj:=Workobject_1;
MoveL RelTool (p1,20.500000,3.000000,6.127804,\Rx:=0.000000,\Ry:=-41.602796),vel1,zoneval,tool_new\WObj:=Workobject_1;
MoveL RelTool (p1,20.500000,4.000000,6.127804,\Rx:=0.000000,\Ry:=-41.602796),vel1,zoneval,tool_new\WObj:=Workobject_1;
MoveL RelTool (p1,20.500000,5.000000,6.127804,\Rx:=0.000000,\Ry:=-41.602796),vel1,zoneval,tool_new\WObj:=Workobject_1;
MoveL RelTool (p1,20.500000,6.000000,6.127804,\Rx:=0.000000,\Ry:=-41.602796),vel1,zoneval,tool_new\WObj:=Workobject_1;
MoveL RelTool (p1,20.500000,7.000000,6.127804,\Rx:=0.000000,\Ry:=-41.602796),vel1,zoneval,tool_new\WObj:=Workobject_1;
MoveL RelTool (p1,20.500000,8.000000,6.127804,\Rx:=0.000000,\Ry:=-41.602796),vel1,zoneval,tool_new\WObj:=Workobject_1;
MoveL RelTool (p1,20.500000,9.000000,6.127804,\Rx:=0.000000,\Ry:=-41.602796),vel1,zoneval,tool_new\WObj:=Workobject_1;
MoveL RelTool (p1,20.500000,10.000000,6.127804,\Rx:=0.000000,\Ry:=-41.602796),vel1,zoneval,tool_new\WObj:=Workobject_1;
MoveL RelTool (p1,20.500000,11.000000,6.127804,\Rx:=0.000000,\Ry:=-41.602796),vel1,zoneval,tool_new\WObj:=Workobject_1;
MoveL RelTool (p1,20.500000,12.000000,6.127804,\Rx:=0.000000,\Ry:=-41.602796),vel1,zoneval,tool_new\WObj:=Workobject_1;
MoveL RelTool (p1,20.500000,13.000000,6.127804,\Rx:=0.000000,\Ry:=-41.602796),vel1,zoneval,tool_new\WObj:=Workobject_1;
MoveL RelTool (p1,20.500000,14.000000,6.127804,\Rx:=0.000000,\Ry:=-41.602796),vel1,zoneval,tool_new\WObj:=Workobject_1;
MoveL RelTool (p1,20.500000,15.000000,6.127804,\Rx:=0.000000,\Ry:=-41.602796),vel1,zoneval,tool_new\WObj:=Workobject_1;
MoveL RelTool (p1,20.500000,16.000000,6.127804,\Rx:=0.000000,\Ry:=-41.602796),vel1,zoneval,tool_new\WObj:=Workobject_1;
MoveL RelTool (p1,21.000000,16.000000,6.571768,\Rx:=0.000000,\Ry:=-41.602796),vel1,zoneval,tool_new\WObj:=Workobject_1;
MoveL RelTool (p1,21.000000,15.500000,6.571768,\Rx:=0.000000,\Ry:=-41.602796),vel1,zoneval,tool_new\WObj:=Workobject_1;
MoveL RelTool (p1,21.000000,14.500000,6.571768,\Rx:=0.000000,\Ry:=-41.602796),vel1,zoneval,tool_new\WObj:=Workobject_1;
MoveL RelTool (p1,21.000000,13.500000,6.571768,\Rx:=0.000000,\Ry:=-41.602796),vel1,zoneval,tool_new\WObj:=Workobject_1;
MoveL RelTool (p1,21.000000,12.500000,6.571768,\Rx:=0.000000,\Ry:=-41.602796),vel1,zoneval,tool_new\WObj:=Workobject_1;
MoveL RelTool (p1,21.000000,11.500000,6.571768,\Rx:=0.000000,\Ry:=-41.602796),vel1,zoneval,tool_new\WObj:=Workobject_1;
MoveL RelTool (p1,21.000000,10.500000,6.571768,\Rx:=0.000000,\Ry:=-41.602796),vel1,zoneval,tool_new\WObj:=Workobject_1;
MoveL RelTool (p1,21.000000,9.500000,6.571768,\Rx:=0.000000,\Ry:=-41.602796),vel1,zoneval,tool_new\WObj:=Workobject_1;
MoveL RelTool (p1,21.000000,8.500000,6.571768,\Rx:=0.000000,\Ry:=-41.602796),vel1,zoneval,tool_new\WObj:=Workobject_1;
MoveL RelTool (p1,21.000000,7.500000,6.571768,\Rx:=0.000000,\Ry:=-41.602796),vel1,zoneval,tool_new\WObj:=Workobject_1;
MoveL RelTool (p1,21.000000,6.500000,6.571768,\Rx:=0.000000,\Ry:=-41.602796),vel1,zoneval,tool_new\WObj:=Workobject_1;
MoveL RelTool (p1,21.000000,5.500000,6.571768,\Rx:=0.000000,\Ry:=-41.602796),vel1,zoneval,tool_new\WObj:=Workobject_1;
MoveL RelTool (p1,21.000000,4.500000,6.571768,\Rx:=0.000000,\Ry:=-41.602796),vel1,zoneval,tool_new\WObj:=Workobject_1;
MoveL RelTool (p1,21.000000,3.500000,6.571768,\Rx:=0.000000,\Ry:=-41.602796),vel1,zoneval,tool_new\WObj:=Workobject_1;
MoveL RelTool (p1,21.000000,3.000000,6.571768,\Rx:=0.000000,\Ry:=-41.602796),vel1,zoneval,tool_new\WObj:=Workobject_1;
MoveL RelTool (p1,21.500000,3.000000,7.110268,\Rx:=0.000000,\Ry:=-50.847879),vel1,zoneval,tool_new\WObj:=Workobject_1;
MoveL RelTool (p1,21.500000,4.000000,7.110268,\Rx:=0.000000,\Ry:=-50.847879),vel1,zoneval,tool_new\WObj:=Workobject_1;
MoveL RelTool (p1,21.500000,5.000000,7.110268,\Rx:=0.000000,\Ry:=-50.847879),vel1,zoneval,tool_new\WObj:=Workobject_1;
MoveL RelTool (p1,21.500000,6.000000,7.110268,\Rx:=0.000000,\Ry:=-50.847879),vel1,zoneval,tool_new\WObj:=Workobject_1;
MoveL RelTool (p1,21.500000,7.000000,7.110268,\Rx:=0.000000,\Ry:=-50.847879),vel1,zoneval,tool_new\WObj:=Workobject_1;
MoveL RelTool (p1,21.500000,8.000000,7.110268,\Rx:=0.000000,\Ry:=-50.847879),vel1,zoneval,tool_new\WObj:=Workobject_1;
MoveL RelTool (p1,21.500000,9.000000,7.110268,\Rx:=0.000000,\Ry:=-50.847879),vel1,zoneval,tool_new\WObj:=Workobject_1;
MoveL RelTool (p1,21.500000,10.000000,7.110268,\Rx:=0.000000,\Ry:=-50.847879),vel1,zoneval,tool_new\WObj:=Workobject_1;
MoveL RelTool (p1,21.500000,11.000000,7.110268,\Rx:=0.000000,\Ry:=-50.847879),vel1,zoneval,tool_new\WObj:=Workobject_1;
MoveL RelTool (p1,21.500000,12.000000,7.110268,\Rx:=0.000000,\Ry:=-50.847879),vel1,zoneval,tool_new\WObj:=Workobject_1;
MoveL RelTool (p1,21.500000,13.000000,7.110268,\Rx:=0.000000,\Ry:=-50.847879),vel1,zoneval,tool_new\WObj:=Workobject_1;
MoveL RelTool (p1,21.500000,14.000000,7.110268,\Rx:=0.000000,\Ry:=-50.847879),vel1,zoneval,tool_new\WObj:=Workobject_1;
MoveL RelTool (p1,21.500000,15.000000,7.110268,\Rx:=0.000000,\Ry:=-50.847879),vel1,zoneval,tool_new\WObj:=Workobject_1;
MoveL RelTool (p1,21.500000,16.000000,7.110268,\Rx:=0.000000,\Ry:=-50.847879),vel1,zoneval,tool_new\WObj:=Workobject_1;
MoveL RelTool (p1,22.000000,16.000000,7.723923,\Rx:=0.000000,\Ry:=-50.785914),vel1,zoneval,tool_new\WObj:=Workobject_1;
MoveL RelTool (p1,22.000000,15.500000,7.723923,\Rx:=0.000000,\Ry:=-50.785914),vel1,zoneval,tool_new\WObj:=Workobject_1;
MoveL RelTool (p1,22.000000,14.500000,7.723923,\Rx:=0.000000,\Ry:=-50.785914),vel1,zoneval,tool_new\WObj:=Workobject_1;
MoveL RelTool (p1,22.000000,13.500000,7.723923,\Rx:=0.000000,\Ry:=-50.785914),vel1,zoneval,tool_new\WObj:=Workobject_1;
MoveL RelTool (p1,22.000000,12.500000,7.723923,\Rx:=0.000000,\Ry:=-50.785914),vel1,zoneval,tool_new\WObj:=Workobject_1;
MoveL RelTool (p1,22.000000,11.500000,7.723923,\Rx:=0.000000,\Ry:=-50.785914),vel1,zoneval,tool_new\WObj:=Workobject_1;
MoveL RelTool (p1,22.000000,10.500000,7.723923,\Rx:=0.000000,\Ry:=-50.785914),vel1,zoneval,tool_new\WObj:=Workobject_1;
MoveL RelTool (p1,22.000000,9.500000,7.723923,\Rx:=0.000000,\Ry:=-50.785914),vel1,zoneval,tool_new\WObj:=Workobject_1;
MoveL RelTool (p1,22.000000,8.500000,7.723923,\Rx:=0.000000,\Ry:=-50.785914),vel1,zoneval,tool_new\WObj:=Workobject_1;
MoveL RelTool (p1,22.000000,7.500000,7.723923,\Rx:=0.000000,\Ry:=-50.785914),vel1,zoneval,tool_new\WObj:=Workobject_1;
MoveL RelTool (p1,22.000000,6.500000,7.723923,\Rx:=0.000000,\Ry:=-50.785914),vel1,zoneval,tool_new\WObj:=Workobject_1;
MoveL RelTool (p1,22.000000,5.500000,7.723923,\Rx:=0.000000,\Ry:=-50.785914),vel1,zoneval,tool_new\WObj:=Workobject_1;
MoveL RelTool (p1,22.000000,4.500000,7.723923,\Rx:=0.000000,\Ry:=-50.785914),vel1,zoneval,tool_new\WObj:=Workobject_1;
MoveL RelTool (p1,22.000000,3.500000,7.723923,\Rx:=0.000000,\Ry:=-50.785914),vel1,zoneval,tool_new\WObj:=Workobject_1;
MoveL RelTool (p1,22.000000,3.000000,7.723923,\Rx:=0.000000,\Ry:=-50.785914),vel1,zoneval,tool_new\WObj:=Workobject_1;
MoveL RelTool (p1,22.500000,3.000000,8.336676,\Rx:=0.000000,\Ry:=-50.785914),vel1,zoneval,tool_new\WObj:=Workobject_1;
MoveL RelTool (p1,22.500000,4.000000,8.336676,\Rx:=0.000000,\Ry:=-50.785914),vel1,zoneval,tool_new\WObj:=Workobject_1;
MoveL RelTool (p1,22.500000,5.000000,8.336676,\Rx:=0.000000,\Ry:=-50.785914),vel1,zoneval,tool_new\WObj:=Workobject_1;
MoveL RelTool (p1,22.500000,6.000000,8.336676,\Rx:=0.000000,\Ry:=-50.785914),vel1,zoneval,tool_new\WObj:=Workobject_1;
MoveL RelTool (p1,22.500000,7.000000,8.336676,\Rx:=0.000000,\Ry:=-50.785914),vel1,zoneval,tool_new\WObj:=Workobject_1;
MoveL RelTool (p1,22.500000,8.000000,8.336676,\Rx:=0.000000,\Ry:=-50.785914),vel1,zoneval,tool_new\WObj:=Workobject_1;
MoveL RelTool (p1,22.500000,9.000000,8.336676,\Rx:=0.000000,\Ry:=-50.785914),vel1,zoneval,tool_new\WObj:=Workobject_1;
MoveL RelTool (p1,22.500000,10.000000,8.336676,\Rx:=0.000000,\Ry:=-50.785914),vel1,zoneval,tool_new\WObj:=Workobject_1;
MoveL RelTool (p1,22.500000,11.000000,8.336676,\Rx:=0.000000,\Ry:=-50.785914),vel1,zoneval,tool_new\WObj:=Workobject_1;
MoveL RelTool (p1,22.500000,12.000000,8.336676,\Rx:=0.000000,\Ry:=-50.785914),vel1,zoneval,tool_new\WObj:=Workobject_1;
MoveL RelTool (p1,22.500000,13.000000,8.336676,\Rx:=0.000000,\Ry:=-50.785914),vel1,zoneval,tool_new\WObj:=Workobject_1;
MoveL RelTool (p1,22.500000,14.000000,8.336676,\Rx:=0.000000,\Ry:=-50.785914),vel1,zoneval,tool_new\WObj:=Workobject_1;
MoveL RelTool (p1,22.500000,15.000000,8.336676,\Rx:=0.000000,\Ry:=-50.785914),vel1,zoneval,tool_new\WObj:=Workobject_1;
MoveL RelTool (p1,22.500000,16.000000,8.336676,\Rx:=0.000000,\Ry:=-50.785914),vel1,zoneval,tool_new\WObj:=Workobject_1;
MoveL RelTool (p1,23.000000,16.000000,8.842764,\Rx:=0.000000,\Ry:=-42.707263),vel1,zoneval,tool_new\WObj:=Workobject_1;
MoveL RelTool (p1,23.000000,15.500000,8.842764,\Rx:=0.000000,\Ry:=-42.707263),vel1,zoneval,tool_new\WObj:=Workobject_1;
MoveL RelTool (p1,23.000000,14.500000,8.842764,\Rx:=0.000000,\Ry:=-42.707263),vel1,zoneval,tool_new\WObj:=Workobject_1;
MoveL RelTool (p1,23.000000,13.500000,8.842764,\Rx:=0.000000,\Ry:=-42.707263),vel1,zoneval,tool_new\WObj:=Workobject_1;
MoveL RelTool (p1,23.000000,12.500000,8.842764,\Rx:=0.000000,\Ry:=-42.707263),vel1,zoneval,tool_new\WObj:=Workobject_1;
MoveL RelTool (p1,23.000000,11.500000,8.842764,\Rx:=0.000000,\Ry:=-42.707263),vel1,zoneval,tool_new\WObj:=Workobject_1;
MoveL RelTool (p1,23.000000,10.500000,8.842764,\Rx:=0.000000,\Ry:=-42.707263),vel1,zoneval,tool_new\WObj:=Workobject_1;
MoveL RelTool (p1,23.000000,9.500000,8.842764,\Rx:=0.000000,\Ry:=-42.707263),vel1,zoneval,tool_new\WObj:=Workobject_1;
MoveL RelTool (p1,23.000000,8.500000,8.842764,\Rx:=0.000000,\Ry:=-42.707263),vel1,zoneval,tool_new\WObj:=Workobject_1;
MoveL RelTool (p1,23.000000,7.500000,8.842764,\Rx:=0.000000,\Ry:=-42.707263),vel1,zoneval,tool_new\WObj:=Workobject_1;
MoveL RelTool (p1,23.000000,6.500000,8.842764,\Rx:=0.000000,\Ry:=-42.707263),vel1,zoneval,tool_new\WObj:=Workobject_1;
MoveL RelTool (p1,23.000000,5.500000,8.842764,\Rx:=0.000000,\Ry:=-42.707263),vel1,zoneval,tool_new\WObj:=Workobject_1;
MoveL RelTool (p1,23.000000,4.500000,8.842764,\Rx:=0.000000,\Ry:=-42.707263),vel1,zoneval,tool_new\WObj:=Workobject_1;
MoveL RelTool (p1,23.000000,3.500000,8.842764,\Rx:=0.000000,\Ry:=-42.707263),vel1,zoneval,tool_new\WObj:=Workobject_1;
MoveL RelTool (p1,23.000000,3.000000,8.842764,\Rx:=0.000000,\Ry:=-42.707263),vel1,zoneval,tool_new\WObj:=Workobject_1;
MoveL RelTool (p1,23.500000,3.000000,9.304268,\Rx:=0.000000,\Ry:=-42.707263),vel1,zoneval,tool_new\WObj:=Workobject_1;
MoveL RelTool (p1,23.500000,4.000000,9.304268,\Rx:=0.000000,\Ry:=-42.707263),vel1,zoneval,tool_new\WObj:=Workobject_1;
MoveL RelTool (p1,23.500000,5.000000,9.304268,\Rx:=0.000000,\Ry:=-42.707263),vel1,zoneval,tool_new\WObj:=Workobject_1;
MoveL RelTool (p1,23.500000,6.000000,9.304268,\Rx:=0.000000,\Ry:=-42.707263),vel1,zoneval,tool_new\WObj:=Workobject_1;
MoveL RelTool (p1,23.500000,7.000000,9.304268,\Rx:=0.000000,\Ry:=-42.707263),vel1,zoneval,tool_new\WObj:=Workobject_1;
MoveL RelTool (p1,23.500000,8.000000,9.304268,\Rx:=0.000000,\Ry:=-42.707263),vel1,zoneval,tool_new\WObj:=Workobject_1;
MoveL RelTool (p1,23.500000,9.000000,9.304268,\Rx:=0.000000,\Ry:=-42.707263),vel1,zoneval,tool_new\WObj:=Workobject_1;
MoveL RelTool (p1,23.500000,10.000000,9.304268,\Rx:=0.000000,\Ry:=-42.707263),vel1,zoneval,tool_new\WObj:=Workobject_1;
MoveL RelTool (p1,23.500000,11.000000,9.304268,\Rx:=0.000000,\Ry:=-42.707263),vel1,zoneval,tool_new\WObj:=Workobject_1;
MoveL RelTool (p1,23.500000,12.000000,9.304268,\Rx:=0.000000,\Ry:=-42.707263),vel1,zoneval,tool_new\WObj:=Workobject_1;
MoveL RelTool (p1,23.500000,13.000000,9.304268,\Rx:=0.000000,\Ry:=-42.707263),vel1,zoneval,tool_new\WObj:=Workobject_1;
MoveL RelTool (p1,23.500000,14.000000,9.304268,\Rx:=0.000000,\Ry:=-42.707263),vel1,zoneval,tool_new\WObj:=Workobject_1;
MoveL RelTool (p1,23.500000,15.000000,9.304268,\Rx:=0.000000,\Ry:=-42.707263),vel1,zoneval,tool_new\WObj:=Workobject_1;
MoveL RelTool (p1,23.500000,16.000000,9.304268,\Rx:=0.000000,\Ry:=-42.707263),vel1,zoneval,tool_new\WObj:=Workobject_1;
MoveL RelTool (p1,24.000000,16.000000,9.717600,\Rx:=0.000000,\Ry:=-35.724990),vel1,zoneval,tool_new\WObj:=Workobject_1;
MoveL RelTool (p1,24.000000,15.500000,9.717600,\Rx:=0.000000,\Ry:=-35.724990),vel1,zoneval,tool_new\WObj:=Workobject_1;
MoveL RelTool (p1,24.000000,14.500000,9.717600,\Rx:=0.000000,\Ry:=-35.724990),vel1,zoneval,tool_new\WObj:=Workobject_1;
MoveL RelTool (p1,24.000000,13.500000,9.717600,\Rx:=0.000000,\Ry:=-35.724990),vel1,zoneval,tool_new\WObj:=Workobject_1;
MoveL RelTool (p1,24.000000,12.500000,9.717600,\Rx:=0.000000,\Ry:=-35.724990),vel1,zoneval,tool_new\WObj:=Workobject_1;
MoveL RelTool (p1,24.000000,11.500000,9.717600,\Rx:=0.000000,\Ry:=-35.724990),vel1,zoneval,tool_new\WObj:=Workobject_1;
MoveL RelTool (p1,24.000000,10.500000,9.717600,\Rx:=0.000000,\Ry:=-35.724990),vel1,zoneval,tool_new\WObj:=Workobject_1;
MoveL RelTool (p1,24.000000,9.500000,9.717600,\Rx:=0.000000,\Ry:=-35.724990),vel1,zoneval,tool_new\WObj:=Workobject_1;
MoveL RelTool (p1,24.000000,8.500000,9.717600,\Rx:=0.000000,\Ry:=-35.724990),vel1,zoneval,tool_new\WObj:=Workobject_1;
MoveL RelTool (p1,24.000000,7.500000,9.717600,\Rx:=0.000000,\Ry:=-35.724990),vel1,zoneval,tool_new\WObj:=Workobject_1;
MoveL RelTool (p1,24.000000,6.500000,9.717600,\Rx:=0.000000,\Ry:=-35.724990),vel1,zoneval,tool_new\WObj:=Workobject_1;
MoveL RelTool (p1,24.000000,5.500000,9.717600,\Rx:=0.000000,\Ry:=-35.724990),vel1,zoneval,tool_new\WObj:=Workobject_1;
MoveL RelTool (p1,24.000000,4.500000,9.717600,\Rx:=0.000000,\Ry:=-35.724990),vel1,zoneval,tool_new\WObj:=Workobject_1;
MoveL RelTool (p1,24.000000,3.500000,9.717600,\Rx:=0.000000,\Ry:=-35.724990),vel1,zoneval,tool_new\WObj:=Workobject_1;
MoveL RelTool (p1,24.000000,3.000000,9.717600,\Rx:=0.000000,\Ry:=-35.724990),vel1,zoneval,tool_new\WObj:=Workobject_1;
MoveL RelTool (p1,24.500000,3.000000,10.077217,\Rx:=0.000000,\Ry:=-35.724990),vel1,zoneval,tool_new\WObj:=Workobject_1;
MoveL RelTool (p1,24.500000,4.000000,10.077217,\Rx:=0.000000,\Ry:=-35.724990),vel1,zoneval,tool_new\WObj:=Workobject_1;
MoveL RelTool (p1,24.500000,5.000000,10.077217,\Rx:=0.000000,\Ry:=-35.724990),vel1,zoneval,tool_new\WObj:=Workobject_1;
MoveL RelTool (p1,24.500000,6.000000,10.077217,\Rx:=0.000000,\Ry:=-35.724990),vel1,zoneval,tool_new\WObj:=Workobject_1;
MoveL RelTool (p1,24.500000,7.000000,10.077217,\Rx:=0.000000,\Ry:=-35.724990),vel1,zoneval,tool_new\WObj:=Workobject_1;
MoveL RelTool (p1,24.500000,8.000000,10.077217,\Rx:=0.000000,\Ry:=-35.724990),vel1,zoneval,tool_new\WObj:=Workobject_1;
MoveL RelTool (p1,24.500000,9.000000,10.077217,\Rx:=0.000000,\Ry:=-35.724990),vel1,zoneval,tool_new\WObj:=Workobject_1;
MoveL RelTool (p1,24.500000,10.000000,10.077217,\Rx:=0.000000,\Ry:=-35.724990),vel1,zoneval,tool_new\WObj:=Workobject_1;
MoveL RelTool (p1,24.500000,11.000000,10.077217,\Rx:=0.000000,\Ry:=-35.724990),vel1,zoneval,tool_new\WObj:=Workobject_1;
MoveL RelTool (p1,24.500000,12.000000,10.077217,\Rx:=0.000000,\Ry:=-35.724990),vel1,zoneval,tool_new\WObj:=Workobject_1;
MoveL RelTool (p1,24.500000,13.000000,10.077217,\Rx:=0.000000,\Ry:=-35.724990),vel1,zoneval,tool_new\WObj:=Workobject_1;
MoveL RelTool (p1,24.500000,14.000000,10.077217,\Rx:=0.000000,\Ry:=-35.724990),vel1,zoneval,tool_new\WObj:=Workobject_1;
MoveL RelTool (p1,24.500000,15.000000,10.077217,\Rx:=0.000000,\Ry:=-35.724990),vel1,zoneval,tool_new\WObj:=Workobject_1;
MoveL RelTool (p1,24.500000,16.000000,10.077217,\Rx:=0.000000,\Ry:=-35.724990),vel1,zoneval,tool_new\WObj:=Workobject_1;
MoveL RelTool (p1,25.000000,16.000000,10.436835,\Rx:=0.000000,\Ry:=-35.724990),vel1,zoneval,tool_new\WObj:=Workobject_1;
MoveL RelTool (p1,25.000000,15.500000,10.436835,\Rx:=0.000000,\Ry:=-35.724990),vel1,zoneval,tool_new\WObj:=Workobject_1;
MoveL RelTool (p1,25.000000,14.500000,10.436835,\Rx:=0.000000,\Ry:=-35.724990),vel1,zoneval,tool_new\WObj:=Workobject_1;
MoveL RelTool (p1,25.000000,13.500000,10.436835,\Rx:=0.000000,\Ry:=-35.724990),vel1,zoneval,tool_new\WObj:=Workobject_1;
MoveL RelTool (p1,25.000000,12.500000,10.436835,\Rx:=0.000000,\Ry:=-35.724990),vel1,zoneval,tool_new\WObj:=Workobject_1;
MoveL RelTool (p1,25.000000,11.500000,10.436835,\Rx:=0.000000,\Ry:=-35.724990),vel1,zoneval,tool_new\WObj:=Workobject_1;
MoveL RelTool (p1,25.000000,10.500000,10.436835,\Rx:=0.000000,\Ry:=-35.724990),vel1,zoneval,tool_new\WObj:=Workobject_1;
MoveL RelTool (p1,25.000000,9.500000,10.436835,\Rx:=0.000000,\Ry:=-35.724990),vel1,zoneval,tool_new\WObj:=Workobject_1;
MoveL RelTool (p1,25.000000,8.500000,10.436835,\Rx:=0.000000,\Ry:=-35.724990),vel1,zoneval,tool_new\WObj:=Workobject_1;
MoveL RelTool (p1,25.000000,7.500000,10.436835,\Rx:=0.000000,\Ry:=-35.724990),vel1,zoneval,tool_new\WObj:=Workobject_1;
MoveL RelTool (p1,25.000000,6.500000,10.436835,\Rx:=0.000000,\Ry:=-35.724990),vel1,zoneval,tool_new\WObj:=Workobject_1;
MoveL RelTool (p1,25.000000,5.500000,10.436835,\Rx:=0.000000,\Ry:=-35.724990),vel1,zoneval,tool_new\WObj:=Workobject_1;
MoveL RelTool (p1,25.000000,4.500000,10.436835,\Rx:=0.000000,\Ry:=-35.724990),vel1,zoneval,tool_new\WObj:=Workobject_1;
MoveL RelTool (p1,25.000000,3.500000,10.436835,\Rx:=0.000000,\Ry:=-35.724990),vel1,zoneval,tool_new\WObj:=Workobject_1;
MoveL RelTool (p1,25.000000,3.000000,10.436835,\Rx:=0.000000,\Ry:=-35.724990),vel1,zoneval,tool_new\WObj:=Workobject_1;
MoveL RelTool (p1,25.500000,3.000000,10.747858,\Rx:=0.000000,\Ry:=-29.628079),vel1,zoneval,tool_new\WObj:=Workobject_1;
MoveL RelTool (p1,25.500000,4.000000,10.747858,\Rx:=0.000000,\Ry:=-29.628079),vel1,zoneval,tool_new\WObj:=Workobject_1;
MoveL RelTool (p1,25.500000,5.000000,10.747858,\Rx:=0.000000,\Ry:=-29.628079),vel1,zoneval,tool_new\WObj:=Workobject_1;
MoveL RelTool (p1,25.500000,6.000000,10.747858,\Rx:=0.000000,\Ry:=-29.628079),vel1,zoneval,tool_new\WObj:=Workobject_1;
MoveL RelTool (p1,25.500000,7.000000,10.747858,\Rx:=0.000000,\Ry:=-29.628079),vel1,zoneval,tool_new\WObj:=Workobject_1;
MoveL RelTool (p1,25.500000,8.000000,10.747858,\Rx:=0.000000,\Ry:=-29.628079),vel1,zoneval,tool_new\WObj:=Workobject_1;
MoveL RelTool (p1,25.500000,9.000000,10.747858,\Rx:=0.000000,\Ry:=-29.628079),vel1,zoneval,tool_new\WObj:=Workobject_1;
MoveL RelTool (p1,25.500000,10.000000,10.747858,\Rx:=0.000000,\Ry:=-29.628079),vel1,zoneval,tool_new\WObj:=Workobject_1;
MoveL RelTool (p1,25.500000,11.000000,10.747858,\Rx:=0.000000,\Ry:=-29.628079),vel1,zoneval,tool_new\WObj:=Workobject_1;
MoveL RelTool (p1,25.500000,12.000000,10.747858,\Rx:=0.000000,\Ry:=-29.628079),vel1,zoneval,tool_new\WObj:=Workobject_1;
MoveL RelTool (p1,25.500000,13.000000,10.747858,\Rx:=0.000000,\Ry:=-29.628079),vel1,zoneval,tool_new\WObj:=Workobject_1;
MoveL RelTool (p1,25.500000,14.000000,10.747858,\Rx:=0.000000,\Ry:=-29.628079),vel1,zoneval,tool_new\WObj:=Workobject_1;
MoveL RelTool (p1,25.500000,15.000000,10.747858,\Rx:=0.000000,\Ry:=-29.628079),vel1,zoneval,tool_new\WObj:=Workobject_1;
MoveL RelTool (p1,25.500000,16.000000,10.747858,\Rx:=0.000000,\Ry:=-29.628079),vel1,zoneval,tool_new\WObj:=Workobject_1;
MoveL RelTool (p1,26.000000,16.000000,11.032222,\Rx:=0.000000,\Ry:=-29.628079),vel1,zoneval,tool_new\WObj:=Workobject_1;
MoveL RelTool (p1,26.000000,15.500000,11.032222,\Rx:=0.000000,\Ry:=-29.628079),vel1,zoneval,tool_new\WObj:=Workobject_1;
MoveL RelTool (p1,26.000000,14.500000,11.032222,\Rx:=0.000000,\Ry:=-29.628079),vel1,zoneval,tool_new\WObj:=Workobject_1;
MoveL RelTool (p1,26.000000,13.500000,11.032222,\Rx:=0.000000,\Ry:=-29.628079),vel1,zoneval,tool_new\WObj:=Workobject_1;
MoveL RelTool (p1,26.000000,12.500000,11.032222,\Rx:=0.000000,\Ry:=-29.628079),vel1,zoneval,tool_new\WObj:=Workobject_1;
MoveL RelTool (p1,26.000000,11.500000,11.032222,\Rx:=0.000000,\Ry:=-29.628079),vel1,zoneval,tool_new\WObj:=Workobject_1;
MoveL RelTool (p1,26.000000,10.500000,11.032222,\Rx:=0.000000,\Ry:=-29.628079),vel1,zoneval,tool_new\WObj:=Workobject_1;
MoveL RelTool (p1,26.000000,9.500000,11.032222,\Rx:=0.000000,\Ry:=-29.628079),vel1,zoneval,tool_new\WObj:=Workobject_1;
MoveL RelTool (p1,26.000000,8.500000,11.032222,\Rx:=0.000000,\Ry:=-29.628079),vel1,zoneval,tool_new\WObj:=Workobject_1;
MoveL RelTool (p1,26.000000,7.500000,11.032222,\Rx:=0.000000,\Ry:=-29.628079),vel1,zoneval,tool_new\WObj:=Workobject_1;
MoveL RelTool (p1,26.000000,6.500000,11.032222,\Rx:=0.000000,\Ry:=-29.628079),vel1,zoneval,tool_new\WObj:=Workobject_1;
MoveL RelTool (p1,26.000000,5.500000,11.032222,\Rx:=0.000000,\Ry:=-29.628079),vel1,zoneval,tool_new\WObj:=Workobject_1;
MoveL RelTool (p1,26.000000,4.500000,11.032222,\Rx:=0.000000,\Ry:=-29.628079),vel1,zoneval,tool_new\WObj:=Workobject_1;
MoveL RelTool (p1,26.000000,3.500000,11.032222,\Rx:=0.000000,\Ry:=-29.628079),vel1,zoneval,tool_new\WObj:=Workobject_1;
MoveL RelTool (p1,26.000000,3.000000,11.032222,\Rx:=0.000000,\Ry:=-29.628079),vel1,zoneval,tool_new\WObj:=Workobject_1;
MoveL RelTool (p1,26.500000,3.000000,11.316585,\Rx:=0.000000,\Ry:=-29.628079),vel1,zoneval,tool_new\WObj:=Workobject_1;
MoveL RelTool (p1,26.500000,4.000000,11.316585,\Rx:=0.000000,\Ry:=-29.628079),vel1,zoneval,tool_new\WObj:=Workobject_1;
MoveL RelTool (p1,26.500000,5.000000,11.316585,\Rx:=0.000000,\Ry:=-29.628079),vel1,zoneval,tool_new\WObj:=Workobject_1;
MoveL RelTool (p1,26.500000,6.000000,11.316585,\Rx:=0.000000,\Ry:=-29.628079),vel1,zoneval,tool_new\WObj:=Workobject_1;
MoveL RelTool (p1,26.500000,7.000000,11.316585,\Rx:=0.000000,\Ry:=-29.628079),vel1,zoneval,tool_new\WObj:=Workobject_1;
MoveL RelTool (p1,26.500000,8.000000,11.316585,\Rx:=0.000000,\Ry:=-29.628079),vel1,zoneval,tool_new\WObj:=Workobject_1;
MoveL RelTool (p1,26.500000,9.000000,11.316585,\Rx:=0.000000,\Ry:=-29.628079),vel1,zoneval,tool_new\WObj:=Workobject_1;
MoveL RelTool (p1,26.500000,10.000000,11.316585,\Rx:=0.000000,\Ry:=-29.628079),vel1,zoneval,tool_new\WObj:=Workobject_1;
MoveL RelTool (p1,26.500000,11.000000,11.316585,\Rx:=0.000000,\Ry:=-29.628079),vel1,zoneval,tool_new\WObj:=Workobject_1;
MoveL RelTool (p1,26.500000,12.000000,11.316585,\Rx:=0.000000,\Ry:=-29.628079),vel1,zoneval,tool_new\WObj:=Workobject_1;
MoveL RelTool (p1,26.500000,13.000000,11.316585,\Rx:=0.000000,\Ry:=-29.628079),vel1,zoneval,tool_new\WObj:=Workobject_1;
MoveL RelTool (p1,26.500000,14.000000,11.316585,\Rx:=0.000000,\Ry:=-29.628079),vel1,zoneval,tool_new\WObj:=Workobject_1;
MoveL RelTool (p1,26.500000,15.000000,11.316585,\Rx:=0.000000,\Ry:=-29.628079),vel1,zoneval,tool_new\WObj:=Workobject_1;
MoveL RelTool (p1,26.500000,16.000000,11.316585,\Rx:=0.000000,\Ry:=-29.628079),vel1,zoneval,tool_new\WObj:=Workobject_1;
MoveL RelTool (p1,27.000000,16.000000,11.588411,\Rx:=0.000000,\Ry:=-24.229330),vel1,zoneval,tool_new\WObj:=Workobject_1;
MoveL RelTool (p1,27.000000,15.500000,11.588411,\Rx:=0.000000,\Ry:=-24.229330),vel1,zoneval,tool_new\WObj:=Workobject_1;
MoveL RelTool (p1,27.000000,14.500000,11.588411,\Rx:=0.000000,\Ry:=-24.229330),vel1,zoneval,tool_new\WObj:=Workobject_1;
MoveL RelTool (p1,27.000000,13.500000,11.588411,\Rx:=0.000000,\Ry:=-24.229330),vel1,zoneval,tool_new\WObj:=Workobject_1;
MoveL RelTool (p1,27.000000,12.500000,11.588411,\Rx:=0.000000,\Ry:=-24.229330),vel1,zoneval,tool_new\WObj:=Workobject_1;
MoveL RelTool (p1,27.000000,11.500000,11.588411,\Rx:=0.000000,\Ry:=-24.229330),vel1,zoneval,tool_new\WObj:=Workobject_1;
MoveL RelTool (p1,27.000000,10.500000,11.588411,\Rx:=0.000000,\Ry:=-24.229330),vel1,zoneval,tool_new\WObj:=Workobject_1;
MoveL RelTool (p1,27.000000,9.500000,11.588411,\Rx:=0.000000,\Ry:=-24.229330),vel1,zoneval,tool_new\WObj:=Workobject_1;
MoveL RelTool (p1,27.000000,8.500000,11.588411,\Rx:=0.000000,\Ry:=-24.229330),vel1,zoneval,tool_new\WObj:=Workobject_1;
MoveL RelTool (p1,27.000000,7.500000,11.588411,\Rx:=0.000000,\Ry:=-24.229330),vel1,zoneval,tool_new\WObj:=Workobject_1;
MoveL RelTool (p1,27.000000,6.500000,11.588411,\Rx:=0.000000,\Ry:=-24.229330),vel1,zoneval,tool_new\WObj:=Workobject_1;
MoveL RelTool (p1,27.000000,5.500000,11.588411,\Rx:=0.000000,\Ry:=-24.229330),vel1,zoneval,tool_new\WObj:=Workobject_1;
MoveL RelTool (p1,27.000000,4.500000,11.588411,\Rx:=0.000000,\Ry:=-24.229330),vel1,zoneval,tool_new\WObj:=Workobject_1;
MoveL RelTool (p1,27.000000,3.500000,11.588411,\Rx:=0.000000,\Ry:=-24.229330),vel1,zoneval,tool_new\WObj:=Workobject_1;
MoveL RelTool (p1,27.000000,3.000000,11.588411,\Rx:=0.000000,\Ry:=-24.229330),vel1,zoneval,tool_new\WObj:=Workobject_1;
MoveL RelTool (p1,27.500000,3.000000,11.813427,\Rx:=0.000000,\Ry:=-24.229330),vel1,zoneval,tool_new\WObj:=Workobject_1;
MoveL RelTool (p1,27.500000,4.000000,11.813427,\Rx:=0.000000,\Ry:=-24.229330),vel1,zoneval,tool_new\WObj:=Workobject_1;
MoveL RelTool (p1,27.500000,5.000000,11.813427,\Rx:=0.000000,\Ry:=-24.229330),vel1,zoneval,tool_new\WObj:=Workobject_1;
MoveL RelTool (p1,27.500000,6.000000,11.813427,\Rx:=0.000000,\Ry:=-24.229330),vel1,zoneval,tool_new\WObj:=Workobject_1;
MoveL RelTool (p1,27.500000,7.000000,11.813427,\Rx:=0.000000,\Ry:=-24.229330),vel1,zoneval,tool_new\WObj:=Workobject_1;
MoveL RelTool (p1,27.500000,8.000000,11.813427,\Rx:=0.000000,\Ry:=-24.229330),vel1,zoneval,tool_new\WObj:=Workobject_1;
MoveL RelTool (p1,27.500000,9.000000,11.813427,\Rx:=0.000000,\Ry:=-24.229330),vel1,zoneval,tool_new\WObj:=Workobject_1;
MoveL RelTool (p1,27.500000,10.000000,11.813427,\Rx:=0.000000,\Ry:=-24.229330),vel1,zoneval,tool_new\WObj:=Workobject_1;
MoveL RelTool (p1,27.500000,11.000000,11.813427,\Rx:=0.000000,\Ry:=-24.229330),vel1,zoneval,tool_new\WObj:=Workobject_1;
MoveL RelTool (p1,27.500000,12.000000,11.813427,\Rx:=0.000000,\Ry:=-24.229330),vel1,zoneval,tool_new\WObj:=Workobject_1;
MoveL RelTool (p1,27.500000,13.000000,11.813427,\Rx:=0.000000,\Ry:=-24.229330),vel1,zoneval,tool_new\WObj:=Workobject_1;
MoveL RelTool (p1,27.500000,14.000000,11.813427,\Rx:=0.000000,\Ry:=-24.229330),vel1,zoneval,tool_new\WObj:=Workobject_1;
MoveL RelTool (p1,27.500000,15.000000,11.813427,\Rx:=0.000000,\Ry:=-24.229330),vel1,zoneval,tool_new\WObj:=Workobject_1;
MoveL RelTool (p1,27.500000,16.000000,11.813427,\Rx:=0.000000,\Ry:=-24.229330),vel1,zoneval,tool_new\WObj:=Workobject_1;
MoveL RelTool (p1,28.000000,16.000000,12.038444,\Rx:=0.000000,\Ry:=-24.229330),vel1,zoneval,tool_new\WObj:=Workobject_1;
MoveL RelTool (p1,28.000000,15.500000,12.038444,\Rx:=0.000000,\Ry:=-24.229330),vel1,zoneval,tool_new\WObj:=Workobject_1;
MoveL RelTool (p1,28.000000,14.500000,12.038444,\Rx:=0.000000,\Ry:=-24.229330),vel1,zoneval,tool_new\WObj:=Workobject_1;
MoveL RelTool (p1,28.000000,13.500000,12.038444,\Rx:=0.000000,\Ry:=-24.229330),vel1,zoneval,tool_new\WObj:=Workobject_1;
MoveL RelTool (p1,28.000000,12.500000,12.038444,\Rx:=0.000000,\Ry:=-24.229330),vel1,zoneval,tool_new\WObj:=Workobject_1;
MoveL RelTool (p1,28.000000,11.500000,12.038444,\Rx:=0.000000,\Ry:=-24.229330),vel1,zoneval,tool_new\WObj:=Workobject_1;
MoveL RelTool (p1,28.000000,10.500000,12.038444,\Rx:=0.000000,\Ry:=-24.229330),vel1,zoneval,tool_new\WObj:=Workobject_1;
MoveL RelTool (p1,28.000000,9.500000,12.038444,\Rx:=0.000000,\Ry:=-24.229330),vel1,zoneval,tool_new\WObj:=Workobject_1;
MoveL RelTool (p1,28.000000,8.500000,12.038444,\Rx:=0.000000,\Ry:=-24.229330),vel1,zoneval,tool_new\WObj:=Workobject_1;
MoveL RelTool (p1,28.000000,7.500000,12.038444,\Rx:=0.000000,\Ry:=-24.229330),vel1,zoneval,tool_new\WObj:=Workobject_1;
MoveL RelTool (p1,28.000000,6.500000,12.038444,\Rx:=0.000000,\Ry:=-24.229330),vel1,zoneval,tool_new\WObj:=Workobject_1;
MoveL RelTool (p1,28.000000,5.500000,12.038444,\Rx:=0.000000,\Ry:=-24.229330),vel1,zoneval,tool_new\WObj:=Workobject_1;
MoveL RelTool (p1,28.000000,4.500000,12.038444,\Rx:=0.000000,\Ry:=-24.229330),vel1,zoneval,tool_new\WObj:=Workobject_1;
MoveL RelTool (p1,28.000000,3.500000,12.038444,\Rx:=0.000000,\Ry:=-24.229330),vel1,zoneval,tool_new\WObj:=Workobject_1;
MoveL RelTool (p1,28.000000,3.000000,12.038444,\Rx:=0.000000,\Ry:=-24.229330),vel1,zoneval,tool_new\WObj:=Workobject_1;
MoveL RelTool (p1,28.500000,3.000000,12.263460,\Rx:=0.000000,\Ry:=-24.229330),vel1,zoneval,tool_new\WObj:=Workobject_1;
MoveL RelTool (p1,28.500000,4.000000,12.263460,\Rx:=0.000000,\Ry:=-24.229330),vel1,zoneval,tool_new\WObj:=Workobject_1;
MoveL RelTool (p1,28.500000,5.000000,12.263460,\Rx:=0.000000,\Ry:=-24.229330),vel1,zoneval,tool_new\WObj:=Workobject_1;
MoveL RelTool (p1,28.500000,6.000000,12.263460,\Rx:=0.000000,\Ry:=-24.229330),vel1,zoneval,tool_new\WObj:=Workobject_1;
MoveL RelTool (p1,28.500000,7.000000,12.263460,\Rx:=0.000000,\Ry:=-24.229330),vel1,zoneval,tool_new\WObj:=Workobject_1;
MoveL RelTool (p1,28.500000,8.000000,12.263460,\Rx:=0.000000,\Ry:=-24.229330),vel1,zoneval,tool_new\WObj:=Workobject_1;
MoveL RelTool (p1,28.500000,9.000000,12.263460,\Rx:=0.000000,\Ry:=-24.229330),vel1,zoneval,tool_new\WObj:=Workobject_1;
MoveL RelTool (p1,28.500000,10.000000,12.263460,\Rx:=0.000000,\Ry:=-24.229330),vel1,zoneval,tool_new\WObj:=Workobject_1;
MoveL RelTool (p1,28.500000,11.000000,12.263460,\Rx:=0.000000,\Ry:=-24.229330),vel1,zoneval,tool_new\WObj:=Workobject_1;
MoveL RelTool (p1,28.500000,12.000000,12.263460,\Rx:=0.000000,\Ry:=-24.229330),vel1,zoneval,tool_new\WObj:=Workobject_1;
MoveL RelTool (p1,28.500000,13.000000,12.263460,\Rx:=0.000000,\Ry:=-24.229330),vel1,zoneval,tool_new\WObj:=Workobject_1;
MoveL RelTool (p1,28.500000,14.000000,12.263460,\Rx:=0.000000,\Ry:=-24.229330),vel1,zoneval,tool_new\WObj:=Workobject_1;
MoveL RelTool (p1,28.500000,15.000000,12.263460,\Rx:=0.000000,\Ry:=-24.229330),vel1,zoneval,tool_new\WObj:=Workobject_1;
MoveL RelTool (p1,28.500000,16.000000,12.263460,\Rx:=0.000000,\Ry:=-24.229330),vel1,zoneval,tool_new\WObj:=Workobject_1;
MoveL RelTool (p1,29.000000,16.000000,12.476444,\Rx:=0.000000,\Ry:=-19.458267),vel1,zoneval,tool_new\WObj:=Workobject_1;
MoveL RelTool (p1,29.000000,15.500000,12.476444,\Rx:=0.000000,\Ry:=-19.458267),vel1,zoneval,tool_new\WObj:=Workobject_1;
MoveL RelTool (p1,29.000000,14.500000,12.476444,\Rx:=0.000000,\Ry:=-19.458267),vel1,zoneval,tool_new\WObj:=Workobject_1;
MoveL RelTool (p1,29.000000,13.500000,12.476444,\Rx:=0.000000,\Ry:=-19.458267),vel1,zoneval,tool_new\WObj:=Workobject_1;
MoveL RelTool (p1,29.000000,12.500000,12.476444,\Rx:=0.000000,\Ry:=-19.458267),vel1,zoneval,tool_new\WObj:=Workobject_1;
MoveL RelTool (p1,29.000000,11.500000,12.476444,\Rx:=0.000000,\Ry:=-19.458267),vel1,zoneval,tool_new\WObj:=Workobject_1;
MoveL RelTool (p1,29.000000,10.500000,12.476444,\Rx:=0.000000,\Ry:=-19.458267),vel1,zoneval,tool_new\WObj:=Workobject_1;
MoveL RelTool (p1,29.000000,9.500000,12.476444,\Rx:=0.000000,\Ry:=-19.458267),vel1,zoneval,tool_new\WObj:=Workobject_1;
MoveL RelTool (p1,29.000000,8.500000,12.476444,\Rx:=0.000000,\Ry:=-19.458267),vel1,zoneval,tool_new\WObj:=Workobject_1;
MoveL RelTool (p1,29.000000,7.500000,12.476444,\Rx:=0.000000,\Ry:=-19.458267),vel1,zoneval,tool_new\WObj:=Workobject_1;
MoveL RelTool (p1,29.000000,6.500000,12.476444,\Rx:=0.000000,\Ry:=-19.458267),vel1,zoneval,tool_new\WObj:=Workobject_1;
MoveL RelTool (p1,29.000000,5.500000,12.476444,\Rx:=0.000000,\Ry:=-19.458267),vel1,zoneval,tool_new\WObj:=Workobject_1;
MoveL RelTool (p1,29.000000,4.500000,12.476444,\Rx:=0.000000,\Ry:=-19.458267),vel1,zoneval,tool_new\WObj:=Workobject_1;
MoveL RelTool (p1,29.000000,3.500000,12.476444,\Rx:=0.000000,\Ry:=-19.458267),vel1,zoneval,tool_new\WObj:=Workobject_1;
MoveL RelTool (p1,29.000000,3.000000,12.476444,\Rx:=0.000000,\Ry:=-19.458267),vel1,zoneval,tool_new\WObj:=Workobject_1;
MoveL RelTool (p1,29.500000,3.000000,12.653093,\Rx:=0.000000,\Ry:=-19.458267),vel1,zoneval,tool_new\WObj:=Workobject_1;
MoveL RelTool (p1,29.500000,4.000000,12.653093,\Rx:=0.000000,\Ry:=-19.458267),vel1,zoneval,tool_new\WObj:=Workobject_1;
MoveL RelTool (p1,29.500000,5.000000,12.653093,\Rx:=0.000000,\Ry:=-19.458267),vel1,zoneval,tool_new\WObj:=Workobject_1;
MoveL RelTool (p1,29.500000,6.000000,12.653093,\Rx:=0.000000,\Ry:=-19.458267),vel1,zoneval,tool_new\WObj:=Workobject_1;
MoveL RelTool (p1,29.500000,7.000000,12.653093,\Rx:=0.000000,\Ry:=-19.458267),vel1,zoneval,tool_new\WObj:=Workobject_1;
MoveL RelTool (p1,29.500000,8.000000,12.653093,\Rx:=0.000000,\Ry:=-19.458267),vel1,zoneval,tool_new\WObj:=Workobject_1;
MoveL RelTool (p1,29.500000,9.000000,12.653093,\Rx:=0.000000,\Ry:=-19.458267),vel1,zoneval,tool_new\WObj:=Workobject_1;
MoveL RelTool (p1,29.500000,10.000000,12.653093,\Rx:=0.000000,\Ry:=-19.458267),vel1,zoneval,tool_new\WObj:=Workobject_1;
MoveL RelTool (p1,29.500000,11.000000,12.653093,\Rx:=0.000000,\Ry:=-19.458267),vel1,zoneval,tool_new\WObj:=Workobject_1;
MoveL RelTool (p1,29.500000,12.000000,12.653093,\Rx:=0.000000,\Ry:=-19.458267),vel1,zoneval,tool_new\WObj:=Workobject_1;
MoveL RelTool (p1,29.500000,13.000000,12.653093,\Rx:=0.000000,\Ry:=-19.458267),vel1,zoneval,tool_new\WObj:=Workobject_1;
MoveL RelTool (p1,29.500000,14.000000,12.653093,\Rx:=0.000000,\Ry:=-19.458267),vel1,zoneval,tool_new\WObj:=Workobject_1;
MoveL RelTool (p1,29.500000,15.000000,12.653093,\Rx:=0.000000,\Ry:=-19.458267),vel1,zoneval,tool_new\WObj:=Workobject_1;
MoveL RelTool (p1,29.500000,16.000000,12.653093,\Rx:=0.000000,\Ry:=-19.458267),vel1,zoneval,tool_new\WObj:=Workobject_1;
MoveL RelTool (p1,30.000000,16.000000,12.829743,\Rx:=0.000000,\Ry:=-19.458267),vel1,zoneval,tool_new\WObj:=Workobject_1;
MoveL RelTool (p1,30.000000,15.500000,12.829743,\Rx:=0.000000,\Ry:=-19.458267),vel1,zoneval,tool_new\WObj:=Workobject_1;
MoveL RelTool (p1,30.000000,14.500000,12.829743,\Rx:=0.000000,\Ry:=-19.458267),vel1,zoneval,tool_new\WObj:=Workobject_1;
MoveL RelTool (p1,30.000000,13.500000,12.829743,\Rx:=0.000000,\Ry:=-19.458267),vel1,zoneval,tool_new\WObj:=Workobject_1;
MoveL RelTool (p1,30.000000,12.500000,12.829743,\Rx:=0.000000,\Ry:=-19.458267),vel1,zoneval,tool_new\WObj:=Workobject_1;
MoveL RelTool (p1,30.000000,11.500000,12.829743,\Rx:=0.000000,\Ry:=-19.458267),vel1,zoneval,tool_new\WObj:=Workobject_1;
MoveL RelTool (p1,30.000000,10.500000,12.829743,\Rx:=0.000000,\Ry:=-19.458267),vel1,zoneval,tool_new\WObj:=Workobject_1;
MoveL RelTool (p1,30.000000,9.500000,12.829743,\Rx:=0.000000,\Ry:=-19.458267),vel1,zoneval,tool_new\WObj:=Workobject_1;
MoveL RelTool (p1,30.000000,8.500000,12.829743,\Rx:=0.000000,\Ry:=-19.458267),vel1,zoneval,tool_new\WObj:=Workobject_1;
MoveL RelTool (p1,30.000000,7.500000,12.829743,\Rx:=0.000000,\Ry:=-19.458267),vel1,zoneval,tool_new\WObj:=Workobject_1;
MoveL RelTool (p1,30.000000,6.500000,12.829743,\Rx:=0.000000,\Ry:=-19.458267),vel1,zoneval,tool_new\WObj:=Workobject_1;
MoveL RelTool (p1,30.000000,5.500000,12.829743,\Rx:=0.000000,\Ry:=-19.458267),vel1,zoneval,tool_new\WObj:=Workobject_1;
MoveL RelTool (p1,30.000000,4.500000,12.829743,\Rx:=0.000000,\Ry:=-19.458267),vel1,zoneval,tool_new\WObj:=Workobject_1;
MoveL RelTool (p1,30.000000,3.500000,12.829743,\Rx:=0.000000,\Ry:=-19.458267),vel1,zoneval,tool_new\WObj:=Workobject_1;
MoveL RelTool (p1,30.000000,3.000000,12.829743,\Rx:=0.000000,\Ry:=-19.458267),vel1,zoneval,tool_new\WObj:=Workobject_1;
MoveL RelTool (p1,30.500000,3.000000,13.006392,\Rx:=0.000000,\Ry:=-19.458267),vel1,zoneval,tool_new\WObj:=Workobject_1;
MoveL RelTool (p1,30.500000,4.000000,13.006392,\Rx:=0.000000,\Ry:=-19.458267),vel1,zoneval,tool_new\WObj:=Workobject_1;
MoveL RelTool (p1,30.500000,5.000000,13.006392,\Rx:=0.000000,\Ry:=-19.458267),vel1,zoneval,tool_new\WObj:=Workobject_1;
MoveL RelTool (p1,30.500000,6.000000,13.006392,\Rx:=0.000000,\Ry:=-19.458267),vel1,zoneval,tool_new\WObj:=Workobject_1;
MoveL RelTool (p1,30.500000,7.000000,13.006392,\Rx:=0.000000,\Ry:=-19.458267),vel1,zoneval,tool_new\WObj:=Workobject_1;
MoveL RelTool (p1,30.500000,8.000000,13.006392,\Rx:=0.000000,\Ry:=-19.458267),vel1,zoneval,tool_new\WObj:=Workobject_1;
MoveL RelTool (p1,30.500000,9.000000,13.006392,\Rx:=0.000000,\Ry:=-19.458267),vel1,zoneval,tool_new\WObj:=Workobject_1;
MoveL RelTool (p1,30.500000,10.000000,13.006392,\Rx:=0.000000,\Ry:=-19.458267),vel1,zoneval,tool_new\WObj:=Workobject_1;
MoveL RelTool (p1,30.500000,11.000000,13.006392,\Rx:=0.000000,\Ry:=-19.458267),vel1,zoneval,tool_new\WObj:=Workobject_1;
MoveL RelTool (p1,30.500000,12.000000,13.006392,\Rx:=0.000000,\Ry:=-19.458267),vel1,zoneval,tool_new\WObj:=Workobject_1;
MoveL RelTool (p1,30.500000,13.000000,13.006392,\Rx:=0.000000,\Ry:=-19.458267),vel1,zoneval,tool_new\WObj:=Workobject_1;
MoveL RelTool (p1,30.500000,14.000000,13.006392,\Rx:=0.000000,\Ry:=-19.458267),vel1,zoneval,tool_new\WObj:=Workobject_1;
MoveL RelTool (p1,30.500000,15.000000,13.006392,\Rx:=0.000000,\Ry:=-19.458267),vel1,zoneval,tool_new\WObj:=Workobject_1;
MoveL RelTool (p1,30.500000,16.000000,13.006392,\Rx:=0.000000,\Ry:=-19.458267),vel1,zoneval,tool_new\WObj:=Workobject_1;
MoveL RelTool (p1,31.000000,16.000000,13.183042,\Rx:=0.000000,\Ry:=-19.458267),vel1,zoneval,tool_new\WObj:=Workobject_1;
MoveL RelTool (p1,31.000000,15.500000,13.183042,\Rx:=0.000000,\Ry:=-19.458267),vel1,zoneval,tool_new\WObj:=Workobject_1;
MoveL RelTool (p1,31.000000,14.500000,13.183042,\Rx:=0.000000,\Ry:=-19.458267),vel1,zoneval,tool_new\WObj:=Workobject_1;
MoveL RelTool (p1,31.000000,13.500000,13.183042,\Rx:=0.000000,\Ry:=-19.458267),vel1,zoneval,tool_new\WObj:=Workobject_1;
MoveL RelTool (p1,31.000000,12.500000,13.183042,\Rx:=0.000000,\Ry:=-19.458267),vel1,zoneval,tool_new\WObj:=Workobject_1;
MoveL RelTool (p1,31.000000,11.500000,13.183042,\Rx:=0.000000,\Ry:=-19.458267),vel1,zoneval,tool_new\WObj:=Workobject_1;
MoveL RelTool (p1,31.000000,10.500000,13.183042,\Rx:=0.000000,\Ry:=-19.458267),vel1,zoneval,tool_new\WObj:=Workobject_1;
MoveL RelTool (p1,31.000000,9.500000,13.183042,\Rx:=0.000000,\Ry:=-19.458267),vel1,zoneval,tool_new\WObj:=Workobject_1;
MoveL RelTool (p1,31.000000,8.500000,13.183042,\Rx:=0.000000,\Ry:=-19.458267),vel1,zoneval,tool_new\WObj:=Workobject_1;
MoveL RelTool (p1,31.000000,7.500000,13.183042,\Rx:=0.000000,\Ry:=-19.458267),vel1,zoneval,tool_new\WObj:=Workobject_1;
MoveL RelTool (p1,31.000000,6.500000,13.183042,\Rx:=0.000000,\Ry:=-19.458267),vel1,zoneval,tool_new\WObj:=Workobject_1;
MoveL RelTool (p1,31.000000,5.500000,13.183042,\Rx:=0.000000,\Ry:=-19.458267),vel1,zoneval,tool_new\WObj:=Workobject_1;
MoveL RelTool (p1,31.000000,4.500000,13.183042,\Rx:=0.000000,\Ry:=-19.458267),vel1,zoneval,tool_new\WObj:=Workobject_1;
MoveL RelTool (p1,31.000000,3.500000,13.183042,\Rx:=0.000000,\Ry:=-19.458267),vel1,zoneval,tool_new\WObj:=Workobject_1;
MoveL RelTool (p1,31.000000,3.000000,13.183042,\Rx:=0.000000,\Ry:=-19.458267),vel1,zoneval,tool_new\WObj:=Workobject_1;
MoveL RelTool (p1,31.500000,3.000000,13.330371,\Rx:=0.000000,\Ry:=-14.997850),vel1,zoneval,tool_new\WObj:=Workobject_1;
MoveL RelTool (p1,31.500000,4.000000,13.330371,\Rx:=0.000000,\Ry:=-14.997850),vel1,zoneval,tool_new\WObj:=Workobject_1;
MoveL RelTool (p1,31.500000,5.000000,13.330371,\Rx:=0.000000,\Ry:=-14.997850),vel1,zoneval,tool_new\WObj:=Workobject_1;
MoveL RelTool (p1,31.500000,6.000000,13.330371,\Rx:=0.000000,\Ry:=-14.997850),vel1,zoneval,tool_new\WObj:=Workobject_1;
MoveL RelTool (p1,31.500000,7.000000,13.330371,\Rx:=0.000000,\Ry:=-14.997850),vel1,zoneval,tool_new\WObj:=Workobject_1;
MoveL RelTool (p1,31.500000,8.000000,13.330371,\Rx:=0.000000,\Ry:=-14.997850),vel1,zoneval,tool_new\WObj:=Workobject_1;
MoveL RelTool (p1,31.500000,9.000000,13.330371,\Rx:=0.000000,\Ry:=-14.997850),vel1,zoneval,tool_new\WObj:=Workobject_1;
MoveL RelTool (p1,31.500000,10.000000,13.330371,\Rx:=0.000000,\Ry:=-14.997850),vel1,zoneval,tool_new\WObj:=Workobject_1;
MoveL RelTool (p1,31.500000,11.000000,13.330371,\Rx:=0.000000,\Ry:=-14.997850),vel1,zoneval,tool_new\WObj:=Workobject_1;
MoveL RelTool (p1,31.500000,12.000000,13.330371,\Rx:=0.000000,\Ry:=-14.997850),vel1,zoneval,tool_new\WObj:=Workobject_1;
MoveL RelTool (p1,31.500000,13.000000,13.330371,\Rx:=0.000000,\Ry:=-14.997850),vel1,zoneval,tool_new\WObj:=Workobject_1;
MoveL RelTool (p1,31.500000,14.000000,13.330371,\Rx:=0.000000,\Ry:=-14.997850),vel1,zoneval,tool_new\WObj:=Workobject_1;
MoveL RelTool (p1,31.500000,15.000000,13.330371,\Rx:=0.000000,\Ry:=-14.997850),vel1,zoneval,tool_new\WObj:=Workobject_1;
